; HEADER_BLOCK_START
; generated by Creality_Print V6.0.2.1574 on 2025-01-24 at 23:15:31
; total layer number: 79
; filament_density: 1.24
; filament_diameter: 1.75
; max_z_height: 11.20
; HEADER_BLOCK_END

; MINX = 58.40
; MINY = 29.93
; MINZ = 0.00
; MAXX = 85.35
; MAXY = 63.97
; MAXZ = 11.15

; THUMBNAIL_BLOCK_START

;
; THUMBNAIL_BLOCK_END

; THUMBNAIL_BLOCK_START

;
; THUMBNAIL_BLOCK_END

; external perimeters extrusion width = 0.42mm
; perimeters extrusion width = 0.45mm
; infill extrusion width = 0.45mm
; solid infill extrusion width = 0.42mm
; top infill extrusion width = 0.42mm
; support material extrusion width = 0.42mm
; first layer extrusion width = 0.50mm

; EXECUTABLE_BLOCK_START
EXCLUDE_OBJECT_DEFINE NAME=EnclosureAssy_IM_Final_Window.STL_id_0_copy_0 CENTER=71.8781,46.9519 POLYGON=[[58.4045,33.406],[58.409,33.23],[58.4223,33.0546],[58.4446,32.88],[58.4756,32.7067],[58.5154,32.5353],[58.5638,32.3661],[58.6208,32.1996],[58.686,32.0361],[58.7595,31.8762],[58.841,31.7202],[58.9303,31.5686],[59.0271,31.4216],[59.1313,31.2798],[59.2425,31.1434],[59.3605,31.0128],[59.4849,30.8883],[59.6155,30.7704],[59.7519,30.6591],[59.8938,30.555],[60.0407,30.4581],[60.1924,30.3689],[60.3484,30.2874],[60.5083,30.2139],[60.6717,30.1486],[60.8383,30.0917],[61.0075,30.0433],[61.1789,30.0035],[61.3521,29.9724],[61.5267,29.9502],[61.7022,29.9368],[61.8781,29.9324],[81.8781,29.9324],[82.0541,29.9368],[82.2295,29.9502],[82.4041,29.9724],[82.5773,30.0035],[82.7488,30.0433],[82.918,30.0917],[83.0845,30.1486],[83.2479,30.2139],[83.4079,30.2874],[83.5639,30.3689],[83.7155,30.4581],[83.8625,30.555],[84.0043,30.6591],[84.1407,30.7704],[84.2713,30.8883],[84.3957,31.0128],[84.5137,31.1434],[84.6249,31.2798],[84.7291,31.4216],[84.826,31.5686],[84.9152,31.7202],[84.9967,31.8762],[85.0702,32.0361],[85.1355,32.1996],[85.1924,32.3661],[85.2408,32.5353],[85.2806,32.7067],[85.3116,32.88],[85.3339,33.0546],[85.3472,33.23],[85.3517,33.406],[85.3517,49.906],[85.3513,50.0163],[85.344,50.363],[85.3277,50.7093],[85.3026,51.0551],[85.2686,51.4002],[85.2257,51.7442],[85.174,52.0871],[85.1135,52.4285],[85.0442,52.7682],[84.9662,53.1061],[84.8795,53.4418],[84.7842,53.7752],[84.6804,54.106],[84.568,54.434],[84.4473,54.7591],[84.3183,55.0809],[84.181,55.3993],[84.0356,55.7141],[83.8821,56.025],[83.7207,56.3318],[83.5514,56.6344],[83.3744,56.9326],[83.1898,57.2261],[82.9977,57.5147],[82.7982,57.7983],[82.5915,58.0767],[82.3777,58.3497],[82.157,58.6171],[81.9294,58.8787],[81.6952,59.1343],[81.4545,59.3839],[81.2074,59.6272],[80.9542,59.864],[80.6949,60.0943],[80.4298,60.3178],[80.1591,60.5344],[79.8829,60.7439],[79.6013,60.9463],[79.3147,61.1414],[79.0231,61.329],[78.7268,61.5091],[78.426,61.6815],[78.1208,61.8461],[77.8115,62.0028],[77.4982,62.1515],[77.1813,62.292],[76.8608,62.4244],[76.537,62.5484],[73.2433,63.7261],[73.1436,63.7616],[73.0549,63.7907],[73.0049,63.806],[72.8634,63.8456],[72.7228,63.8794],[72.6694,63.8908],[72.579,63.9083],[72.4734,63.926],[72.434,63.9318],[72.2758,63.9512],[72.1418,63.9626],[72.0772,63.9664],[71.9954,63.9697],[71.8781,63.9714],[71.7046,63.9676],[71.679,63.9664],[71.5593,63.9584],[71.4804,63.9512],[71.4138,63.9438],[71.2828,63.926],[71.1237,63.8982],[71.0868,63.8908],[70.98,63.8672],[70.8928,63.8456],[70.8377,63.8309],[70.7014,63.7907],[70.559,63.7429],[67.2192,62.5484],[66.8954,62.4244],[66.575,62.292],[66.258,62.1515],[65.9448,62.0028],[65.6354,61.8461],[65.3303,61.6815],[65.0294,61.5091],[64.7331,61.329],[64.4416,61.1414],[64.1549,60.9463],[63.8734,60.7439],[63.5971,60.5344],[63.3264,60.3178],[63.0613,60.0943],[62.8021,59.864],[62.5488,59.6272],[62.3018,59.3839],[62.0611,59.1343],[61.8268,58.8787],[61.5993,58.6171],[61.3785,58.3497],[61.1647,58.0767],[60.958,57.7983],[60.7586,57.5147],[60.5665,57.2261],[60.3818,56.9326],[60.2048,56.6344],[60.0356,56.3318],[59.8741,56.025],[59.7207,55.7141],[59.5752,55.3993],[59.438,55.0809],[59.3089,54.7591],[59.1882,54.434],[59.0759,54.106],[58.972,53.7752],[58.8768,53.4418],[58.7901,53.1061],[58.7121,52.7682],[58.6428,52.4285],[58.5822,52.0871],[58.5305,51.7442],[58.4876,51.4002],[58.4536,51.0551],[58.4285,50.7093],[58.4123,50.363],[58.405,50.0163],[58.4045,49.906],[58.4045,33.406]]
M73 P0 R7
M106 S0
M106 P2 S0
;TYPE:Custom
M140 S0
M104 S0 
START_PRINT EXTRUDER_TEMP=220 BED_TEMP=50
T0
M204 S2000
G1 Z3 F600
M83
G92 E0
G1 Z1 F600
G90
G21
M83 ; use relative distances for extrusion
G1 E-.8 F2400
M106 S0
;LAYER_CHANGE
;Z:0.2
;HEIGHT:0.2
;BEFORE_LAYER_CHANGE
;0.2
G92 E0

;AFTER_LAYER_CHANGE
;0.2
;_SET_FAN_SPEED_CHANGING_LAYER
SET_VELOCITY_LIMIT ACCEL=1000 ACCEL_TO_DECEL=1000
SET_VELOCITY_LIMIT SQUARE_CORNER_VELOCITY=20
; printing object EnclosureAssy_IM_Final_Window.STL id:0 copy 0
EXCLUDE_OBJECT_START NAME=EnclosureAssy_IM_Final_Window.STL_id_0_copy_0
G1 Z.4 F30000
G1 X70.939 Y30.544
G1 Z.2
G1 E.8 F2400
;TYPE:Support
;WIDTH:0.5
G1 F3600
G2 X61.729 Y30.548 I-4.535 J166.12 E.33261
G1 X61.308 Y30.601 E.0153
G1 X61.308 Y27.751 E.10291
G1 X70.939 Y27.751 E.34774
G1 X70.939 Y30.475 E.09837
G1 X70.528 Y30.133 F30000
G1 F3600
G2 X61.72 Y30.136 I-4.328 J175.949 E.31807
G1 X61.72 Y28.162 E.07127
G1 X70.528 Y28.162 E.31803
G1 X70.528 Y30.133 E.07114
G1 X70.02 Y29.625 F30000
G1 F3600
G1 X62.229 Y29.625 E.2813
G1 X62.228 Y28.67 E.03446
G1 X70.02 Y28.67 E.28134
G1 X70.02 Y29.625 E.03446
G1 E-.8 F2400
;WIPE_START
G1 F3600
G1 X70.02 Y28.67
G1 X68.975 Y28.67
;WIPE_END
G1 X75.841 Y32.002 Z.6 F30000
G1 X80.701 Y34.36 Z.6
G1 Z.2
G1 E.8 F2400
G1 F3600
G1 X80.826 Y34.519 E.0073
G3 X80.818 Y50.296 I-361.505 J7.692 E.5697
G3 X62.93 Y49.902 I-8.94 J-.393 E1.00088
G1 X62.93 Y34.51 E.55577
G3 X63.095 Y34.358 I.161 J.009 E.00896
G1 X80.632 Y34.358 E.63319
G1 X68.062 Y37.382 F30000
M73 P1 R7
G1 F3600
M73 P1 R7
G1 X68.062 Y53.645 E.58718
G1 X75.694 Y53.645 E.27554
G1 X75.694 Y37.382 E.58718
G1 X68.131 Y37.382 E.27307
G1 E-.8 F2400
;WIPE_START
G1 F3600
G1 X70.131 Y37.382
;WIPE_END
G1 X74.977 Y43.279 Z.6 F30000
G1 X80.415 Y49.898 Z.6
G1 Z.2
G1 E.8 F2400
G1 F3600
G3 X63.341 Y49.898 I-8.537 J0 E.96833
G1 X63.342 Y34.769 E.54624
G1 X80.415 Y34.769 E.61645
G1 X80.415 Y49.898 E.54624
G1 X79.907 Y49.892 F30000
G1 F3600
G3 X63.849 Y49.892 I-8.029 J.006 E.91115
G1 X63.85 Y35.277 E.5277
G1 X79.907 Y35.277 E.57977
G1 X79.907 Y49.892 E.5277
G1 X79.399 Y49.887 F30000
G1 F3600
G3 X77.349 Y55.072 I-7.571 J.004 E.20618
G1 X77.391 Y55.072 E.00154
G2 X77.121 Y55.331 I.851 J1.157 E.01357
G1 X77.121 Y55.309 E.00081
G3 X66.635 Y55.309 I-5.243 J-5.456 E.41826
M73 P2 R7
G1 X66.635 Y55.331 E.00081
M73 P2 R7
G2 X66.365 Y55.072 I-1.121 J.897 E.01357
G1 X66.408 Y55.072 E.00154
G3 X64.357 Y49.887 I5.52 J-5.181 E.20618
G1 X64.357 Y35.785 E.50916
G1 X66.635 Y35.785 E.08224
G1 X66.635 Y55.072 E.69638
G1 X77.121 Y55.072 E.37859
G1 X77.121 Y35.785 E.69638
G1 X79.399 Y35.785 E.08226
G1 X79.399 Y49.887 E.50916
G1 X75.398 Y55.58 F30000
G1 F3600
G1 X75.486 Y55.923 E.01281
G3 X68.271 Y55.924 I-3.608 J-6.09 E.27339
G1 X68.358 Y55.58 E.01282
G1 X75.398 Y55.58 E.25419
G1 X66.127 Y53.286 F30000
G1 F3600
G1 X65.784 Y53.374 E.01281
G3 X64.865 Y49.881 I6.29 J-3.522 E.13181
G1 X64.865 Y36.293 E.49062
G1 X66.127 Y36.293 E.04557
G1 X66.127 Y53.286 E.61356
G1 E-.8 F2400
;WIPE_START
G1 F3600
G1 X66.127 Y51.286
;WIPE_END
G1 X73.647 Y52.593 Z.6 F30000
G1 X77.629 Y53.286 Z.6
G1 Z.2
G1 E.8 F2400
G1 F3600
G1 X77.629 Y36.293 E.61356
G1 X78.891 Y36.293 E.04559
G3 X78.884 Y50.212 I-318.928 J6.794 E.50261
G3 X77.972 Y53.374 I-7.049 J-.32 E.11993
G1 X77.629 Y53.286 E.01281
G1 X76.613 Y54.564 F30000
G1 F3600
G1 X67.143 Y54.564 E.34192
G1 X67.143 Y36.463 E.65356
M73 P3 R7
G1 X76.613 Y36.463 E.34192
M73 P3 R7
G1 X76.613 Y54.564 E.65356
G1 X76.105 Y54.056 F30000
G1 F3600
G1 X67.651 Y54.056 E.30525
G1 X67.651 Y36.971 E.61689
G1 X76.105 Y36.971 E.30525
G1 X76.105 Y54.056 E.61689
G1 E-.8 F2400
;WIPE_START
G1 F3600
G1 X76.105 Y52.056
;WIPE_END
G1 X72.668 Y58.871 Z.6 F30000
G1 X71.978 Y60.239 Z.6
G1 Z.2
G1 E.8 F2400
G1 F3600
G3 X74.003 Y62.291 I-.537 J2.555 E.11027
G2 X75.383 Y62.28 I.682 J-.983 E.05311
G1 X76.694 Y61.83 E.05002
G1 X76.694 Y66.153 E.15607
G1 X67.063 Y66.153 E.34774
G1 X67.124 Y61.856 E.15515
G2 X69.653 Y62.383 I1.943 J-2.992 E.09543
G3 X70.832 Y60.546 I5.147 J2.007 E.07936
G3 X71.91 Y60.237 I1.047 J1.617 E.04106
G1 X71.878 Y60.647 F30000
G1 F3600
G3 X73.603 Y62.446 I-.371 J2.082 E.09621
G2 X75.825 Y62.578 I1.194 J-1.342 E.0867
G1 X76.282 Y62.425 E.0174
G1 X76.282 Y65.741 E.11975
G1 X67.474 Y65.741 E.31803
G1 X67.474 Y62.425 E.11976
G1 X68.589 Y62.764 E.04209
G2 X70.536 Y61.467 I.579 J-1.241 E.10127
G3 X71.878 Y60.647 I1.355 J.709 E.05965
G1 X71.878 Y61.155 F30000
G1 F3600
G3 X73.14 Y62.667 I-.517 J1.714 E.07528
G2 X75.774 Y63.126 I1.572 J-1.23 E.1058
G1 X75.774 Y65.234 E.07608
G1 X67.982 Y65.234 E.28136
G1 X67.982 Y63.127 E.07606
G2 X71.07 Y61.566 I1.054 J-1.75 E.14903
G3 X71.878 Y61.155 I.816 J.606 E.03392
G1 X71.878 Y61.664 F30000
G1 F3600
G3 X72.598 Y62.739 I-.402 J1.048 E.0498
G2 X75.267 Y63.784 I1.891 J-.898 E.11398
G1 X75.267 Y64.726 E.03399
G1 X68.49 Y64.726 E.24468
G1 X68.49 Y63.785 E.03397
G2 X71.549 Y61.789 I.665 J-2.324 E.14952
G1 X71.569 Y61.773 E.00093
G3 X71.878 Y61.664 I.314 J.395 E.01206
G1 X71.873 Y62.394 F30000
M73 P4 R7
G1 F3600
M73 P4 R7
G2 X73.288 Y64.218 I3.411 J-1.186 E.08484
G1 X70.503 Y64.218 E.10057
G2 X71.873 Y62.394 I-2.119 J-3.018 E.08373
G1 E-.8 F2400
;WIPE_START
G1 F3600
G1 X71.357 Y63.384
G1 X70.725 Y64.001
;WIPE_END
G1 X73.252 Y56.8 Z.6 F30000
G1 X82.448 Y30.601 Z.6
G1 Z.2
G1 E.8 F2400
G1 F3600
G1 X81.885 Y30.544 E.02043
G2 X72.817 Y30.544 I-4.536 J359.482 E.32742
G1 X72.817 Y27.751 E.10084
G1 X82.448 Y27.751 E.34774
G1 X82.448 Y30.533 E.10044
G1 X73.228 Y30.133 F30000
G1 F3600
G1 X73.228 Y28.162 E.07114
G1 X82.036 Y28.162 E.31803
G1 X82.036 Y30.136 E.07128
G1 X81.893 Y30.133 E.00519
G2 X73.228 Y30.133 I-4.337 J340.169 E.31285
G1 X73.736 Y29.625 F30000
G1 F3600
G1 X73.736 Y28.67 E.03446
G1 X81.529 Y28.67 E.28136
G1 X81.529 Y29.625 E.03446
G1 X73.736 Y29.625 E.28136
G1 E-.8 F2400
;WIPE_START
G1 F3600
G1 X75.736 Y29.625
;WIPE_END
M73 P4 R6
G1 X74.01 Y37.06 Z.6 F30000
M73 P4 R6
G1 X68.446 Y61.033 Z.6
G1 Z.2
G1 E.8 F2400
;TYPE:Inner wall
;WIDTH:0.499999
G1 F3600
G1 X68.133 Y60.936 E.01182
G3 X60.224 Y49.995 I3.739 J-11.032 E.51993
G1 X60.226 Y33.427 E.59819
G3 X61.356 Y31.853 I1.725 J.045 E.07429
G1 X61.924 Y31.751 E.02083
G1 X81.779 Y31.751 E.71688
G3 X82.901 Y32.128 I-.015 J1.907 E.04347
G1 X83.201 Y32.439 E.01561
G1 X83.452 Y32.912 E.01933
G1 X83.53 Y33.428 E.01882
G1 X83.533 Y49.899 E.5947
G3 X74.845 Y61.17 I-11.662 J-.005 E.55265
G2 X74.597 Y60.613 I-5.245 J2.006 E.02204
G1 X74.264 Y60.157 E.02036
G1 X73.895 Y59.815 E.01818
G1 X74.534 Y59.706 E.02341
M73 P5 R6
G2 X78.711 Y57.406 I-2.773 J-9.983 E.17374
M73 P5 R6
G1 X79.08 Y57.065 E.01812
G1 X79.777 Y56.28 E.03791
G2 X80.687 Y54.957 I-10.222 J-8.015 E.05801
G1 X81.138 Y54.063 E.03616
G2 X81.695 Y52.505 I-11.603 J-5.02 E.05977
G1 X81.893 Y51.573 E.03442
G2 X82.033 Y49.882 I-12.35 J-1.88 E.06132
G1 X82.033 Y34.414 E.55846
G1 X81.883 Y33.897 E.01944
G1 X81.682 Y33.599 E.01299
G1 X81.319 Y33.319 E.01655
G1 X81.075 Y33.217 E.00956
G1 X80.683 Y33.151 E.01436
G1 X62.984 Y33.151 E.63902
G1 X62.463 Y33.305 E.01962
G1 X62.221 Y33.462 E.01043
G2 X61.723 Y34.471 I.967 J1.104 E.04168
G1 X61.723 Y49.93 E.55817
G1 X61.79 Y51.017 E.0393
G2 X62.085 Y52.59 I13.373 J-1.693 E.05782
G1 X62.403 Y53.545 E.03635
G2 X63.099 Y55.009 I11.958 J-4.784 E.05858
G1 X63.638 Y55.835 E.03561
G2 X65.415 Y57.736 I8.869 J-6.508 E.09417
G2 X67.613 Y59.122 I7.028 J-8.711 E.09404
G2 X69.322 Y59.729 I5.429 J-12.572 E.06553
G1 X69.861 Y59.813 E.0197
G1 X69.782 Y59.874 E.00361
G1 X69.318 Y60.37 E.02451
G1 X69.06 Y60.808 E.01838
G1 X68.926 Y61.174 E.01406
G1 X68.484 Y61.045 E.01661
G1 X69.22 Y61.718 F30000
;TYPE:Outer wall
G1 F3600
G3 X59.767 Y50.003 I2.655 J-11.813 E.58652
G1 X59.769 Y33.308 E.60279
G1 X59.865 Y32.774 E.01957
G1 X60.087 Y32.29 E.01925
G1 X60.424 Y31.877 E.01925
G1 X60.854 Y31.561 E.01925
G1 X61.349 Y31.363 E.01925
G1 X61.895 Y31.294 E.01986
G1 X81.861 Y31.294 E.72092
G1 X82.407 Y31.363 E.01986
G1 X82.902 Y31.561 E.01925
G1 X83.332 Y31.877 E.01925
G1 X83.669 Y32.29 E.01925
G1 X83.891 Y32.774 E.01925
G1 X83.987 Y33.427 E.02384
G1 X83.99 Y49.901 E.59478
G3 X74.545 Y61.716 I-12.115 J-.002 E.58985
G2 X74.197 Y60.836 I-4.486 J1.263 E.03422
G1 X73.9 Y60.433 E.01808
G1 X73.528 Y60.107 E.01786
G2 X72.496 Y59.739 I-1.705 J3.159 E.0397
;WIDTH:0.451406
G1 X72.177 Y59.721 E.01033
;WIDTH:0.409733
G1 X71.857 Y59.703 E.00928
;WIDTH:0.401583
G1 X71.645 Y59.715 E.00602
;WIDTH:0.435106
G1 X71.432 Y59.728 E.00659
;WIDTH:0.468629
G1 X71.22 Y59.74 E.00715
;WIDTH:0.499999
G1 X70.526 Y59.951 E.0262
G1 X70.106 Y60.197 E.01758
G1 X69.712 Y60.602 E.0204
G1 X69.429 Y61.099 E.02065
G1 X69.233 Y61.68 E.02215
G1 E-.8 F2400
;WIPE_START
G1 F3600
G1 X68.579 Y61.559
G1 X67.985 Y61.374
G1 X67.399 Y61.158
G1 X67.318 Y61.123
;WIPE_END
G1 X66.064 Y53.595 Z.6 F30000
G1 X62.749 Y33.682 Z.6
G1 Z.2
G1 E.8 F2400
G1 F3600
G1 X62.792 Y33.657 E.00179
G1 X63.072 Y33.608 E.01028
G1 X80.683 Y33.608 E.63585
G1 X81.064 Y33.699 E.01416
G1 X81.342 Y33.907 E.01252
G1 X81.525 Y34.215 E.01296
G1 X81.576 Y34.502 E.01051
G1 X81.576 Y49.908 E.55624
M73 P6 R6
G3 X81.248 Y52.406 I-11.05 J-.18 E.09119
M73 P6 R6
G3 X80.282 Y54.746 I-10.828 J-3.103 E.0916
G3 X78.743 Y56.757 I-9.861 J-5.956 E.0916
G3 X76.771 Y58.277 I-7.496 J-7.679 E.09009
G1 X75.986 Y58.691 E.03205
G3 X74.397 Y59.27 I-5.65 J-13.039 E.0611
G1 X73.722 Y59.38 E.02471
G3 X72.577 Y59.412 I-1.794 J-43.357 E.04133
;WIDTH:0.470214
G1 X72.358 Y59.401 E.0074
;WIDTH:0.436162
G1 X72.139 Y59.39 E.00681
;WIDTH:0.40211
G1 X71.92 Y59.379 E.00622
;WIDTH:0.408949
G1 X71.585 Y59.393 E.00972
;WIDTH:0.449841
G1 X71.249 Y59.407 E.0108
;WIDTH:0.47492
G1 X70.961 Y59.401 E.00982
;WIDTH:0.499999
G2 X70.238 Y59.409 I-.282 J6.928 E.02614
G1 X69.393 Y59.277 E.03087
G3 X66.512 Y57.976 I2.602 J-9.599 E.11463
G1 X65.693 Y57.373 E.03669
G3 X64.001 Y55.557 I6.784 J-8.016 E.08986
G1 X63.484 Y54.764 E.03417
G3 X62.521 Y52.452 I10.015 J-5.531 E.09061
G3 X62.243 Y50.957 I13.004 J-3.188 E.05494
G1 X62.18 Y49.913 E.03775
G1 X62.18 Y34.471 E.55755
G1 X62.279 Y34.103 E.01375
G1 X62.488 Y33.833 E.01233
G1 X62.714 Y33.702 E.00944
G1 E-.8 F2400
;WIPE_START
G1 F3600
G1 X62.792 Y33.657
G1 X63.072 Y33.608
G1 X64.698 Y33.608
;WIPE_END
G1 X72.326 Y33.366 Z.6 F30000
G1 X83.331 Y33.016 Z.6
G1 Z.2
G1 E.8 F2400
;TYPE:Bottom surface
;WIDTH:0.503953
G1 F3600
G1 X82.775 Y32.46 E.02864
G2 X81.757 Y32.094 I-.991 J1.157 E.04028
G1 X83.187 Y33.524 E.07367
G1 X83.187 Y34.176 E.02375
G1 X81.105 Y32.094 E.10726
G1 X80.453 Y32.094 E.02374
G1 X83.187 Y34.828 E.14084
G1 X83.188 Y35.481 E.02375
G1 X82.376 Y34.669 E.04179
G1 X82.376 Y35.321 E.02374
G1 X83.188 Y36.133 E.04179
G1 X83.188 Y36.785 E.02375
G1 X82.376 Y35.973 E.0418
G1 X82.376 Y36.625 E.02374
G1 X83.188 Y37.437 E.04181
G1 X83.188 Y38.089 E.02375
G1 X82.376 Y37.277 E.04181
G1 X82.376 Y37.929 E.02374
G1 X83.188 Y38.741 E.04182
G1 X83.188 Y39.393 E.02375
G1 X82.376 Y38.581 E.04182
G1 X82.376 Y39.233 E.02374
G1 X83.188 Y40.045 E.04183
G1 X83.189 Y40.698 E.02375
G1 X82.376 Y39.885 E.04184
G1 X82.376 Y40.537 E.02374
G1 X83.189 Y41.35 E.04184
G1 X83.189 Y42.002 E.02375
G1 X82.376 Y41.189 E.04185
G1 X82.376 Y41.841 E.02374
G1 X83.189 Y42.654 E.04186
G1 X83.189 Y43.306 E.02375
G1 X82.376 Y42.493 E.04186
G1 X82.376 Y43.145 E.02374
G1 X83.189 Y43.958 E.04187
G1 X83.189 Y44.61 E.02375
G1 X82.376 Y43.797 E.04187
G1 X82.376 Y44.449 E.02374
G1 X83.189 Y45.262 E.04188
G1 X83.19 Y45.915 E.02375
G1 X82.376 Y45.101 E.04189
G1 X82.376 Y45.753 E.02374
G1 X83.19 Y46.567 E.04189
G1 X83.19 Y47.219 E.02375
G1 X82.376 Y46.405 E.0419
G1 X82.376 Y47.057 E.02374
G1 X83.19 Y47.871 E.04191
G1 X83.19 Y48.523 E.02375
G1 X82.376 Y47.709 E.04191
G1 X82.376 Y48.361 E.02374
G1 X83.19 Y49.175 E.04192
G1 X83.19 Y49.827 E.02375
G1 X82.376 Y49.013 E.04192
G1 X82.376 Y49.665 E.02374
G1 X83.172 Y50.461 E.04099
G3 X83.127 Y51.068 I-5.662 J-.119 E.02216
G1 X82.359 Y50.3 E.03953
G3 X82.324 Y50.917 I-3.515 J.107 E.02252
