; HEADER_BLOCK_START
; generated by Creality_Print V6.0.2.1574 on 2025-01-23 at 23:40:14
; total layer number: 125
; filament_density: 1.24
; filament_diameter: 1.75
; max_z_height: 18.60
; HEADER_BLOCK_END

; MINX = 39.84
; MINY = 13.45
; MINZ = 0.00
; MAXX = 149.40
; MAXY = 53.69
; MAXZ = 18.65

; THUMBNAIL_BLOCK_START

;
; THUMBNAIL_BLOCK_END

; THUMBNAIL_BLOCK_START

;
; THUMBNAIL_BLOCK_END

; external perimeters extrusion width = 0.42mm
; perimeters extrusion width = 0.45mm
; infill extrusion width = 0.45mm
; solid infill extrusion width = 0.42mm
; top infill extrusion width = 0.42mm
; support material extrusion width = 0.42mm
; first layer extrusion width = 0.50mm

; external perimeters extrusion width = 0.42mm
; perimeters extrusion width = 0.45mm
; infill extrusion width = 0.45mm
; solid infill extrusion width = 0.42mm
; top infill extrusion width = 0.42mm
; support material extrusion width = 0.42mm
; first layer extrusion width = 0.50mm

; external perimeters extrusion width = 0.42mm
; perimeters extrusion width = 0.45mm
; infill extrusion width = 0.45mm
; solid infill extrusion width = 0.42mm
; top infill extrusion width = 0.42mm
; support material extrusion width = 0.42mm
; first layer extrusion width = 0.50mm

; EXECUTABLE_BLOCK_START
EXCLUDE_OBJECT_DEFINE NAME=EnclosureAssy_IM_Final_Back.STL_id_0_copy_0 CENTER=53.007,30.1883 POLYGON=[[39.836,27.2597],[39.8444,26.7896],[39.8696,26.3201],[39.9115,25.8518],[39.9701,25.3853],[40.0453,24.9212],[40.137,24.4601],[40.2451,24.0025],[40.3695,23.5491],[40.51,23.1004],[40.6664,22.657],[40.8386,22.2195],[41.0262,21.7884],[41.2291,21.3643],[41.447,20.9477],[41.6797,20.5391],[41.9268,20.1391],[42.188,19.7481],[42.463,19.3668],[42.7514,18.9955],[43.0529,18.6347],[43.3671,18.2849],[43.6936,17.9466],[44.0319,17.6201],[44.3817,17.3059],[44.7424,17.0044],[45.1137,16.716],[45.4951,16.441],[45.886,16.1797],[46.286,15.9326],[46.6946,15.7],[47.1112,15.482],[47.5353,15.2791],[47.9664,15.0914],[48.4039,14.9193],[51.6505,13.7046],[51.8243,13.6405],[52.0011,13.5853],[52.1804,13.539],[52.3619,13.5019],[52.5451,13.4739],[52.7294,13.4553],[52.9144,13.4459],[53.0996,13.4459],[53.2846,13.4553],[53.4689,13.4739],[53.652,13.5019],[53.8335,13.539],[54.0129,13.5853],[54.1897,13.6405],[54.3635,13.7046],[57.61,14.9193],[58.0475,15.0914],[58.4786,15.2791],[58.9028,15.482],[59.3194,15.7],[59.7279,15.9326],[60.1279,16.1797],[60.5189,16.441],[60.9002,16.716],[61.2715,17.0044],[61.6323,17.3059],[61.9821,17.6201],[62.3204,17.9466],[62.6469,18.2849],[62.961,18.6347],[63.2625,18.9955],[63.551,19.3668],[63.826,19.7481],[64.0872,20.1391],[64.3343,20.5391],[64.5669,20.9477],[64.7848,21.3643],[64.9878,21.7884],[65.1754,22.2195],[65.3475,22.657],[65.504,23.1004],[65.6445,23.5491],[65.7688,24.0025],[65.877,24.4601],[65.9687,24.9212],[66.0439,25.3853],[66.1025,25.8518],[66.1444,26.3201],[66.1696,26.7896],[66.178,27.2597],[66.178,43.7597],[66.1736,43.9257],[66.1606,44.0912],[66.1389,44.2558],[66.1087,44.419],[66.0699,44.5804],[66.0228,44.7396],[65.9673,44.8961],[65.9038,45.0495],[65.8323,45.1993],[65.7531,45.3452],[65.6664,45.4868],[65.5724,45.6236],[65.4713,45.7553],[65.3635,45.8815],[65.2492,46.002],[65.1288,46.1162],[65.0025,46.224],[64.8708,46.3251],[64.734,46.4191],[64.5925,46.5059],[64.4466,46.5851],[64.2967,46.6566],[64.1434,46.7201],[63.9869,46.7755],[63.8277,46.8227],[63.6663,46.8614],[63.503,46.8917],[63.3384,46.9133],[63.1729,46.9264],[63.007,46.9307],[43.007,46.9307],[42.841,46.9264],[42.6755,46.9133],[42.5109,46.8917],[42.3477,46.8614],[42.1863,46.8227],[42.0271,46.7755],[41.8706,46.7201],[41.7172,46.6566],[41.5674,46.5851],[41.4215,46.5059],[41.2799,46.4191],[41.1431,46.3251],[41.0114,46.224],[40.8852,46.1162],[40.7648,46.002],[40.6505,45.8815],[40.5427,45.7553],[40.4416,45.6236],[40.3476,45.4868],[40.2608,45.3452],[40.1816,45.1993],[40.1102,45.0495],[40.0466,44.8961],[39.9912,44.7396],[39.9441,44.5804],[39.9053,44.419],[39.8751,44.2558],[39.8534,44.0912],[39.8404,43.9257],[39.836,43.7597],[39.836,27.2597]]
EXCLUDE_OBJECT_DEFINE NAME=EnclosureAssy_IM_Final_Center.STL_id_1_copy_0 CENTER=91.5179,36.6854 POLYGON=[[78.0441,23.154],[78.0488,22.9722],[78.0631,22.7909],[78.0868,22.6106],[78.12,22.4317],[78.1624,22.2549],[78.2141,22.0805],[78.2748,21.9091],[78.3444,21.7411],[78.4227,21.5769],[78.5095,21.4171],[78.6045,21.262],[78.7075,21.1121],[78.8182,20.9679],[78.9363,20.8296],[79.0615,20.6976],[79.1935,20.5724],[79.3318,20.4543],[79.476,20.3436],[79.6259,20.2406],[79.781,20.1456],[79.9408,20.0588],[80.105,19.9805],[80.273,19.9109],[80.4444,19.8502],[80.6188,19.7985],[80.7956,19.7561],[80.9745,19.723],[81.1548,19.6992],[81.3361,19.6849],[81.5179,19.6802],[101.518,19.6802],[101.7,19.6849],[101.881,19.6992],[102.061,19.723],[102.24,19.7561],[102.417,19.7985],[102.591,19.8502],[102.763,19.9109],[102.931,19.9805],[103.095,20.0588],[103.255,20.1456],[103.41,20.2406],[103.56,20.3436],[103.704,20.4543],[103.842,20.5724],[103.974,20.6976],[104.099,20.8296],[104.218,20.9679],[104.328,21.1121],[104.431,21.262],[104.526,21.4171],[104.613,21.5769],[104.691,21.7411],[104.761,21.9091],[104.822,22.0805],[104.873,22.2549],[104.916,22.4317],[104.949,22.6106],[104.973,22.7909],[104.987,22.9722],[104.992,23.154],[104.992,39.654],[104.992,39.7225],[104.98,40.2247],[104.949,40.7261],[104.9,41.226],[104.832,41.7238],[104.745,42.2186],[104.641,42.7099],[104.518,43.197],[104.376,43.6791],[104.217,44.1556],[104.041,44.6259],[103.847,45.0893],[103.636,45.5451],[103.408,45.9927],[103.163,46.4315],[102.902,46.8609],[102.626,47.2802],[102.334,47.689],[102.027,48.0866],[101.705,48.4725],[101.369,48.8461],[101.02,49.2069],[100.657,49.5545],[100.282,49.8883],[99.894,50.2079],[99.4948,50.5128],[99.0845,50.8026],[98.6636,51.0769],[98.2328,51.3353],[97.7927,51.5775],[97.3439,51.8031],[96.887,52.0119],[96.4226,52.2034],[95.9514,52.3775],[92.7074,53.5045],[92.514,53.561],[92.318,53.6075],[92.1199,53.6438],[91.9201,53.6698],[91.7193,53.6854],[91.5179,53.6906],[91.3165,53.6854],[91.1157,53.6698],[90.9159,53.6438],[90.7178,53.6075],[90.5218,53.561],[90.3284,53.5045],[87.0844,52.3775],[86.6132,52.2034],[86.1488,52.0119],[85.6919,51.8031],[85.2431,51.5775],[84.8029,51.3353],[84.3722,51.0769],[83.9513,50.8026],[83.541,50.5128],[83.1418,50.2079],[82.7542,49.8883],[82.3788,49.5545],[82.0161,49.2069],[81.6666,48.8461],[81.3307,48.4725],[81.0091,48.0866],[80.7021,47.689],[80.4101,47.2802],[80.1335,46.8609],[79.8728,46.4315],[79.6282,45.9927],[79.4002,45.5451],[79.189,45.0893],[78.995,44.6259],[78.8183,44.1556],[78.6594,43.6791],[78.5182,43.197],[78.3952,42.7099],[78.2904,42.2186],[78.204,41.7238],[78.1361,41.226],[78.0868,40.7261],[78.0562,40.2247],[78.0443,39.7225],[78.0441,39.654],[78.0441,23.154]]
EXCLUDE_OBJECT_DEFINE NAME=EnclosureAssy_IM_Final_Window.STL_id_2_copy_0 CENTER=135.922,34.3957 POLYGON=[[122.448,20.8498],[122.453,20.6738],[122.466,20.4984],[122.488,20.3238],[122.519,20.1505],[122.559,19.9791],[122.608,19.8099],[122.665,19.6434],[122.73,19.4799],[122.803,19.32],[122.885,19.164],[122.974,19.0124],[123.071,18.8654],[123.175,18.7236],[123.286,18.5872],[123.404,18.4566],[123.529,18.3321],[123.659,18.2142],[123.796,18.1029],[123.938,17.9988],[124.085,17.9019],[124.236,17.8126],[124.392,17.7312],[124.552,17.6577],[124.716,17.5924],[124.882,17.5355],[125.051,17.4871],[125.223,17.4473],[125.396,17.4162],[125.571,17.394],[125.746,17.3806],[125.922,17.3762],[145.922,17.3762],[146.098,17.3806],[146.273,17.394],[146.448,17.4162],[146.621,17.4473],[146.793,17.4871],[146.962,17.5355],[147.128,17.5924],[147.292,17.6577],[147.452,17.7312],[147.608,17.8126],[147.759,17.9019],[147.906,17.9988],[148.048,18.1029],[148.185,18.2142],[148.315,18.3321],[148.44,18.4566],[148.558,18.5872],[148.669,18.7236],[148.773,18.8654],[148.87,19.0124],[148.959,19.164],[149.041,19.32],[149.114,19.4799],[149.179,19.6434],[149.236,19.8099],[149.285,19.9791],[149.324,20.1505],[149.355,20.3238],[149.378,20.4984],[149.391,20.6738],[149.396,20.8498],[149.396,37.3498],[149.395,37.4601],[149.388,37.8067],[149.372,38.1531],[149.346,38.4989],[149.312,38.844],[149.27,39.188],[149.218,39.5309],[149.157,39.8723],[149.088,40.212],[149.01,40.5499],[148.923,40.8856],[148.828,41.219],[148.724,41.5498],[148.612,41.8778],[148.491,42.2029],[148.362,42.5247],[148.225,42.8431],[148.079,43.1579],[147.926,43.4688],[147.764,43.7756],[147.595,44.0782],[147.418,44.3764],[147.234,44.6699],[147.041,44.9585],[146.842,45.2421],[146.635,45.5205],[146.422,45.7935],[146.201,46.0609],[145.973,46.3225],[145.739,46.5781],[145.498,46.8277],[145.251,47.071],[144.998,47.3078],[144.739,47.5381],[144.474,47.7616],[144.203,47.9782],[143.927,48.1877],[143.645,48.3901],[143.358,48.5852],[143.067,48.7728],[142.771,48.9529],[142.47,49.1253],[142.165,49.2899],[141.855,49.4466],[141.542,49.5953],[141.225,49.7358],[140.905,49.8682],[140.581,49.9922],[137.287,51.1699],[137.187,51.2054],[137.099,51.2345],[137.049,51.2498],[136.907,51.2894],[136.767,51.3232],[136.713,51.3346],[136.623,51.3521],[136.517,51.3698],[136.478,51.3756],[136.32,51.395],[136.186,51.4063],[136.121,51.4102],[136.039,51.4135],[135.922,51.4152],[135.748,51.4114],[135.723,51.4102],[135.603,51.4022],[135.524,51.395],[135.458,51.3876],[135.327,51.3698],[135.168,51.342],[135.131,51.3346],[135.024,51.311],[134.937,51.2894],[134.882,51.2747],[134.745,51.2345],[134.603,51.1867],[131.263,49.9922],[130.939,49.8682],[130.619,49.7358],[130.302,49.5953],[129.989,49.4466],[129.679,49.2899],[129.374,49.1253],[129.073,48.9529],[128.777,48.7728],[128.485,48.5852],[128.199,48.3901],[127.917,48.1877],[127.641,47.9782],[127.37,47.7616],[127.105,47.5381],[126.846,47.3078],[126.593,47.071],[126.346,46.8277],[126.105,46.5781],[125.871,46.3225],[125.643,46.0609],[125.422,45.7935],[125.209,45.5205],[125.002,45.2421],[124.802,44.9585],[124.61,44.6699],[124.426,44.3764],[124.249,44.0782],[124.079,43.7756],[123.918,43.4688],[123.764,43.1579],[123.619,42.8431],[123.482,42.5247],[123.353,42.2029],[123.232,41.8778],[123.12,41.5498],[123.016,41.219],[122.921,40.8856],[122.834,40.5499],[122.756,40.212],[122.687,39.8723],[122.626,39.5309],[122.574,39.188],[122.531,38.844],[122.497,38.4989],[122.472,38.1531],[122.456,37.8067],[122.449,37.4601],[122.448,37.3498],[122.448,20.8498]]
M73 P0 R23
M106 S0
M106 P2 S0
;TYPE:Custom
M140 S0
M104 S0 
START_PRINT EXTRUDER_TEMP=220 BED_TEMP=50
T0
M204 S2000
G1 Z3 F600
M83
G92 E0
G1 Z1 F600
G90
G21
M83 ; use relative distances for extrusion
G1 E-.8 F2400
M106 S0
;LAYER_CHANGE
;Z:0.2
;HEIGHT:0.2
;BEFORE_LAYER_CHANGE
;0.2
G92 E0

;AFTER_LAYER_CHANGE
;0.2
;_SET_FAN_SPEED_CHANGING_LAYER
SET_VELOCITY_LIMIT ACCEL=1000 ACCEL_TO_DECEL=1000
SET_VELOCITY_LIMIT SQUARE_CORNER_VELOCITY=20
; printing object EnclosureAssy_IM_Final_Window.STL id:2 copy 0
EXCLUDE_OBJECT_START NAME=EnclosureAssy_IM_Final_Window.STL_id_2_copy_0
G1 Z.4 F30000
G1 X132.49 Y48.477
G1 Z.2
G1 E.8 F2400
;TYPE:Inner wall
;WIDTH:0.499999
G1 F3600
G1 X132.177 Y48.38 E.01182
G3 X124.268 Y37.439 I3.739 J-11.032 E.51993
G1 X124.27 Y20.871 E.59819
G3 X125.4 Y19.297 I1.725 J.045 E.07429
G1 X125.968 Y19.195 E.02083
G1 X145.823 Y19.195 E.71688
G3 X146.945 Y19.571 I-.015 J1.907 E.04347
G1 X147.245 Y19.883 E.01561
G1 X147.496 Y20.356 E.01933
G1 X147.574 Y20.871 E.01882
G1 X147.577 Y37.342 E.5947
G3 X138.889 Y48.614 I-11.662 J-.005 E.55265
G2 X138.641 Y48.057 I-5.245 J2.006 E.02204
G1 X138.308 Y47.601 E.02036
G1 X137.939 Y47.259 E.01818
G1 X138.578 Y47.15 E.02341
G2 X142.755 Y44.85 I-2.773 J-9.983 E.17374
G1 X143.124 Y44.509 E.01812
G1 X143.82 Y43.724 E.03791
G2 X144.731 Y42.401 I-10.222 J-8.015 E.05801
G1 X145.182 Y41.507 E.03616
G2 X145.738 Y39.949 I-11.603 J-5.02 E.05977
G1 X145.936 Y39.017 E.03442
G2 X146.077 Y37.325 I-12.35 J-1.88 E.06132
G1 X146.077 Y21.858 E.55846
G1 X145.927 Y21.341 E.01944
G1 X145.726 Y21.043 E.01299
G1 X145.363 Y20.763 E.01655
G1 X145.119 Y20.661 E.00956
G1 X144.727 Y20.594 E.01436
G1 X127.028 Y20.594 E.63902
G1 X126.507 Y20.749 E.01962
G1 X126.265 Y20.906 E.01043
G2 X125.767 Y21.915 I.967 J1.104 E.04168
G1 X125.767 Y37.374 E.55817
G1 X125.834 Y38.46 E.0393
G2 X126.129 Y40.033 I13.373 J-1.693 E.05782
G1 X126.447 Y40.989 E.03635
G2 X127.143 Y42.453 I11.958 J-4.784 E.05858
G1 X127.682 Y43.279 E.03561
G2 X129.459 Y45.18 I8.869 J-6.508 E.09417
G2 X131.657 Y46.566 I7.028 J-8.711 E.09404
G2 X133.366 Y47.173 I5.429 J-12.572 E.06553
G1 X133.905 Y47.257 E.0197
G1 X133.826 Y47.318 E.00361
G1 X133.362 Y47.814 E.02451
G1 X133.104 Y48.252 E.01838
G1 X132.969 Y48.618 E.01406
G1 X132.528 Y48.488 E.01661
G1 X133.264 Y49.162 F30000
;TYPE:Outer wall
G1 F3600
G3 X123.811 Y37.447 I2.655 J-11.813 E.58652
G1 X123.813 Y20.752 E.60279
G1 X123.909 Y20.218 E.01957
G1 X124.131 Y19.734 E.01925
G1 X124.468 Y19.32 E.01925
G1 X124.898 Y19.005 E.01925
G1 X125.393 Y18.807 E.01925
G1 X125.939 Y18.738 E.01986
G1 X145.905 Y18.738 E.72092
G1 X146.451 Y18.807 E.01986
G1 X146.946 Y19.005 E.01925
G1 X147.376 Y19.32 E.01925
G1 X147.713 Y19.734 E.01925
G1 X147.935 Y20.218 E.01925
G1 X148.031 Y20.871 E.02384
G1 X148.034 Y37.344 E.59478
G3 X138.588 Y49.16 I-12.115 J-.002 E.58985
G2 X138.241 Y48.28 I-4.486 J1.263 E.03422
G1 X137.944 Y47.877 E.01808
G1 X137.572 Y47.55 E.01786
G2 X136.54 Y47.183 I-1.705 J3.159 E.0397
;WIDTH:0.451406
G1 X136.22 Y47.165 E.01033
;WIDTH:0.409733
G1 X135.901 Y47.147 E.00928
;WIDTH:0.401583
G1 X135.688 Y47.159 E.00602
;WIDTH:0.435106
G1 X135.476 Y47.171 E.00659
;WIDTH:0.468629
G1 X135.264 Y47.184 E.00715
;WIDTH:0.499999
G1 X134.57 Y47.395 E.0262
G1 X134.149 Y47.64 E.01758
G1 X133.756 Y48.046 E.0204
G1 X133.473 Y48.543 E.02065
G1 X133.277 Y49.124 E.02215
G1 E-.8 F2400
;WIPE_START
G1 F3600
G1 X132.622 Y49.003
G1 X132.028 Y48.818
G1 X131.443 Y48.602
G1 X131.361 Y48.567
;WIPE_END
G1 X130.108 Y41.038 Z.6 F30000
G1 X126.793 Y21.126 Z.6
G1 Z.2
G1 E.8 F2400
G1 F3600
G1 X126.835 Y21.101 E.00179
G1 X127.116 Y21.052 E.01028
G1 X144.727 Y21.052 E.63585
G1 X145.108 Y21.143 E.01416
G1 X145.386 Y21.35 E.01252
G1 X145.569 Y21.659 E.01296
G1 X145.62 Y21.946 E.01051
G1 X145.62 Y37.352 E.55624
G3 X145.292 Y39.85 I-11.05 J-.18 E.09119
G3 X144.326 Y42.19 I-10.828 J-3.103 E.0916
G3 X142.787 Y44.2 I-9.861 J-5.956 E.0916
G3 X140.815 Y45.721 I-7.496 J-7.679 E.09009
G1 X140.03 Y46.135 E.03205
G3 X138.441 Y46.714 I-5.65 J-13.039 E.0611
G1 X137.765 Y46.824 E.02471
G3 X136.621 Y46.856 I-1.794 J-43.357 E.04133
;WIDTH:0.470214
G1 X136.402 Y46.845 E.0074
;WIDTH:0.436162
G1 X136.183 Y46.834 E.00681
;WIDTH:0.40211
G1 X135.964 Y46.823 E.00622
;WIDTH:0.408949
G1 X135.628 Y46.837 E.00972
;WIDTH:0.449841
G1 X135.293 Y46.85 E.0108
;WIDTH:0.47492
G1 X135.005 Y46.845 E.00982
;WIDTH:0.499999
G2 X134.281 Y46.853 I-.282 J6.928 E.02614
G1 X133.436 Y46.721 E.03087
G3 X130.555 Y45.419 I2.602 J-9.599 E.11463
G1 X129.737 Y44.817 E.03669
G3 X128.045 Y43 I6.784 J-8.016 E.08986
G1 X127.528 Y42.207 E.03417
G3 X126.565 Y39.896 I10.015 J-5.531 E.09061
G3 X126.287 Y38.401 I13.004 J-3.188 E.05494
G1 X126.224 Y37.357 E.03775
G1 X126.224 Y21.915 E.55755
G1 X126.322 Y21.547 E.01375
G1 X126.532 Y21.277 E.01233
G1 X126.758 Y21.146 E.00944
G1 E-.8 F2400
;WIPE_START
G1 F3600
G1 X126.835 Y21.101
G1 X127.116 Y21.052
G1 X128.742 Y21.052
;WIPE_END
G1 X136.37 Y20.809 Z.6 F30000
G1 X147.375 Y20.46 Z.6
G1 Z.2
G1 E.8 F2400
;TYPE:Bottom surface
;WIDTH:0.503953
G1 F3600
G1 X146.819 Y19.904 E.02864
G2 X145.801 Y19.538 I-.991 J1.157 E.04028
G1 X147.231 Y20.968 E.07367
G1 X147.231 Y21.62 E.02375
G1 X145.149 Y19.538 E.10726
G1 X144.497 Y19.538 E.02374
G1 X147.231 Y22.272 E.14084
G1 X147.231 Y22.924 E.02375
G1 X146.42 Y22.113 E.04179
G1 X146.42 Y22.765 E.02374
G1 X147.232 Y23.577 E.04179
G1 X147.232 Y24.229 E.02375
G1 X146.42 Y23.417 E.0418
G1 X146.42 Y24.069 E.02374
G1 X147.232 Y24.881 E.04181
G1 X147.232 Y25.533 E.02375
G1 X146.42 Y24.721 E.04181
G1 X146.42 Y25.373 E.02374
G1 X147.232 Y26.185 E.04182
G1 X147.232 Y26.837 E.02375
G1 X146.42 Y26.025 E.04182
G1 X146.42 Y26.677 E.02374
G1 X147.232 Y27.489 E.04183
G1 X147.232 Y28.141 E.02375
G1 X146.42 Y27.329 E.04184
G1 X146.42 Y27.981 E.02374
G1 X147.233 Y28.793 E.04184
G1 X147.233 Y29.446 E.02375
