; HEADER_BLOCK_START
; generated by Creality_Print V6.0.2.1574 on 2025-01-23 at 23:27:44
; total layer number: 48
; filament_density: 1.24
; filament_diameter: 1.75
; max_z_height: 9.60
; HEADER_BLOCK_END

; MINX = 39.84
; MINY = 13.45
; MINZ = 0.00
; MAXX = 66.18
; MAXY = 46.93
; MAXZ = 9.50

; THUMBNAIL_BLOCK_START

;
; THUMBNAIL_BLOCK_END

; THUMBNAIL_BLOCK_START

;
; THUMBNAIL_BLOCK_END

; external perimeters extrusion width = 0.42mm
; perimeters extrusion width = 0.45mm
; infill extrusion width = 0.45mm
; solid infill extrusion width = 0.42mm
; top infill extrusion width = 0.42mm
; first layer extrusion width = 0.50mm

; EXECUTABLE_BLOCK_START
EXCLUDE_OBJECT_DEFINE NAME=EnclosureAssy_IM_Final_Back.STL_id_0_copy_0 CENTER=53.007,30.1883 POLYGON=[[39.836,27.2597],[39.8444,26.7896],[39.8696,26.3201],[39.9115,25.8518],[39.9701,25.3853],[40.0453,24.9212],[40.137,24.4601],[40.2451,24.0025],[40.3695,23.5491],[40.51,23.1004],[40.6664,22.657],[40.8386,22.2195],[41.0262,21.7884],[41.2291,21.3643],[41.447,20.9477],[41.6797,20.5391],[41.9268,20.1391],[42.188,19.7481],[42.463,19.3668],[42.7514,18.9955],[43.0529,18.6347],[43.3671,18.2849],[43.6936,17.9466],[44.0319,17.6201],[44.3817,17.3059],[44.7424,17.0044],[45.1137,16.716],[45.4951,16.441],[45.886,16.1797],[46.286,15.9326],[46.6946,15.7],[47.1112,15.482],[47.5353,15.2791],[47.9664,15.0914],[48.4039,14.9193],[51.6505,13.7046],[51.8243,13.6405],[52.0011,13.5853],[52.1804,13.539],[52.3619,13.5019],[52.5451,13.4739],[52.7294,13.4553],[52.9144,13.4459],[53.0996,13.4459],[53.2846,13.4553],[53.4689,13.4739],[53.652,13.5019],[53.8335,13.539],[54.0129,13.5853],[54.1897,13.6405],[54.3635,13.7046],[57.61,14.9193],[58.0475,15.0914],[58.4786,15.2791],[58.9028,15.482],[59.3194,15.7],[59.7279,15.9326],[60.1279,16.1797],[60.5189,16.441],[60.9002,16.716],[61.2715,17.0044],[61.6323,17.3059],[61.9821,17.6201],[62.3204,17.9466],[62.6469,18.2849],[62.961,18.6347],[63.2625,18.9955],[63.551,19.3668],[63.826,19.7481],[64.0872,20.1391],[64.3343,20.5391],[64.5669,20.9477],[64.7848,21.3643],[64.9878,21.7884],[65.1754,22.2195],[65.3475,22.657],[65.504,23.1004],[65.6445,23.5491],[65.7688,24.0025],[65.877,24.4601],[65.9687,24.9212],[66.0439,25.3853],[66.1025,25.8518],[66.1444,26.3201],[66.1696,26.7896],[66.178,27.2597],[66.178,43.7597],[66.1736,43.9257],[66.1606,44.0912],[66.1389,44.2558],[66.1087,44.419],[66.0699,44.5804],[66.0228,44.7396],[65.9673,44.8961],[65.9038,45.0495],[65.8323,45.1993],[65.7531,45.3452],[65.6664,45.4868],[65.5724,45.6236],[65.4713,45.7553],[65.3635,45.8815],[65.2492,46.002],[65.1288,46.1162],[65.0025,46.224],[64.8708,46.3251],[64.734,46.4191],[64.5925,46.5059],[64.4466,46.5851],[64.2967,46.6566],[64.1434,46.7201],[63.9869,46.7755],[63.8277,46.8227],[63.6663,46.8614],[63.503,46.8917],[63.3384,46.9133],[63.1729,46.9264],[63.007,46.9307],[43.007,46.9307],[42.841,46.9264],[42.6755,46.9133],[42.5109,46.8917],[42.3477,46.8614],[42.1863,46.8227],[42.0271,46.7755],[41.8706,46.7201],[41.7172,46.6566],[41.5674,46.5851],[41.4215,46.5059],[41.2799,46.4191],[41.1431,46.3251],[41.0114,46.224],[40.8852,46.1162],[40.7648,46.002],[40.6505,45.8815],[40.5427,45.7553],[40.4416,45.6236],[40.3476,45.4868],[40.2608,45.3452],[40.1816,45.1993],[40.1102,45.0495],[40.0466,44.8961],[39.9912,44.7396],[39.9441,44.5804],[39.9053,44.419],[39.8751,44.2558],[39.8534,44.0912],[39.8404,43.9257],[39.836,43.7597],[39.836,27.2597]]
M73 P0 R7
M106 S0
M106 P2 S0
;TYPE:Custom
M140 S0
M104 S0 
START_PRINT EXTRUDER_TEMP=220 BED_TEMP=50
T0
M204 S2000
G1 Z3 F600
M83
G92 E0
G1 Z1 F600
G90
G21
M83 ; use relative distances for extrusion
G1 E-.8 F2400
M106 S0
;LAYER_CHANGE
;Z:0.2
;HEIGHT:0.2
;BEFORE_LAYER_CHANGE
;0.2
G92 E0

;AFTER_LAYER_CHANGE
;0.2
;_SET_FAN_SPEED_CHANGING_LAYER
SET_VELOCITY_LIMIT ACCEL=1000 ACCEL_TO_DECEL=1000
SET_VELOCITY_LIMIT SQUARE_CORNER_VELOCITY=20
; printing object EnclosureAssy_IM_Final_Back.STL id:0 copy 0
EXCLUDE_OBJECT_START NAME=EnclosureAssy_IM_Final_Back.STL_id_0_copy_0
G1 Z.4 F30000
G1 X61.546 Y38.671
G1 Z.2
G1 E.8 F2400
;TYPE:Inner wall
;WIDTH:0.499999
G1 F3600
G1 X61.686 Y38.356 E.01247
G1 X61.771 Y37.764 E.02157
G1 X61.771 Y24.91 E.46411
G2 X61.62 Y23.963 I-3.473 J.069 E.03475
G1 X61.302 Y23.382 E.02391
G1 X60.92 Y22.997 E.01958
G1 X60.398 Y22.682 E.02201
G2 X59.59 Y22.497 I-1.188 J3.333 E.03
G1 X46.977 Y22.496 E.45538
G1 X46.314 Y22.517 E.02395
G1 X45.724 Y22.639 E.02176
G1 X45.255 Y22.873 E.01894
G1 X44.821 Y23.256 E.02089
G1 X44.48 Y23.759 E.02194
G1 X44.29 Y24.32 E.02139
G1 X44.245 Y24.677 E.01298
G1 X44.243 Y37.764 E.47253
G1 X44.315 Y38.326 E.02043
G1 X44.557 Y38.899 E.02246
G1 X44.765 Y39.186 E.0128
G1 X44.401 Y39.169 E.01316
G1 X43.794 Y39.248 E.0221
G1 X43.183 Y39.463 E.02336
G1 X42.63 Y39.799 E.02336
G1 X42.16 Y40.243 E.02335
G1 X41.795 Y40.77 E.02314
G1 X41.795 Y27.272 E.48737
G3 X50.91 Y16.248 I11.224 J0 E.55996
G1 X50.66 Y16.493 E.01264
G1 X50.291 Y17.027 E.02345
G1 X50.042 Y17.622 E.02326
G1 X49.923 Y18.258 E.02336
G1 X49.938 Y18.905 E.02336
G1 X50.087 Y19.534 E.02335
G1 X50.364 Y20.119 E.02336
G1 X50.756 Y20.633 E.02336
G1 X51.246 Y21.055 E.02336
G1 X51.814 Y21.365 E.02336
G1 X52.434 Y21.551 E.02336
G1 X53.079 Y21.604 E.02336
G1 X53.72 Y21.521 E.02336
G1 X54.331 Y21.307 E.02336
G1 X54.883 Y20.971 E.02336
G1 X55.354 Y20.527 E.02336
G1 X55.722 Y19.995 E.02336
G1 X55.971 Y19.398 E.02336
G1 X56.091 Y18.762 E.02336
G1 X56.076 Y18.115 E.02336
G1 X55.927 Y17.486 E.02336
G1 X55.65 Y16.901 E.02336
G1 X55.354 Y16.493 E.01821
G1 X55.107 Y16.25 E.01253
G3 X64.219 Y27.279 I-2.111 J11.023 E.56009
G1 X64.217 Y40.766 E.48697
G1 X64.15 Y40.651 E.0048
G1 X63.758 Y40.136 E.02336
G1 X63.267 Y39.715 E.02336
G1 X62.831 Y39.463 E.01821
G2 X61.574 Y39.166 I-1.467 J3.403 E.04685
G1 X61.274 Y39.183 E.01085
G1 X61.438 Y38.915 E.01133
G1 X61.53 Y38.708 E.00817
G1 E-.8 F2400
;WIPE_START
G1 F3600
G1 X61.686 Y38.356
G1 X61.771 Y37.764
G1 X61.771 Y36.747
;WIPE_END
G1 X58.09 Y30.061 Z.6 F30000
G1 X50.882 Y16.969 Z.6
G1 Z.2
G1 E.8 F2400
;TYPE:Outer wall
G1 F3600
G1 X51.03 Y16.762 E.00919
;WIDTH:0.548546
G1 X51.42 Y16.371 E.02207
;WIDTH:0.584643
G1 X51.651 Y16.213 E.01195
;WIDTH:0.62074
G1 X51.882 Y16.056 E.01274
G1 X52.109 Y15.993 E.01079
;WIDTH:0.499999
G1 X52.908 Y15.878 E.02914
G1 X53.532 Y15.923 E.02259
;WIDTH:0.54218
G1 X53.802 Y15.986 E.01092
;WIDTH:0.58436
G1 X54.072 Y16.049 E.01185
;WIDTH:0.605751
G1 X54.488 Y16.27 E.02095
G1 X54.643 Y16.422 E.00965
;WIDTH:0.570501
G1 X54.797 Y16.574 E.00904
;WIDTH:0.53525
G1 X54.952 Y16.726 E.00844
;WIDTH:0.499999
G1 X55.281 Y17.169 E.01992
G1 X55.51 Y17.671 E.01992
G1 X55.629 Y18.21 E.01992
G1 X55.634 Y18.762 E.01992
G1 X55.524 Y19.303 E.01992
G1 X55.305 Y19.809 E.01992
G1 X54.984 Y20.258 E.01992
G1 X54.578 Y20.631 E.01992
G1 X54.102 Y20.911 E.01992
G1 X53.579 Y21.086 E.01992
G1 X53.031 Y21.149 E.01992
G1 X52.482 Y21.096 E.01992
G1 X51.955 Y20.93 E.01992
G1 X51.475 Y20.659 E.01992
G1 X51.062 Y20.293 E.01992
G1 X50.733 Y19.85 E.01992
G1 X50.504 Y19.348 E.01992
G1 X50.385 Y18.81 E.01992
G1 X50.38 Y18.258 E.01993
G1 X50.49 Y17.717 E.01992
G1 X50.708 Y17.213 E.01982
G1 X50.859 Y17.002 E.00938
G1 E-.8 F2400
;WIPE_START
G1 F3600
G1 X51.03 Y16.762
G1 X51.42 Y16.371
G1 X51.651 Y16.213
G1 X51.882 Y16.056
G1 X52.109 Y15.993
G1 X52.464 Y15.942
;WIPE_END
G1 X49.918 Y23.138 Z.6 F30000
M73 P1 R7
G1 X42.265 Y44.769 Z.6
M73 P1 R7
G1 Z.2
G1 E.8 F2400
;TYPE:Inner wall
;WIDTH:0.38808
G1 F3600
G1 X42.086 Y44.619 E.00636
G3 X41.887 Y44.354 I1.03 J-.978 E.00905
;WIDTH:0.372727
G1 X41.76 Y44.002 E.00976
G1 X41.731 Y43.452 E.01435
G1 X41.978 Y43.918 E.01375
;WIDTH:0.38808
G1 X42.314 Y44.36 E.01512
G1 X42.775 Y44.755 E.01657
;WIDTH:0.384354
G1 X43.257 Y45.027 E.01493
G3 X42.694 Y44.977 I-.025 J-2.899 E.0153
G1 X42.339 Y44.83 E.01036
;WIDTH:0.38808
G1 X42.296 Y44.794 E.00151
G1 E-.8 F2400
;WIPE_START
G1 F3600
G1 X42.086 Y44.619
G1 X41.887 Y44.354
G1 X41.76 Y44.002
G1 X41.731 Y43.452
G1 X41.951 Y43.867
;WIPE_END
G1 X47.956 Y39.969 Z.6 F30000
G1 Z.2
G1 E.8 F2400
;WIDTH:0.499999
G1 F3600
G1 X48.149 Y39.957 E.00698
G1 X48.114 Y40.015 E.00244
G2 X47.99 Y41.818 I8.295 J1.474 E.06537
G1 X48.118 Y42.391 E.02118
G1 X48.345 Y42.711 E.01417
G1 X49.227 Y43.616 E.04563
G1 X49.662 Y43.887 E.01848
G2 X50.138 Y43.989 I.48 J-1.073 E.01772
G1 X55.878 Y43.989 E.20724
G1 X56.32 Y43.901 E.01631
G2 X56.796 Y43.607 I-.403 J-1.184 E.02036
G2 X57.802 Y42.532 I-12.773 J-12.967 E.05318
G1 X57.999 Y42.067 E.01824
;WIDTH:0.481531
G1 X58.013 Y41.816 E.0087
;WIDTH:0.499999
G1 X58.033 Y41.269 E.01976
G1 X57.969 Y40.29 E.03544
G1 X57.855 Y39.936 E.01343
G2 X59.384 Y40.021 I1.258 J-8.814 E.05537
G1 X59.16 Y40.243 E.01139
G1 X58.792 Y40.775 E.02336
G1 X58.539 Y41.39 E.02401
G1 X58.433 Y42.104 E.02609
G1 X58.438 Y42.654 E.01986
G1 X58.587 Y43.284 E.02336
G1 X58.864 Y43.869 E.02335
G1 X59.256 Y44.383 E.02336
G2 X60.035 Y44.971 I2.025 J-1.872 E.03544
G1 X45.982 Y44.97 E.5074
G1 X46.383 Y44.721 E.01706
G1 X46.854 Y44.277 E.02336
G1 X47.222 Y43.745 E.02336
G1 X47.471 Y43.148 E.02336
G1 X47.591 Y42.512 E.02336
G1 X47.558 Y41.834 E.02451
G1 X47.427 Y41.235 E.02212
G1 X47.182 Y40.698 E.02132
G2 X46.628 Y40.019 I-2.662 J1.606 E.03175
G2 X47.019 Y40.018 I.144 J-15.185 E.0141
G1 X47.916 Y39.971 E.03244
G1 E-.8 F2400
;WIPE_START
G1 F3600
G1 X48.149 Y39.957
G1 X48.114 Y40.015
G1 X48.031 Y40.526
G1 X47.989 Y41.121
G1 X47.99 Y41.706
;WIPE_END
G1 X55.461 Y43.27 Z.6 F30000
G1 X56.246 Y43.434 Z.6
G1 Z.2
G1 E.8 F2400
;TYPE:Outer wall
G1 F3600
G1 X56.211 Y43.457 E.00151
G1 X55.878 Y43.532 E.01234
G1 X50.138 Y43.532 E.20724
G1 X49.88 Y43.485 E.00946
G1 X49.555 Y43.297 E.01358
G1 X48.672 Y42.392 E.04563
G1 X48.513 Y42.147 E.01054
G1 X48.435 Y41.8 E.01284
G1 X48.452 Y40.823 E.0353
G1 X48.551 Y40.15 E.02456
G1 X48.892 Y39.767 E.01851
G1 X49.01 Y39.744 E.00433
;WIDTH:0.460527
G1 X49.127 Y39.72 E.00396
;WIDTH:0.421054
G1 X49.245 Y39.696 E.00359
;WIDTH:0.381581
G1 X56.725 Y39.696 E.20011
;WIDTH:0.421054
G1 X56.861 Y39.722 E.00411
;WIDTH:0.460527
G1 X56.996 Y39.747 E.00454
;WIDTH:0.499999
G1 X57.131 Y39.772 E.00497
G1 X57.415 Y40.075 E.015
G1 X57.513 Y40.319 E.00949
G1 X57.577 Y41.299 E.03544
G3 X57.536 Y42.056 I-3.991 J.163 E.02741
G1 X57.359 Y42.374 E.01314
G1 X56.469 Y43.288 E.04607
G1 X56.28 Y43.412 E.00816
G1 E-.8 F2400
;WIPE_START
G1 F3600
G1 X56.211 Y43.457
G1 X55.878 Y43.532
G1 X54.301 Y43.532
;WIPE_END
G1 X47.233 Y40.653 Z.6 F30000
G1 X44.765 Y39.648 Z.6
G1 Z.2
G1 E.8 F2400
G1 F3600
G1 X45.032 Y39.673 E.00969
;WIDTH:0.51128
G1 X45.534 Y39.825 E.01939
G1 X46.039 Y40.111 E.02147
;WIDTH:0.499999
G1 X46.452 Y40.476 E.01992
G1 X46.781 Y40.919 E.01992
G1 X47.01 Y41.421 E.01992
G1 X47.122 Y41.927 E.01869
G1 X47.134 Y42.512 E.02114
G1 X47.024 Y43.053 E.01992
G1 X46.805 Y43.559 E.01992
G1 X46.484 Y44.008 E.01992
G1 X46.078 Y44.381 E.01992
G1 X45.602 Y44.661 E.01992
;WIDTH:0.526404
G1 X45.345 Y44.761 E.01055
;WIDTH:0.552809
G1 X45.087 Y44.861 E.01113
G1 X44.533 Y44.917 E.02244
;WIDTH:0.562333
G1 X43.978 Y44.877 E.0228
G1 X43.717 Y44.779 E.01146
;WIDTH:0.531166
G1 X43.455 Y44.68 E.01078
;WIDTH:0.499999
G1 X42.975 Y44.409 E.01992
G1 X42.582 Y44.062 E.01894
G1 X42.233 Y43.6 E.02089
G1 X42.004 Y43.098 E.01992
;WIDTH:0.544124
G1 X41.863 Y42.564 E.02188
G1 X41.859 Y42.008 E.02203
;WIDTH:0.542438
G1 X41.99 Y41.467 E.02196
;WIDTH:0.499999
G1 X42.209 Y40.961 E.01992
G1 X42.53 Y40.512 E.01992
G1 X42.936 Y40.139 E.01992
G1 X43.412 Y39.858 E.01993
G1 X43.935 Y39.683 E.01992
G1 X44.479 Y39.621 E.01979
G1 X44.725 Y39.644 E.00891
G1 E-.8 F2400
;WIPE_START
G1 F3600
G1 X45.032 Y39.673
G1 X45.534 Y39.825
G1 X46.039 Y40.111
G1 X46.452 Y40.476
G1 X46.473 Y40.504
;WIPE_END
G1 X45.868 Y32.896 Z.6 F30000
G1 X45.127 Y23.596 Z.6
G1 Z.2
G1 E.8 F2400
G1 F3600
G1 X45.516 Y23.248 E.01885
G1 X45.976 Y23.034 E.01831
G1 X46.503 Y22.953 E.01924
G1 X59.59 Y22.954 E.47252
G1 X60.119 Y23.062 E.01948
G1 X60.597 Y23.321 E.01963
G1 X60.956 Y23.681 E.01836
G1 X61.213 Y24.17 E.01997
G1 X61.311 Y24.719 E.02014
G3 X61.314 Y37.764 I-1612.032 J6.872 E.471
G1 X61.234 Y38.284 E.01897
G1 X60.988 Y38.792 E.02038
G1 X60.622 Y39.173 E.01909
;WIDTH:0.512485
G1 X60.189 Y39.438 E.01882
G1 X59.641 Y39.559 E.02083
;WIDTH:0.499999
G3 X58.542 Y39.56 I-.581 J-57.603 E.03968
G2 X57.098 Y39.403 I-11.813 J101.878 E.05245
;WIDTH:0.460527
G1 X56.912 Y39.38 E.00619
;WIDTH:0.421054
G1 X56.725 Y39.358 E.00561
;WIDTH:0.381581
G1 X49.288 Y39.358 E.19895
;WIDTH:0.421054
M73 P2 R7
G1 X49.105 Y39.38 E.0055
M73 P2 R7
;WIDTH:0.460527
G1 X48.923 Y39.403 E.00608
;WIDTH:0.499999
G3 X46.283 Y39.551 I-2.084 J-13.543 E.09561
;WIDTH:0.511228
G1 X45.794 Y39.425 E.01867
G1 X45.341 Y39.134 E.01992
;WIDTH:0.499999
G1 X45.003 Y38.761 E.0182
G1 X44.783 Y38.284 E.01896
G1 X44.7 Y37.764 E.019
G1 X44.702 Y24.677 E.47252
G1 X44.728 Y24.45 E.00826
G1 X44.917 Y23.921 E.02025
G1 X45.105 Y23.63 E.01254
G1 E-.8 F2400
;WIPE_START
G1 F3600
G1 X45.516 Y23.248
G1 X45.976 Y23.034
G1 X46.503 Y22.953
G1 X46.902 Y22.953
;WIPE_END
G1 X51.547 Y29.009 Z.6 F30000
G1 X63.471 Y44.554 Z.6
G1 Z.2
G1 E.8 F2400
;TYPE:Inner wall
;WIDTH:0.378913
G1 F3600
G1 X63.805 Y44.241 E.01215
G1 X64.101 Y43.833 E.01338
G1 X64.277 Y43.472 E.01065
G3 X64.216 Y44.133 I-2.128 J.135 E.01768
G1 X64.089 Y44.41 E.00808
;WIDTH:0.381815
G1 X63.961 Y44.575 E.0056
G1 X63.602 Y44.879 E.0126
;WIDTH:0.372314
G1 X63.249 Y45.007 E.00975
G1 X62.722 Y45.036 E.01373
G2 X63.398 Y44.621 I-1.961 J-3.957 E.02065
;WIDTH:0.378913
G1 X63.442 Y44.581 E.00158
G1 E-.8 F2400
;WIPE_START
G1 F3600
G1 X63.805 Y44.241
G1 X64.101 Y43.833
G1 X64.277 Y43.472
G1 X64.277 Y43.743
G1 X64.226 Y44.065
;WIPE_END
G1 X60.843 Y39.713 Z.6 F30000
G1 Z.2
G1 E.8 F2400
;TYPE:Outer wall
;WIDTH:0.512584
G1 F3600
G1 X60.903 Y39.694 E.00233
;WIDTH:0.499999
G1 X61.479 Y39.621 E.02098
G1 X62.032 Y39.673 E.02005
G1 X62.559 Y39.839 E.01993
G1 X63.039 Y40.111 E.01992
G1 X63.452 Y40.476 E.01992
G1 X63.781 Y40.919 E.01992
G1 X64.01 Y41.421 E.01992
;WIDTH:0.546778
G1 X64.152 Y41.955 E.02198
G1 X64.155 Y42.512 E.02216
;WIDTH:0.541212
G1 X64.024 Y43.053 E.0219
;WIDTH:0.499999
G1 X63.805 Y43.559 E.01992
G1 X63.484 Y44.008 E.01992
G1 X63.078 Y44.381 E.01992
G1 X62.602 Y44.661 E.01992
;WIDTH:0.526852
G1 X62.345 Y44.761 E.01056
;WIDTH:0.553705
G1 X62.087 Y44.862 E.01115
G1 X61.533 Y44.917 E.02249
;WIDTH:0.563461
G1 X60.978 Y44.878 E.02286
G1 X60.717 Y44.779 E.01149
;WIDTH:0.53173
G1 X60.455 Y44.68 E.01079
;WIDTH:0.499999
G1 X59.975 Y44.409 E.01992
G1 X59.562 Y44.043 E.01992
G1 X59.233 Y43.6 E.01992
G1 X59.004 Y43.098 E.01992
G1 X58.885 Y42.559 E.01993
G1 X58.88 Y42.008 E.01992
G1 X58.986 Y41.485 E.01926
G1 X59.209 Y40.961 E.02057
G1 X59.53 Y40.512 E.01992
G1 X59.935 Y40.14 E.01985
;WIDTH:0.512584
G1 X60.409 Y39.853 E.02054
G1 X60.805 Y39.725 E.01545
G1 E-.8 F2400
;WIPE_START
G1 F3600
G1 X60.903 Y39.694
G1 X61.479 Y39.621
G1 X62.032 Y39.673
G1 X62.559 Y39.839
G1 X62.74 Y39.942
;WIPE_END
G1 X60.451 Y32.661 Z.6 F30000
G1 X55.153 Y15.806 Z.6
G1 Z.2
G1 E.8 F2400
;WIDTH:0.548578
G1 F3600
G1 X55.44 Y15.848 E.01158
;WIDTH:0.499999
G3 X64.676 Y27.279 I-2.45 J11.427 E.57382
G1 X64.674 Y41.399 E.50981
;WIDTH:0.541262
G1 X64.653 Y42.008 E.02398
;WIDTH:0.542963
G2 X64.674 Y43.121 I12.662 J.324 E.044
;WIDTH:0.499999
G1 X64.674 Y43.743 E.02248
G1 X64.605 Y44.205 E.01685
G1 X64.447 Y44.581 E.01472
G1 X64.172 Y44.941 E.01636
G1 X63.764 Y45.245 E.01837
G1 X63.29 Y45.398 E.01797
G1 X62.677 Y45.429 E.02217
;WIDTH:0.531767
G1 X62.37 Y45.413 E.01188
;WIDTH:0.563534
G2 X61.455 Y45.41 I-.476 J6.214 E.03765
;WIDTH:0.545907
G2 X60.337 Y45.429 I-.385 J10.613 E.04447
;WIDTH:0.499999
G1 X45.677 Y45.427 E.52932
;WIDTH:0.531202
G1 X45.37 Y45.411 E.01186
;WIDTH:0.562405
G2 X44.455 Y45.408 I-.474 J6.288 E.03755
;WIDTH:0.545128
G2 X42.972 Y45.426 I-.476 J22.187 E.05886
;WIDTH:0.499999
G1 X42.561 Y45.358 E.01506
G1 X42.167 Y45.19 E.01546
G1 X41.825 Y44.924 E.01562
G1 X41.563 Y44.577 E.01571
G1 X41.396 Y44.161 E.0162
G1 X41.338 Y43.746 E.01515
G1 X41.338 Y43.121 E.02254
;WIDTH:0.542434
G1 X41.359 Y42.512 E.02406
;WIDTH:0.547957
G2 X41.338 Y41.398 I-10.697 J-.353 E.04445
;WIDTH:0.499999
G1 X41.338 Y27.265 E.51031
G3 X50.612 Y15.844 I11.675 J.005 E.57468
