; HEADER_BLOCK_START
; generated by Creality_Print V6.0.2.1574 on 2025-01-24 at 22:24:55
; total layer number: 125
; filament_density: 1.24
; filament_diameter: 1.75
; max_z_height: 18.60
; HEADER_BLOCK_END

; MINX = 48.95
; MINY = 28.34
; MINZ = 0.00
; MAXX = 75.90
; MAXY = 62.35
; MAXZ = 18.65

; THUMBNAIL_BLOCK_START

;
; THUMBNAIL_BLOCK_END

; THUMBNAIL_BLOCK_START

;
; THUMBNAIL_BLOCK_END

; external perimeters extrusion width = 0.42mm
; perimeters extrusion width = 0.45mm
; infill extrusion width = 0.45mm
; solid infill extrusion width = 0.42mm
; top infill extrusion width = 0.42mm
; support material extrusion width = 0.42mm
; first layer extrusion width = 0.50mm

; EXECUTABLE_BLOCK_START
EXCLUDE_OBJECT_DEFINE NAME=EnclosureAssy_IM_Final_Center.STL_id_0_copy_0 CENTER=62.4224,45.3404 POLYGON=[[48.9486,31.809],[48.9533,31.6272],[48.9676,31.4459],[48.9913,31.2656],[49.0245,31.0868],[49.0669,30.9099],[49.1186,30.7355],[49.1793,30.5641],[49.2489,30.3961],[49.3272,30.2319],[49.414,30.0721],[49.509,29.917],[49.612,29.7671],[49.7227,29.6229],[49.8408,29.4846],[49.966,29.3526],[50.0979,29.2275],[50.2362,29.1093],[50.3805,28.9986],[50.5304,28.8956],[50.6855,28.8006],[50.8453,28.7138],[51.0095,28.6355],[51.1775,28.5659],[51.3489,28.5052],[51.5233,28.4536],[51.7001,28.4111],[51.879,28.378],[52.0593,28.3542],[52.2406,28.3399],[52.4224,28.3352],[72.4224,28.3352],[72.6042,28.3399],[72.7855,28.3542],[72.9658,28.378],[73.1446,28.4111],[73.3215,28.4536],[73.4958,28.5052],[73.6673,28.5659],[73.8353,28.6355],[73.9995,28.7138],[74.1593,28.8006],[74.3144,28.8956],[74.4642,28.9986],[74.6085,29.1093],[74.7468,29.2275],[74.8787,29.3526],[75.0039,29.4846],[75.122,29.6229],[75.2328,29.7671],[75.3358,29.917],[75.4308,30.0721],[75.5176,30.2319],[75.5959,30.3961],[75.6655,30.5641],[75.7262,30.7355],[75.7778,30.9099],[75.8203,31.0868],[75.8534,31.2656],[75.8772,31.4459],[75.8914,31.6272],[75.8962,31.809],[75.8962,48.309],[75.896,48.3775],[75.8841,48.8797],[75.8535,49.3811],[75.8042,49.8811],[75.7363,50.3788],[75.6499,50.8737],[75.5451,51.365],[75.422,51.852],[75.2809,52.3341],[75.1219,52.8107],[74.9453,53.2809],[74.7513,53.7443],[74.5401,54.2001],[74.3121,54.6477],[74.0675,55.0865],[73.8068,55.5159],[73.5302,55.9353],[73.2382,56.344],[72.9312,56.7416],[72.6095,57.1275],[72.2737,57.5011],[71.9242,57.8619],[71.5615,58.2095],[71.1861,58.5433],[70.7985,58.8629],[70.3993,59.1678],[69.989,59.4576],[69.5681,59.7319],[69.1373,59.9903],[68.6972,60.2325],[68.2484,60.4581],[67.7915,60.6669],[67.3271,60.8584],[66.8559,61.0325],[63.6118,62.1595],[63.4185,62.216],[63.2225,62.2625],[63.0244,62.2988],[62.8246,62.3248],[62.6238,62.3404],[62.4224,62.3457],[62.221,62.3404],[62.0202,62.3248],[61.8204,62.2988],[61.6223,62.2625],[61.4263,62.216],[61.2329,62.1595],[57.9889,61.0325],[57.5177,60.8584],[57.0533,60.6669],[56.5964,60.4581],[56.1475,60.2325],[55.7074,59.9903],[55.2767,59.7319],[54.8558,59.4576],[54.4455,59.1678],[54.0462,58.8629],[53.6587,58.5433],[53.2832,58.2095],[52.9205,57.8619],[52.571,57.5011],[52.2352,57.1275],[51.9136,56.7416],[51.6065,56.344],[51.3145,55.9353],[51.038,55.5159],[50.7772,55.0865],[50.5327,54.6477],[50.3047,54.2001],[50.0935,53.7443],[49.8995,53.2809],[49.7228,52.8107],[49.5638,52.3341],[49.4227,51.852],[49.2997,51.365],[49.1949,50.8737],[49.1085,50.3788],[49.0406,49.8811],[48.9913,49.3811],[48.9607,48.8797],[48.9487,48.3775],[48.9486,48.309],[48.9486,31.809]]
M73 P0 R14
M106 S0
M106 P2 S0
;TYPE:Custom
M140 S0
M104 S0 
START_PRINT EXTRUDER_TEMP=220 BED_TEMP=50
T0
M204 S2000
G1 Z3 F600
M83
G92 E0
G1 Z1 F600
G90
G21
M83 ; use relative distances for extrusion
G1 E-.8 F2400
M106 S0
;LAYER_CHANGE
;Z:0.2
;HEIGHT:0.2
;BEFORE_LAYER_CHANGE
;0.2
G92 E0

;AFTER_LAYER_CHANGE
;0.2
;_SET_FAN_SPEED_CHANGING_LAYER
SET_VELOCITY_LIMIT ACCEL=1000 ACCEL_TO_DECEL=1000
SET_VELOCITY_LIMIT SQUARE_CORNER_VELOCITY=20
; printing object EnclosureAssy_IM_Final_Center.STL id:0 copy 0
EXCLUDE_OBJECT_START NAME=EnclosureAssy_IM_Final_Center.STL_id_0_copy_0
G1 Z.4 F30000
G1 X61.484 Y27.987
G1 Z.2
G1 E.8 F2400
;TYPE:Support
;WIDTH:0.5
G1 F3600
G2 X52.218 Y27.992 I-4.535 J166.052 E.3346
G1 X51.853 Y28.03 E.01325
G1 X51.853 Y26.14 E.06826
G1 X61.484 Y26.14 E.34774
G1 X61.484 Y27.918 E.06423
G1 X61.072 Y27.576 F30000
G1 F3600
G2 X52.264 Y27.579 I-4.329 J171.167 E.31807
G1 X52.264 Y26.551 E.03714
G1 X61.072 Y26.551 E.31803
G1 X61.072 Y27.576 E.037
G1 E-.8 F2400
;WIPE_START
G1 F3600
G1 X61.072 Y26.551
G1 X60.097 Y26.551
;WIPE_END
G1 X61.232 Y34.098 Z.6 F30000
G1 X61.484 Y35.771 Z.6
G1 Z.2
G1 E.8 F2400
G1 F3600
G1 X58.607 Y35.771 E.10388
G1 X58.607 Y38.648 E.10388
G1 X55.73 Y38.648 E.10388
G1 X55.73 Y52.033 E.4833
G1 X69.115 Y52.033 E.4833
G1 X69.115 Y38.648 E.4833
M73 P0 R13
G1 X66.238 Y38.648 E.10388
M73 P0 R13
G1 X66.238 Y35.771 E.10388
G1 X63.361 Y35.771 E.10388
G1 X63.361 Y30.086 E.20524
G3 X72.513 Y30.089 I4.528 J174.825 E.33046
G3 X74.145 Y31.814 I-.092 J1.722 E.09459
G1 X74.145 Y48.083 E.58742
G2 X74.741 Y48.586 I.54 J-.034 E.03145
G3 X74.013 Y52.233 I-9.157 J.068 E.1352
G2 X73.08 Y53.192 I.013 J.947 E.05368
G3 X71.435 Y56.009 I-152.761 J-87.316 E.11777
G2 X71.681 Y56.44 I.55 J-.029 E.01858
G3 X68.776 Y58.76 I-7.125 J-5.942 E.13515
G2 X67.456 Y58.896 I-.599 J.663 E.05399
G2 X65.318 Y59.858 I3.393 J10.404 E.08484
G2 X65.245 Y61.573 I2.979 J.985 E.06279
G2 X65.984 Y61.664 I.405 J-.241 E.03098
G1 X67.933 Y60.985 E.07453
G1 X70.115 Y59.791 E.08979
G1 X70.115 Y64.541 E.17151
G1 X54.73 Y64.541 E.5555
G1 X54.73 Y59.791 E.17151
G1 X56.912 Y60.985 E.0898
G1 X58.861 Y61.664 E.07453
G2 X59.6 Y61.573 I.334 J-.333 E.03099
G2 X59.529 Y59.862 I-3.062 J-.73 E.06264
G2 X56.745 Y58.566 I-9.514 J16.797 E.111
G2 X56.023 Y58.839 I-.228 J.487 E.03108
G3 X53.237 Y56.378 I4.579 J-7.991 E.13513
G2 X52.865 Y55.097 I-.782 J-.467 E.05406
G2 X51.226 Y52.253 I-448.051 J256.283 E.11849
G2 X50.751 Y52.262 I-.228 J.544 E.01764
G3 X50.204 Y48.586 I5.932 J-2.762 E.13607
G2 X50.7 Y48.078 I-.025 J-.52 E.02818
G1 X50.7 Y31.814 E.58723
G3 X52.427 Y30.086 I1.729 J.001 E.09796
G1 X61.484 Y30.086 E.327
G1 X61.484 Y35.702 E.20276
G1 E-.8 F2400
;WIPE_START
G1 F3600
G1 X61.484 Y33.702
;WIPE_END
G1 X58.195 Y38.236 Z.6 F30000
G1 Z.2
G1 E.8 F2400
G1 F3600
G1 X55.318 Y38.236 E.10388
G1 X55.318 Y52.445 E.51301
G1 X69.527 Y52.445 E.51301
G1 X69.527 Y38.236 E.51301
G1 X66.649 Y38.236 E.10388
G1 X66.649 Y35.359 E.10388
G1 X63.772 Y35.359 E.10388
G1 X63.772 Y30.498 E.17553
G3 X72.491 Y30.5 I4.32 J166.568 E.31483
G3 X73.734 Y31.819 I-.07 J1.311 E.07223
G1 X73.734 Y48.1 E.58785
M73 P1 R13
G2 X74.313 Y49.008 I1.346 J-.219 E.03999
M73 P1 R13
G3 X73.747 Y51.796 I-8.31 J-.237 E.10322
G2 X72.576 Y53.295 I.61 J1.684 E.07242
G2 X71.025 Y55.927 I77.906 J47.68 E.11031
G3 X70.43 Y57.127 I-.914 J.294 E.05352
G3 X68.856 Y58.26 I-4.27 J-4.275 E.07031
G2 X67.024 Y58.642 I-.607 J1.669 E.07116
G2 X64.999 Y59.589 I2.452 J7.886 E.08096
G2 X64.835 Y60.09 I.863 J.561 E.01925
G1 X64.834 Y61.774 E.06083
G2 X66.099 Y62.059 I.743 J-.349 E.054
G2 X69.704 Y60.536 I-3.634 J-13.628 E.14173
G1 X69.704 Y64.13 E.12975
G1 X55.141 Y64.13 E.52579
G1 X55.141 Y60.536 E.12975
G1 X55.323 Y60.645 E.00764
G2 X59.423 Y62.232 I7.326 J-12.842 E.15933
G1 X60.011 Y61.774 E.02691
G2 X59.886 Y59.657 I-3.764 J-.84 E.07758
G2 X58.079 Y58.753 I-2.1 J1.941 E.07457
G2 X56.194 Y58.155 I-1.66 J1.96 E.0733
G2 X55.938 Y58.3 I.311 J.844 E.01067
G3 X53.758 Y56.331 I3.958 J-6.572 E.10674
G2 X52.951 Y54.491 I-2.106 J-.173 E.07557
G2 X51.529 Y51.953 I-35.588 J18.276 E.10506
G2 X51.033 Y51.795 I-.528 J.796 E.01904
G3 X50.558 Y48.918 I9.719 J-3.082 E.10563
G2 X51.111 Y48.093 I-.384 J-.855 E.03781
G1 X51.111 Y31.819 E.58758
G3 X52.433 Y30.498 I1.316 J-.005 E.07504
G1 X61.072 Y30.498 E.31194
G1 X61.072 Y35.359 E.17553
G1 X58.195 Y35.359 E.10388
G1 X58.195 Y38.236 E.10388
G1 X57.687 Y37.728 F30000
G1 F3600
G1 X54.81 Y37.728 E.10388
G1 X54.81 Y52.952 E.54968
G1 X70.034 Y52.952 E.54968
G1 X70.034 Y37.728 E.54968
G1 X67.157 Y37.728 E.10388
G1 X67.157 Y34.851 E.10388
G1 X64.28 Y34.851 E.10388
G1 X64.28 Y31.005 E.13886
G3 X72.506 Y31.01 I4.063 J85.519 E.29713
G1 X72.546 Y31.015 E.00144
G3 X73.226 Y31.826 I-.125 J.795 E.04167
G1 X73.226 Y48.121 E.58836
G2 X73.79 Y49.227 I1.667 J-.153 E.04592
G3 X73.417 Y51.337 I-12.109 J-1.05 E.07746
G2 X71.988 Y53.33 I1.542 J2.614 E.09114
G2 X70.549 Y55.675 I211.067 J131.167 E.09934
G3 X69.638 Y57.14 I-1.366 J.166 E.06732
G3 X68.898 Y57.696 I-8.23 J-10.169 E.03343
G2 X66.571 Y58.284 I-.497 J2.933 E.08921
G2 X64.372 Y59.767 I.285 J2.796 E.09973
G2 X64.326 Y62.023 I7.012 J1.271 E.08181
G1 X65.306 Y62.785 E.04486
G2 X69.196 Y61.401 I-3.333 J-15.515 E.14949
G1 X69.196 Y63.622 E.08021
G1 X55.649 Y63.622 E.48912
G1 X55.649 Y61.401 E.08021
G2 X59.538 Y62.785 I7.222 J-14.131 E.14949
G1 X60.519 Y62.023 E.04486
G2 X60.382 Y59.511 I-5.201 J-.975 E.09171
G2 X58.274 Y58.284 I-2.421 J1.738 E.09071
G2 X55.95 Y57.698 I-1.821 J2.319 E.08912
G3 X54.32 Y56.168 I2.09 J-3.859 E.08161
G2 X53.291 Y54.083 I-3.011 J.189 E.08619
G2 X51.811 Y51.53 I-10.903 J4.615 E.10681
G3 X51.345 Y51.017 I.127 J-.584 E.02672
G1 X51.314 Y50.883 E.00495
G3 X51.054 Y49.215 I12.604 J-2.818 E.06102
G2 X51.619 Y48.111 I-.919 J-1.166 E.04617
G1 X51.619 Y31.826 E.588
G3 X52.44 Y31.005 I.808 J-.013 E.04675
G1 X60.565 Y31.005 E.29335
G1 X60.565 Y34.851 E.13886
G1 X57.687 Y34.851 E.10388
G1 X57.687 Y37.728 E.10388
G1 X57.18 Y37.221 F30000
G1 F3600
G1 X54.302 Y37.221 E.10388
G1 X54.302 Y53.46 E.58635
G1 X70.542 Y53.46 E.58635
G1 X70.542 Y37.221 E.58635
G1 X67.665 Y37.221 E.10388
G1 X67.665 Y34.343 E.10388
G1 X64.788 Y34.343 E.10388
G1 X64.788 Y31.513 E.10219
G3 X72.453 Y31.516 I3.81 J77.475 E.27687
G1 X72.718 Y31.832 E.0149
G1 X72.718 Y48.142 E.58888
G2 X73.264 Y49.414 I2.221 J-.199 E.05083
G3 X72.991 Y50.962 I-12.491 J-1.4 E.05678
M73 P2 R13
G2 X71.539 Y53.094 I2.011 J2.931 E.09531
M73 P2 R13
G2 X70.052 Y55.567 I53.902 J34.092 E.10419
G3 X69.094 Y56.923 I-1.575 J-.096 E.06313
G3 X67.996 Y57.111 I-.834 J-1.577 E.04093
G2 X64.325 Y58.801 I4.566 J14.746 E.14632
G2 X63.819 Y60.042 I1.757 J1.44 E.04915
G1 X63.818 Y62.271 E.08046
G1 X64.505 Y62.806 E.03144
G1 X64.399 Y63.114 E.01179
G1 X60.446 Y63.114 E.14275
G1 X60.34 Y62.806 E.01178
G1 X61.027 Y62.271 E.03145
G2 X60.845 Y59.3 I-6.19 J-1.11 E.10848
G2 X58.234 Y57.714 I-3.248 J2.404 E.11312
G2 X56.037 Y57.139 I-1.776 J2.302 E.08424
G1 X55.873 Y57.016 E.00739
G3 X54.84 Y56.012 I2.29 J-3.393 E.05228
G2 X53.438 Y53.337 I-6.593 J1.749 E.10997
G2 X51.809 Y50.769 I-8.295 J3.461 E.11032
G3 X51.582 Y49.42 I11.119 J-2.563 E.04941
G2 X52.127 Y48.129 I-1.672 J-1.465 E.05146
G1 X52.127 Y31.832 E.58843
G1 X52.405 Y31.514 E.01525
G3 X60.057 Y31.513 I3.847 J138.269 E.2763
G1 X60.057 Y34.343 E.10219
G1 X57.18 Y34.343 E.10388
G1 X57.18 Y37.221 E.10388
G1 E-.8 F2400
;WIPE_START
G1 F3600
G1 X57.18 Y35.221
;WIPE_END
G1 X56.07 Y42.772 Z.6 F30000
G1 X54.426 Y53.968 Z.6
G1 Z.2
G1 E.8 F2400
G1 F3600
G1 X70.418 Y53.968 E.57739
G2 X69.406 Y55.999 I3.069 J2.797 E.08299
G3 X67.637 Y56.673 I-1.481 J-1.23 E.07145
G2 X64.12 Y58.283 I14.519 J36.349 E.13971
G2 X63.311 Y60.019 I1.776 J1.884 E.07082
G1 X63.31 Y62.606 E.09343
G1 X61.535 Y62.606 E.06407
G2 X61.403 Y59.329 I-8.727 J-1.288 E.11913
G2 X58.664 Y57.346 I-3.153 J1.473 E.12747
G2 X56.062 Y56.522 I-2.689 J3.967 E.09995
G3 X55.067 Y54.849 I1.13 J-1.805 E.07296
G2 X54.426 Y53.968 I-4.736 J2.77 E.0394
G1 X55.455 Y54.476 F30000
G1 F3600
G1 X69.383 Y54.476 E.50289
G3 X68.871 Y55.794 I-6.864 J-1.906 E.05113
G3 X67.491 Y56.185 I-1.19 J-1.566 E.05303
G2 X63.776 Y57.908 I11.469 J29.59 E.14794
G2 X62.803 Y59.995 I2.128 J2.262 E.08516
G1 X62.802 Y62.099 E.07594
G1 X62.043 Y62.099 E.02742
G2 X61.467 Y58.357 I-5.629 J-1.048 E.1393
G2 X58.437 Y56.69 I-4.301 J4.229 E.12662
G2 X56.171 Y55.96 I-2.865 J5.01 E.0866
G3 X55.455 Y54.476 I1.977 J-1.869 E.06043
G1 X56.232 Y54.984 F30000
G1 F3600
G1 X68.599 Y54.984 E.44652
G3 X67.74 Y55.606 I-.655 J-.001 E.04459
G2 X63.432 Y57.534 I5.142 J17.266 E.1709
G2 X62.439 Y59.072 I3.503 J3.351 E.06651
G2 X58.853 Y56.322 I-4.415 J2.044 E.16967
G2 X56.312 Y55.415 I-5.038 J10.105 E.09765
G1 X56.232 Y54.984 E.01585
G1 X59.131 Y55.492 F30000
G1 F3600
G1 X65.713 Y55.492 E.23764
G1 X65.788 Y55.857 E.01345
G2 X62.428 Y57.931 I1.31 J5.881 E.14528
G2 X59.056 Y55.857 I-4.675 J3.82 E.14563
G1 X59.131 Y55.492 E.01345
G1 X61.497 Y56.324 F30000
G1 F3600
G1 X61.596 Y56 E.01223
G1 X63.243 Y56 E.05946
G1 X63.339 Y56.328 E.01237
G2 X62.424 Y57.113 I2.767 J4.152 E.0436
G2 X61.497 Y56.324 I-3.638 J3.336 E.04407
G1 X53.795 Y52.091 F30000
G1 F3600
G1 X53.425 Y52.163 E.01359
G2 X52.271 Y50.512 I-4 J1.566 E.07344
G3 X52.581 Y48.598 I2.007 J-.657 E.07271
G2 X52.634 Y48.148 I-3.064 J-.594 E.01639
G1 X52.635 Y32.021 E.58227
G1 X59.549 Y32.021 E.24965
G1 X59.549 Y33.836 E.06551
G1 X56.672 Y33.836 E.10388
G1 X56.672 Y36.713 E.10388
G1 X53.795 Y36.713 E.10388
G1 X53.795 Y52.091 E.55525
G1 X53.287 Y50.74 F30000
G1 F3600
G3 X52.925 Y49.18 I.366 J-.907 E.06776
G1 X53.287 Y49.257 E.01337
G1 X53.287 Y50.74 E.05356
G1 X53.142 Y36.205 F30000
G1 F3600
G1 X53.142 Y32.529 E.13272
G1 X59.041 Y32.529 E.21297
G1 X59.041 Y33.328 E.02884
G1 X56.164 Y33.328 E.10388
G1 X56.164 Y36.205 E.10388
G1 X53.142 Y36.205 E.10909
G1 X53.65 Y35.697 F30000
G1 F3600
G1 X53.65 Y33.037 E.09604
G1 X55.656 Y33.037 E.07242
G1 X55.656 Y35.697 E.09604
G1 X53.65 Y35.697 E.07242
G1 X54.158 Y35.189 F30000
G1 F3600
G1 X54.158 Y33.545 E.05937
G1 X55.148 Y33.545 E.03574
G1 X55.148 Y35.189 E.05937
G1 X54.158 Y35.189 E.03574
G1 E-.8 F2400
;WIPE_START
G1 F3600
G1 X55.148 Y35.189
G1 X55.148 Y34.179
;WIPE_END
G1 X62.776 Y33.921 Z.6 F30000
G1 X65.296 Y33.836 Z.6
G1 Z.2
G1 E.8 F2400
G1 F3600
G1 X65.296 Y32.021 E.06551
G1 X72.21 Y32.021 E.24965
G1 X72.21 Y48.163 E.58281
G2 X72.714 Y49.72 I5.492 J-.916 E.05931
G3 X71.817 Y51.329 I-1.987 J-.053 E.06916
G2 X71.42 Y52.163 I3.193 J2.033 E.03344
G1 X71.05 Y52.091 E.01359
G1 X71.05 Y36.713 E.55525
M73 P3 R13
G1 X68.173 Y36.713 E.10388
M73 P3 R13
G1 X68.173 Y33.836 E.10388
G1 X65.296 Y33.836 E.10388
G1 E-.8 F2400
;WIPE_START
G1 F3600
G1 X67.296 Y33.836
;WIPE_END
G1 X69.329 Y41.192 Z.6 F30000
G1 X71.558 Y49.257 Z.6
G1 Z.2
G1 E.8 F2400
G1 F3600
G1 X71.912 Y49.175 E.01311
G3 X71.558 Y50.755 I-.732 J.666 E.06847
G1 X71.558 Y49.257 E.05409
G1 X71.702 Y36.205 F30000
G1 F3600
G1 X68.681 Y36.205 E.10909
G1 X68.681 Y33.328 E.10388
G1 X65.804 Y33.328 E.10388
G1 X65.804 Y32.529 E.02884
G1 X71.702 Y32.529 E.21297
G1 X71.702 Y36.205 E.13272
G1 X71.195 Y35.697 F30000
G1 F3600
G1 X69.189 Y35.697 E.07242
G1 X69.189 Y33.037 E.09604
G1 X71.195 Y33.037 E.07242
G1 X71.195 Y35.697 E.09604
G1 X70.687 Y35.189 F30000
G1 F3600
G1 X69.697 Y35.189 E.03575
G1 X69.697 Y33.545 E.05937
G1 X70.687 Y33.545 E.03574
G1 X70.687 Y35.189 E.05937
G1 E-.8 F2400
;WIPE_START
G1 F3600
G1 X70.687 Y33.545
G1 X70.331 Y33.545
;WIPE_END
G1 X67.256 Y40.53 Z.6 F30000
G1 X57.481 Y62.738 Z.6
G1 Z.2
G1 E.8 F2400
G1 F3600
G1 X57.414 Y63.114 E.01381
G1 X56.157 Y63.114 E.04539
G1 X56.157 Y62.218 E.03238
G2 X57.481 Y62.738 I7.801 J-17.92 E.05138
G1 X67.363 Y62.738 F30000
G1 F3600
G2 X68.688 Y62.218 I-6.478 J-18.443 E.05138
G1 X68.688 Y63.114 E.03238
G1 X67.431 Y63.114 E.04539
G1 X67.363 Y62.738 E.01381
G1 E-.8 F2400
;WIPE_START
G1 F3600
G1 X67.431 Y63.114
G1 X68.688 Y63.114
G1 X68.688 Y62.754
;WIPE_END
G1 X69.627 Y55.179 Z.6 F30000
G1 X72.992 Y28.03 Z.6
G1 Z.2
G1 E.8 F2400
G1 F3600
G1 X72.429 Y27.987 E.02038
G2 X63.361 Y27.987 I-4.536 J346.104 E.32743
G1 X63.361 Y26.14 E.0667
G1 X72.992 Y26.14 E.34774
G1 X72.992 Y27.962 E.06579
G1 X63.772 Y27.576 F30000
G1 F3600
G1 X63.772 Y26.551 E.037
G1 X72.581 Y26.551 E.31803
G1 X72.581 Y27.579 E.03714
G1 X72.437 Y27.576 E.00518
G2 X63.772 Y27.576 I-4.337 J326.97 E.31287
G1 E-.8 F2400
;WIPE_START
G1 F3600
G1 X65.772 Y27.576
;WIPE_END
G1 X69.846 Y34.03 Z.6 F30000
G1 X71.507 Y36.662 Z.6
G1 Z.2
G1 E.8 F2400
;TYPE:Brim
G1 F3600
G1 X71.702 Y36.662 E.00705
G1 X71.753 Y36.644 E.00194
G1 X71.753 Y48.181 E.41653
G1 X71.913 Y48.715 E.02012
G1 X71.516 Y48.797 E.01463
G1 X71.507 Y36.702 E.43672
G1 E-.8 F2400
;WIPE_START
G1 F3600
G1 X71.702 Y36.662
