; HEADER_BLOCK_START
; generated by Creality_Print V6.0.2.1574 on 2025-06-28 at 07:53:17
; total layer number: 150
; filament_density: 1.24
; filament_diameter: 1.75
; max_z_height: 30.00
; HEADER_BLOCK_END

; MINX = 127.74
; MINY = 43.43
; MINZ = 0.00
; MAXX = 168.74
; MAXY = 101.90
; MAXZ = 30.00

; THUMBNAIL_BLOCK_START

;
; THUMBNAIL_BLOCK_END

; THUMBNAIL_BLOCK_START

;
; THUMBNAIL_BLOCK_END

; external perimeters extrusion width = 0.42mm
; perimeters extrusion width = 0.45mm
; infill extrusion width = 0.45mm
; solid infill extrusion width = 0.42mm
; top infill extrusion width = 0.42mm
; first layer extrusion width = 0.50mm

; EXECUTABLE_BLOCK_START
EXCLUDE_OBJECT_DEFINE NAME=0.75mm_mould.STL_id_0_copy_0 CENTER=148.237,72.663 POLYGON=[[127.737,63.8956],[127.876,61.5157],[128.29,59.168],[128.973,56.8842],[129.917,54.6953],[131.109,52.6307],[132.533,50.7185],[134.169,48.9845],[135.995,47.4521],[137.987,46.1421],[140.117,45.0722],[142.357,44.2569],[144.677,43.7071],[147.045,43.4303],[149.429,43.4303],[151.797,43.7071],[154.116,44.2569],[156.357,45.0722],[158.487,46.1421],[160.479,47.4521],[162.305,48.9845],[163.941,50.7185],[165.364,52.6307],[166.556,54.6953],[167.501,56.8842],[168.184,59.168],[168.598,61.5157],[168.737,63.8956],[168.737,101.896],[127.737,101.896],[127.737,63.8956]]
M73 P0 R23
M106 S0
M106 P2 S0
;TYPE:Custom
M140 S0
M104 S0 
START_PRINT EXTRUDER_TEMP=220 BED_TEMP=50
T0
M204 S2000
G1 Z3 F600
M83
G92 E0
G1 Z1 F600
G90
G21
M83 ; use relative distances for extrusion
G1 E-.8 F2400
M106 S0
;LAYER_CHANGE
;Z:0.2
;HEIGHT:0.2
;BEFORE_LAYER_CHANGE
;0.2
G92 E0

;AFTER_LAYER_CHANGE
;0.2
;_SET_FAN_SPEED_CHANGING_LAYER
SET_VELOCITY_LIMIT ACCEL=1000 ACCEL_TO_DECEL=1000
SET_VELOCITY_LIMIT SQUARE_CORNER_VELOCITY=20
; printing object 0.75mm_mould.STL id:0 copy 0
EXCLUDE_OBJECT_START NAME=0.75mm_mould.STL_id_0_copy_0
G1 Z.4 F30000
G1 X167.38 Y101.039
G1 Z.2
G1 E.8 F2400
;TYPE:Inner wall
;WIDTH:0.499999
G1 F3600
G1 X128.594 Y101.039 E1.4004
G1 X128.594 Y63.921 E1.34018
G1 X128.728 Y61.615 E.08337
G1 X129.124 Y59.374 E.08219
G1 X129.78 Y57.178 E.08275
G1 X130.685 Y55.081 E.08246
G1 X131.827 Y53.102 E.08247
G1 X133.191 Y51.27 E.08247
G1 X134.758 Y49.609 E.08247
G1 X136.508 Y48.141 E.08247
G1 X138.416 Y46.886 E.08247
G1 X140.457 Y45.861 E.08247
G1 X142.604 Y45.079 E.08247
G1 X144.826 Y44.553 E.08247
G1 X147.095 Y44.287 E.08247
G1 X149.379 Y44.287 E.08247
G1 X151.64 Y44.552 E.08219
G1 X153.87 Y45.079 E.08275
G1 X156.017 Y45.861 E.08246
M73 P0 R22
G1 X158.058 Y46.886 E.08247
M73 P0 R22
G1 X159.96 Y48.136 E.08219
G1 X161.716 Y49.609 E.08276
G1 X163.283 Y51.27 E.08246
G1 X164.647 Y53.103 E.08247
G1 X165.789 Y55.081 E.08247
G1 X166.691 Y57.171 E.08219
G1 X167.349 Y59.366 E.08276
G1 X167.746 Y61.615 E.08246
G1 X167.88 Y63.921 E.08337
G1 X167.88 Y101.039 E1.34018
G1 X167.42 Y101.039 E.01661
G1 E-.8 F2400
;WIPE_START
G1 F3600
G1 X165.42 Y101.039
;WIPE_END
G1 X168.337 Y101.496 Z.6 F30000
G1 Z.2
G1 E.8 F2400
;TYPE:Outer wall
G1 F3600
G1 X128.137 Y101.496 E1.45146
G1 X128.137 Y63.907 E1.35716
G1 X128.274 Y61.562 E.08481
G1 X128.678 Y59.268 E.08411
G1 X129.35 Y57.021 E.08468
G1 X130.276 Y54.875 E.08439
G1 X131.444 Y52.851 E.08439
G1 X132.84 Y50.976 E.08439
G1 X134.444 Y49.276 E.08439
G1 X136.234 Y47.774 E.08439
G1 X138.187 Y46.489 E.08439
G1 X140.276 Y45.44 E.08439
G1 X142.472 Y44.641 E.08439
G1 X144.747 Y44.102 E.08439
G1 X147.068 Y43.83 E.08439
G1 X149.406 Y43.83 E.08439
G1 X151.719 Y44.101 E.08411
G1 X154.002 Y44.641 E.08468
G1 X156.198 Y45.44 E.08439
G1 X158.287 Y46.489 E.08439
G1 X160.233 Y47.769 E.08411
G1 X162.03 Y49.276 E.08468
G1 X163.634 Y50.976 E.08439
G1 X165.03 Y52.851 E.08439
G1 X166.198 Y54.875 E.08439
G1 X167.121 Y57.014 E.08411
G1 X167.795 Y59.261 E.08468
G1 X168.2 Y61.562 E.08439
G1 X168.337 Y63.907 E.08481
G1 X168.337 Y101.456 E1.35572
G1 E-.8 F2400
;WIPE_START
G1 F3600
G1 X166.337 Y101.458
;WIPE_END
G1 X165.938 Y93.836 Z.6 F30000
G1 X163.755 Y52.134 Z.6
G1 Z.2
G1 E.8 F2400
;TYPE:Bottom surface
;WIDTH:0.500695
G1 F3600
G1 X161.479 Y49.858 E.11639
G1 X159.755 Y48.412 E.08139
G1 X158.677 Y47.703 E.04662
G1 X164.49 Y53.517 E.29728
G1 X165.375 Y55.048 E.06396
G1 X157.13 Y46.803 E.42165
G1 X155.84 Y46.161 E.05208
G1 X165.914 Y56.235 E.51515
G1 X166.389 Y57.357 E.04408
G1 X154.822 Y45.791 E.5915
G1 X153.804 Y45.42 E.03917
G1 X166.666 Y58.282 E.65773
G1 X166.943 Y59.206 E.0349
G1 X152.951 Y45.214 E.71555
G1 X152.103 Y45.013 E.03151
G1 X167.118 Y60.028 E.76784
G1 X167.256 Y60.814 E.02886
G1 X151.299 Y44.857 E.81604
G1 X150.566 Y44.771 E.02669
G1 X167.395 Y61.6 E.86062
G1 X167.442 Y62.294 E.02517
G1 X149.833 Y44.686 E.90051
G2 X149.13 Y44.63 I-.588 J2.979 E.02555
G1 X167.482 Y62.982 E.93849
G1 X167.522 Y63.669 E.0249
G1 X148.483 Y44.63 E.97365
G1 X147.835 Y44.63 E.02341
G1 X167.537 Y64.332 E1.00753
G1 X167.537 Y64.979 E.02341
G1 X147.188 Y44.63 E1.04064
M73 P1 R22
G1 X146.601 Y44.69 E.02135
M73 P1 R22
G1 X167.537 Y65.627 E1.07067
G1 X167.537 Y66.274 E.02341
G1 X146.021 Y44.758 E1.10032
G1 X145.441 Y44.826 E.0211
G1 X167.537 Y66.922 E1.12996
G1 X167.537 Y67.569 E.02341
G1 X144.864 Y44.896 E1.15948
G1 X144.341 Y45.02 E.01945
G1 X167.537 Y68.216 E1.18624
G1 X167.537 Y68.864 E.02341
G1 X143.817 Y45.144 E1.21301
G1 X143.294 Y45.268 E.01945
G1 X167.537 Y69.511 E1.23977
G1 X167.537 Y70.158 E.02341
G1 X142.771 Y45.392 E1.26654
G2 X142.29 Y45.558 I.471 J2.141 E.01845
G1 X167.537 Y70.806 E1.29114
G1 X167.537 Y71.453 E.02341
G1 X141.815 Y45.731 E1.31541
G1 X141.34 Y45.904 E.01826
G1 X167.537 Y72.101 E1.33968
G1 X167.537 Y72.748 E.02341
G1 X140.866 Y46.077 E1.36395
G2 X140.41 Y46.268 I.591 J2.047 E.01792
G1 X167.537 Y73.395 E1.38727
G1 X167.537 Y74.043 E.02341
G1 X139.979 Y46.485 E1.40931
G1 X139.548 Y46.701 E.01744
G1 X167.537 Y74.69 E1.43135
G1 X167.537 Y75.338 E.02341
G1 X139.117 Y46.917 E1.45339
G1 X138.686 Y47.134 E.01744
G1 X167.537 Y75.985 E1.47543
G1 X167.537 Y76.632 E.02341
G1 X138.286 Y47.381 E1.49587
G1 X137.896 Y47.638 E.0169
G1 X167.537 Y77.28 E1.51584
G1 X167.537 Y77.927 E.02341
G1 X137.505 Y47.895 E1.53581
G1 X137.115 Y48.152 E.0169
G1 X167.537 Y78.575 E1.55579
M73 P2 R22
G1 X167.537 Y79.222 E.02341
M73 P2 R22
G1 X136.724 Y48.409 E1.57576
G1 X136.371 Y48.703 E.01662
G1 X167.537 Y79.869 E1.59381
G1 X167.537 Y80.517 E.02341
G1 X136.019 Y48.999 E1.61182
G1 X135.667 Y49.294 E.01662
G1 X167.537 Y81.164 E1.62982
G1 X167.537 Y81.812 E.02341
G1 X135.315 Y49.589 E1.64782
G2 X134.966 Y49.888 I1.104 J1.641 E.01664
G1 X167.537 Y82.459 E1.66565
G1 X167.537 Y83.106 E.02341
G1 X134.652 Y50.221 E1.68172
G1 X134.338 Y50.554 E.01656
G1 X167.537 Y83.754 E1.6978
G1 X167.537 Y84.401 E.02341
G1 X134.023 Y50.887 E1.71387
G1 X133.709 Y51.22 E.01656
G1 X167.537 Y85.048 E1.72994
G1 X167.537 Y85.696 E.02341
G1 X133.402 Y51.561 E1.74565
G1 X133.126 Y51.932 E.01673
G1 X167.537 Y86.343 E1.75978
G1 X167.537 Y86.991 E.02341
G1 X132.849 Y52.303 E1.7739
G1 X132.573 Y52.674 E.01673
G1 X167.537 Y87.638 E1.78803
G1 X167.537 Y88.285 E.02341
G1 X132.297 Y53.045 E1.80216
G2 X132.034 Y53.43 I1.513 J1.317 E.01688
G1 X167.537 Y88.933 E1.81561
G1 X167.537 Y89.58 E.02341
G1 X131.797 Y53.84 E1.82773
M73 P3 R22
G1 X131.56 Y54.25 E.01714
M73 P3 R22
G1 X167.537 Y90.228 E1.83985
G1 X167.537 Y90.875 E.02341
G1 X131.323 Y54.661 E1.85197
G1 X131.086 Y55.071 E.01714
G1 X167.537 Y91.522 E1.86409
G1 X167.537 Y92.17 E.02341
G1 X130.874 Y55.507 E1.87492
G1 X130.679 Y55.959 E.01781
G1 X167.537 Y92.817 E1.88489
G1 X167.537 Y93.465 E.02341
G1 X130.484 Y56.411 E1.89487
G1 X130.289 Y56.864 E.01781
G1 X167.537 Y94.112 E1.90485
G1 X167.537 Y94.759 E.02341
G1 X130.096 Y57.318 E1.91472
G1 X129.947 Y57.817 E.01881
G1 X167.537 Y95.407 E1.92234
G1 X167.537 Y96.054 E.02341
G1 X129.798 Y58.315 E1.92995
G1 X129.649 Y58.813 E.01881
G1 X167.537 Y96.702 E1.93757
G1 X167.537 Y97.349 E.02341
G1 X129.5 Y59.312 E1.94519
G2 X129.388 Y59.847 I2.243 J.747 E.01983
G1 X167.537 Y97.996 E1.95091
G1 X167.537 Y98.644 E.02341
G1 X129.291 Y60.398 E1.95587
G1 X129.194 Y60.948 E.02021
G1 X167.537 Y99.291 E1.96083
M73 P4 R22
G1 X167.537 Y99.938 E.02341
M73 P4 R22
G1 X129.097 Y61.498 E1.9658
G2 X129.044 Y62.093 I2.515 J.524 E.02162
G1 X167.537 Y100.586 E1.96851
G1 X167.537 Y100.696 E.00397
G1 X167 Y100.696 E.01944
G1 X129.008 Y62.704 E1.94285
G1 X128.973 Y63.316 E.02216
G1 X166.352 Y100.696 E1.91156
G1 X165.705 Y100.696 E.02341
G1 X128.937 Y63.928 E1.88028
G1 X128.937 Y64.575 E.0234
G1 X165.057 Y100.696 E1.84718
G1 X164.41 Y100.696 E.02341
G1 X128.937 Y65.223 E1.81407
G1 X128.937 Y65.87 E.02341
G1 X163.763 Y100.696 E1.78096
G1 X163.115 Y100.696 E.02341
G1 X128.937 Y66.517 E1.74786
M73 P4 R21
G1 X128.937 Y67.165 E.02341
M73 P4 R21
G1 X162.468 Y100.696 E1.71475
G1 X161.82 Y100.696 E.02341
G1 X128.937 Y67.812 E1.68164
G1 X128.937 Y68.46 E.02341
G1 X161.173 Y100.696 E1.64854
G1 X160.526 Y100.696 E.02341
G1 X128.937 Y69.107 E1.61543
G1 X128.937 Y69.754 E.02341
G1 X159.878 Y100.696 E1.58232
G1 X159.231 Y100.696 E.02341
G1 X128.937 Y70.402 E1.54921
G1 X128.937 Y71.049 E.02341
G1 X158.583 Y100.696 E1.51611
M73 P5 R21
G1 X157.936 Y100.696 E.02341
M73 P5 R21
G1 X128.937 Y71.697 E1.483
G1 X128.937 Y72.344 E.02341
G1 X157.289 Y100.696 E1.44989
G1 X156.641 Y100.696 E.02341
G1 X128.937 Y72.991 E1.41679
G1 X128.937 Y73.639 E.02341
G1 X155.994 Y100.696 E1.38368
G1 X155.347 Y100.696 E.02341
G1 X128.937 Y74.286 E1.35057
G1 X128.937 Y74.933 E.02341
G1 X154.699 Y100.696 E1.31746
G1 X154.052 Y100.696 E.02341
G1 X128.937 Y75.581 E1.28436
G1 X128.937 Y76.228 E.02341
G1 X153.404 Y100.696 E1.25125
G1 X152.757 Y100.696 E.02341
G1 X128.937 Y76.876 E1.21814
G1 X128.937 Y77.523 E.02341
G1 X152.11 Y100.696 E1.18504
G1 X151.462 Y100.696 E.02341
G1 X128.937 Y78.17 E1.15193
G1 X128.937 Y78.818 E.02341
G1 X150.815 Y100.696 E1.11882
G1 X150.167 Y100.696 E.02341
G1 X128.937 Y79.465 E1.08571
G1 X128.937 Y80.113 E.02341
G1 X149.52 Y100.696 E1.05261
G1 X148.873 Y100.696 E.02341
G1 X128.937 Y80.76 E1.0195
G1 X128.937 Y81.407 E.02341
G1 X148.225 Y100.696 E.98639
G1 X147.578 Y100.696 E.02341
G1 X128.937 Y82.055 E.95329
G1 X128.937 Y82.702 E.02341
G1 X146.93 Y100.696 E.92018
G1 X146.283 Y100.696 E.02341
G1 X128.937 Y83.35 E.88707
G1 X128.937 Y83.997 E.02341
G1 X145.636 Y100.696 E.85396
G1 X144.988 Y100.696 E.02341
G1 X128.937 Y84.644 E.82086
G1 X128.937 Y85.292 E.02341
G1 X144.341 Y100.696 E.78775
G1 X143.693 Y100.696 E.02341
G1 X128.937 Y85.939 E.75464
G1 X128.937 Y86.587 E.02341
G1 X143.046 Y100.696 E.72154
G1 X142.399 Y100.696 E.02341
G1 X128.937 Y87.234 E.68843
M73 P6 R21
G1 X128.937 Y87.881 E.02341
M73 P6 R21
G1 X141.751 Y100.696 E.65532
G1 X141.104 Y100.696 E.02341
G1 X128.937 Y88.529 E.62221
G1 X128.937 Y89.176 E.02341
G1 X140.457 Y100.696 E.58911
G1 X139.809 Y100.696 E.02341
G1 X128.937 Y89.823 E.556
G1 X128.937 Y90.471 E.02341
G1 X139.162 Y100.696 E.52289
G1 X138.514 Y100.696 E.02341
G1 X128.937 Y91.118 E.48979
G1 X128.937 Y91.766 E.02341
G1 X137.867 Y100.696 E.45668
G1 X137.22 Y100.696 E.02341
G1 X128.937 Y92.413 E.42357
G1 X128.937 Y93.06 E.02341
G1 X136.572 Y100.696 E.39046
G1 X135.925 Y100.696 E.02341
G1 X128.937 Y93.708 E.35736
G1 X128.937 Y94.355 E.02341
G1 X135.277 Y100.696 E.32425
G1 X134.63 Y100.696 E.02341
G1 X128.937 Y95.003 E.29114
G1 X128.937 Y95.65 E.02341
G1 X133.983 Y100.696 E.25804
G1 X133.335 Y100.696 E.02341
G1 X128.937 Y96.297 E.22493
G1 X128.937 Y96.945 E.02341
G1 X132.688 Y100.696 E.19182
G1 X132.04 Y100.696 E.02341
G1 X128.937 Y97.592 E.15871
G1 X128.937 Y98.24 E.02341
G1 X131.393 Y100.696 E.12561
G1 X130.746 Y100.696 E.02341
G1 X128.937 Y98.887 E.0925
G1 X128.937 Y99.534 E.02341
G1 X130.098 Y100.696 E.05939
G1 X129.451 Y100.696 E.02341
G1 X128.731 Y99.976 E.0368
G1 E-.8 F2400
;WIPE_START
G1 F3600
G1 X129.451 Y100.696
G1 X130.098 Y100.696
G1 X129.861 Y100.459
;WIPE_END
G1 X134.647 Y94.513 Z.6 F30000
G1 X165.82 Y55.786 Z.6
G1 Z.2
G1 E.8 F2400
;TYPE:Gap infill
;WIDTH:0.120465
G1 F3600
G1 X165.732 Y55.656 E.00096
;WIDTH:0.165858
G1 X165.644 Y55.526 E.00153
;WIDTH:0.211251
G1 X165.556 Y55.396 E.00209
;WIDTH:0.233948
G1 X165.467 Y55.266 E.00237
G1 E-.8 F2400
;WIPE_START
G1 F3600
G1 X165.556 Y55.396
;WIPE_END
G1 X164.023 Y52.69 Z.6 F30000
G1 Z.2
G1 E.8 F2400
;WIDTH:0.115693
G1 F3600
G1 X163.832 Y52.469 E.00168
;WIDTH:0.133616
G1 X163.641 Y52.248 E.00209
G1 E-.8 F2400
;WIPE_START
G1 F3600
G1 X163.832 Y52.469
;WIPE_END
G1 X158.463 Y47.604 Z.6 F30000
G1 Z.2
G1 E.8 F2400
;WIDTH:0.292361
G1 F3600
G1 X158.277 Y47.452 E.00473
;WIDTH:0.252732
G1 X158.092 Y47.301 E.00397
;WIDTH:0.213104
G1 X157.906 Y47.149 E.00322
;WIDTH:0.169408
G1 X157.773 Y47.053 E.00163
;WIDTH:0.145528
G1 X157.64 Y46.958 E.00133
; stop printing object 0.75mm_mould.STL id:0 copy 0
;TIME_ELAPSED:88.343529

M106 S255
;LAYER_CHANGE
;Z:0.4
;HEIGHT:0.2
;BEFORE_LAYER_CHANGE
;0.4
G92 E0

G1 E-.8 F2400
;WIPE_START
G1 F3600
G1 X157.773 Y47.053
;WIPE_END
EXCLUDE_OBJECT_END NAME=0.75mm_mould.STL_id_0_copy_0
;AFTER_LAYER_CHANGE
;0.4
;_SET_FAN_SPEED_CHANGING_LAYER
SET_VELOCITY_LIMIT ACCEL=10000 ACCEL_TO_DECEL=10000
M140 S50 ; set bed temperature
; printing object 0.75mm_mould.STL id:0 copy 0
EXCLUDE_OBJECT_START NAME=0.75mm_mould.STL_id_0_copy_0
G17
G3 Z.6 I-1.197 J.219 P1  F30000
G1 X167.685 Y101.294 Z.6
G1 Z.4
G1 E.8 F2400
SET_VELOCITY_LIMIT ACCEL=5000 ACCEL_TO_DECEL=5000
;TYPE:Inner wall
;WIDTH:0.449999
G1 F16950.025
G1 X128.339 Y101.294 E1.26522
G1 X128.339 Y63.913 E1.20202
G1 X128.475 Y61.586 E.07497
G1 X128.876 Y59.307 E.0744
G1 X129.54 Y57.091 E.0744
G1 X130.456 Y54.966 E.0744
G1 X131.613 Y52.962 E.0744
G1 X132.995 Y51.106 E.0744
G1 X134.583 Y49.423 E.0744
G1 X136.355 Y47.936 E.0744
G1 X138.289 Y46.664 E.0744
G1 X140.356 Y45.626 E.0744
G1 X142.53 Y44.835 E.0744
G1 X144.782 Y44.301 E.0744
G1 X147.08 Y44.032 E.0744
G1 X149.394 Y44.032 E.0744
G1 X151.692 Y44.301 E.0744
G1 X153.943 Y44.835 E.0744
G1 X156.118 Y45.626 E.0744
G1 X158.185 Y46.664 E.0744
G1 X160.119 Y47.936 E.0744
G1 X161.891 Y49.423 E.0744
G1 X163.479 Y51.106 E.0744
G1 X164.861 Y52.962 E.0744
G1 X166.017 Y54.966 E.0744
G1 X166.934 Y57.091 E.0744
G1 X167.598 Y59.307 E.0744
G1 X167.999 Y61.586 E.0744
G1 X168.135 Y63.913 E.07497
G1 X168.135 Y101.294 E1.20202
G1 X167.725 Y101.294 E.01318
SET_VELOCITY_LIMIT ACCEL=10000 ACCEL_TO_DECEL=10000
G1 X168.527 Y101.686 F30000
SET_VELOCITY_LIMIT ACCEL=5000 ACCEL_TO_DECEL=5000
;TYPE:Outer wall
;WIDTH:0.419999
G1 F12000
G1 X127.947 Y101.686 E1.20874
G1 X127.947 Y63.902 E1.12545
G1 X128.085 Y61.54 E.07046
G1 X128.494 Y59.217 E.07028
G1 X129.171 Y56.956 E.07028
G1 X130.105 Y54.79 E.07028
G1 X131.285 Y52.746 E.07028
G1 X132.694 Y50.854 E.07028
G1 X134.313 Y49.138 E.07028
G1 X136.121 Y47.621 E.07028
G1 X138.092 Y46.324 E.07028
G1 X140.201 Y45.265 E.07028
G1 X142.418 Y44.458 E.07028
G1 X144.714 Y43.914 E.07028
G1 X147.057 Y43.64 E.07028
G1 X149.417 Y43.64 E.07028
G1 X151.76 Y43.914 E.07028
G1 X154.056 Y44.458 E.07028
G1 X156.273 Y45.265 E.07028
G1 X158.382 Y46.324 E.07028
G1 X160.353 Y47.621 E.07028
G1 X162.161 Y49.138 E.07028
G1 X163.78 Y50.854 E.07028
G1 X165.189 Y52.746 E.07028
G1 X166.368 Y54.79 E.07028
G1 X167.303 Y56.956 E.07028
G1 X167.98 Y59.217 E.07028
G1 X168.389 Y61.54 E.07028
G1 X168.527 Y63.902 E.07046
G1 X168.527 Y101.646 E1.12426
SET_VELOCITY_LIMIT ACCEL=10000 ACCEL_TO_DECEL=10000
G1 E-.8 F2400
;WIPE_START
G1 F12000
G1 X166.527 Y101.648
;WIPE_END
G1 X167.269 Y101.193 Z.8 F30000
G1 Z.4
G1 E.8 F2400
;TYPE:Internal solid infill
;WIDTH:0.421574
G1 F15000
G1 X167.865 Y100.597 E.02521
G1 X167.865 Y100.062 E.01602
G1 X166.903 Y101.024 E.04068
G1 X166.368 Y101.024 E.01602
G1 X167.865 Y99.526 E.06333
G1 X167.865 Y98.991 E.01602
G1 X165.832 Y101.024 E.08599
G1 X165.297 Y101.024 E.01602
G1 X167.865 Y98.455 E.10864
G1 X167.865 Y97.92 E.01602
G1 X164.761 Y101.024 E.13129
G1 X164.226 Y101.024 E.01602
G1 X167.865 Y97.384 E.15394
G1 X167.865 Y96.849 E.01602
G1 X163.69 Y101.024 E.17659
G1 X163.155 Y101.024 E.01602
G1 X167.865 Y96.313 E.19924
G1 X167.865 Y95.778 E.01602
G1 X162.619 Y101.024 E.2219
G1 X162.084 Y101.024 E.01602
G1 X167.865 Y95.242 E.24455
G1 X167.865 Y94.707 E.01602
G1 X161.548 Y101.024 E.2672
G1 X161.013 Y101.024 E.01602
G1 X167.865 Y94.171 E.28985
