; HEADER_BLOCK_START
; generated by Creality_Print V6.0.2.1574 on 2025-06-23 at 06:16:26
; total layer number: 150
; filament_density: 1.24
; filament_diameter: 1.75
; max_z_height: 30.00
; HEADER_BLOCK_END

; MINX = 123.76
; MINY = 30.46
; MINZ = 0.00
; MAXX = 164.76
; MAXY = 88.93
; MAXZ = 30.00

; THUMBNAIL_BLOCK_START

;
; THUMBNAIL_BLOCK_END

; THUMBNAIL_BLOCK_START

;
; THUMBNAIL_BLOCK_END

; external perimeters extrusion width = 0.42mm
; perimeters extrusion width = 0.45mm
; infill extrusion width = 0.45mm
; solid infill extrusion width = 0.42mm
; top infill extrusion width = 0.42mm
; first layer extrusion width = 0.50mm

; EXECUTABLE_BLOCK_START
EXCLUDE_OBJECT_DEFINE NAME=1.5mm_mould.STL_id_0_copy_0 CENTER=144.263,59.6947 POLYGON=[[123.763,50.9274],[123.901,48.5475],[124.315,46.1998],[124.999,43.916],[125.943,41.727],[127.135,39.6625],[128.559,37.7503],[130.195,36.0162],[132.021,34.4839],[134.013,33.1739],[136.143,32.104],[138.383,31.2886],[140.703,30.7388],[143.071,30.4621],[145.455,30.4621],[147.822,30.7388],[150.142,31.2886],[152.382,32.104],[154.513,33.1739],[156.504,34.4839],[158.331,36.0162],[159.967,37.7503],[161.39,39.6625],[162.582,41.727],[163.526,43.916],[164.21,46.1998],[164.624,48.5475],[164.763,50.9274],[164.763,88.9274],[123.763,88.9274],[123.763,50.9274]]
M73 P0 R23
M106 S0
M106 P2 S0
;TYPE:Custom
M140 S0
M104 S0 
START_PRINT EXTRUDER_TEMP=220 BED_TEMP=50
T0
M204 S2000
G1 Z3 F600
M83
G92 E0
G1 Z1 F600
G90
G21
M83 ; use relative distances for extrusion
G1 E-.8 F2400
M106 S0
;LAYER_CHANGE
;Z:0.2
;HEIGHT:0.2
;BEFORE_LAYER_CHANGE
;0.2
G92 E0

;AFTER_LAYER_CHANGE
;0.2
;_SET_FAN_SPEED_CHANGING_LAYER
SET_VELOCITY_LIMIT ACCEL=1000 ACCEL_TO_DECEL=1000
SET_VELOCITY_LIMIT SQUARE_CORNER_VELOCITY=20
; printing object 1.5mm_mould.STL id:0 copy 0
EXCLUDE_OBJECT_START NAME=1.5mm_mould.STL_id_0_copy_0
G1 Z.4 F30000
G1 X163.406 Y88.07
M73 P0 R22
G1 Z.2
M73 P0 R22
G1 E.8 F2400
;TYPE:Inner wall
;WIDTH:0.499999
G1 F3600
G1 X124.62 Y88.07 E1.4004
G1 X124.62 Y50.952 E1.34018
G1 X124.754 Y48.647 E.08337
G1 X125.149 Y46.405 E.08219
G1 X125.806 Y44.209 E.08275
G1 X126.71 Y42.112 E.08246
G1 X127.852 Y40.134 E.08247
G1 X129.216 Y38.302 E.08247
G1 X130.784 Y36.641 E.08247
G1 X132.534 Y35.173 E.08247
G1 X134.442 Y33.917 E.08247
G1 X136.483 Y32.892 E.08247
G1 X138.629 Y32.111 E.08247
G1 X140.852 Y31.584 E.08247
G1 X143.121 Y31.319 E.08247
G1 X145.405 Y31.319 E.08247
G1 X147.666 Y31.583 E.08219
G1 X149.896 Y32.111 E.08275
G1 X152.042 Y32.892 E.08246
G1 X154.083 Y33.917 E.08247
G1 X155.985 Y35.168 E.08219
G1 X157.742 Y36.641 E.08276
G1 X159.309 Y38.302 E.08246
G1 X160.673 Y40.134 E.08247
G1 X161.815 Y42.112 E.08247
G1 X162.717 Y44.202 E.08219
G1 X163.375 Y46.398 E.08276
G1 X163.771 Y48.647 E.08246
G1 X163.906 Y50.952 E.08337
G1 X163.906 Y88.07 E1.34018
G1 X163.446 Y88.07 E.01661
G1 E-.8 F2400
;WIPE_START
G1 F3600
G1 X161.446 Y88.07
;WIPE_END
G1 X164.363 Y88.527 Z.6 F30000
G1 Z.2
G1 E.8 F2400
;TYPE:Outer wall
G1 F3600
G1 X124.163 Y88.527 E1.45146
G1 X124.163 Y50.939 E1.35716
G1 X124.299 Y48.594 E.08481
G1 X124.704 Y46.3 E.08411
G1 X125.376 Y44.053 E.08468
G1 X126.301 Y41.907 E.08439
G1 X127.47 Y39.883 E.08439
G1 X128.866 Y38.008 E.08439
G1 X130.47 Y36.308 E.08439
G1 X132.26 Y34.805 E.08439
G1 X134.213 Y33.521 E.08439
G1 X136.302 Y32.472 E.08439
G1 X138.498 Y31.672 E.08439
G1 X140.773 Y31.133 E.08439
G1 X143.094 Y30.862 E.08439
G1 X145.431 Y30.862 E.08439
G1 X147.745 Y31.133 E.08411
G1 X150.027 Y31.672 E.08468
G1 X152.224 Y32.472 E.08439
G1 X154.312 Y33.521 E.08439
G1 X156.259 Y34.801 E.08411
G1 X158.056 Y36.308 E.08468
G1 X159.66 Y38.008 E.08439
G1 X161.055 Y39.883 E.08439
G1 X162.224 Y41.907 E.08439
G1 X163.147 Y44.046 E.08411
G1 X163.82 Y46.292 E.08468
G1 X164.226 Y48.594 E.08439
G1 X164.363 Y50.939 E.08481
G1 X164.363 Y88.487 E1.35572
G1 E-.8 F2400
;WIPE_START
G1 F3600
G1 X162.363 Y88.489
;WIPE_END
G1 X161.964 Y80.867 Z.6 F30000
G1 X159.781 Y39.166 Z.6
G1 Z.2
G1 E.8 F2400
;TYPE:Bottom surface
;WIDTH:0.500695
G1 F3600
G1 X157.505 Y36.89 E.11639
G1 X155.78 Y35.444 E.08139
G1 X154.703 Y34.735 E.04662
G1 X160.516 Y40.548 E.29728
G1 X161.401 Y42.08 E.06396
G1 X153.155 Y33.835 E.42165
G1 X151.866 Y33.193 E.05208
G1 X161.939 Y43.266 E.51515
G1 X162.415 Y44.389 E.04408
G1 X150.848 Y32.822 E.5915
G1 X149.83 Y32.452 E.03917
G1 X162.692 Y45.314 E.65773
G1 X162.969 Y46.238 E.0349
G1 X148.977 Y32.246 E.71555
G1 X148.129 Y32.045 E.03151
G1 X163.143 Y47.06 E.76784
G1 X163.282 Y47.846 E.02886
G1 X147.325 Y31.889 E.81604
G1 X146.592 Y31.803 E.02669
G1 X163.421 Y48.632 E.86062
G1 X163.468 Y49.326 E.02517
G1 X145.859 Y31.717 E.90051
G2 X145.156 Y31.662 I-.588 J2.979 E.02555
G1 X163.508 Y50.014 E.93849
G1 X163.548 Y50.701 E.0249
G1 X144.508 Y31.662 E.97365
G1 X143.861 Y31.662 E.02341
G1 X163.563 Y51.364 E1.00753
G1 X163.563 Y52.011 E.02341
G1 X143.214 Y31.662 E1.04064
M73 P1 R22
G1 X142.626 Y31.722 E.02135
M73 P1 R22
G1 X163.563 Y52.658 E1.07067
G1 X163.563 Y53.306 E.02341
G1 X142.047 Y31.79 E1.10032
G1 X141.467 Y31.858 E.0211
G1 X163.563 Y53.953 E1.12996
G1 X163.563 Y54.601 E.02341
G1 X140.89 Y31.928 E1.15948
G1 X140.366 Y32.052 E.01945
G1 X163.563 Y55.248 E1.18624
G1 X163.563 Y55.895 E.02341
G1 X139.843 Y32.176 E1.21301
G1 X139.32 Y32.3 E.01945
G1 X163.563 Y56.543 E1.23977
G1 X163.563 Y57.19 E.02341
G1 X138.796 Y32.424 E1.26654
G2 X138.315 Y32.59 I.471 J2.141 E.01845
G1 X163.563 Y57.838 E1.29114
G1 X163.563 Y58.485 E.02341
G1 X137.841 Y32.763 E1.31541
G1 X137.366 Y32.936 E.01826
G1 X163.563 Y59.132 E1.33968
G1 X163.563 Y59.78 E.02341
G1 X136.891 Y33.108 E1.36395
G2 X136.435 Y33.3 I.591 J2.047 E.01792
G1 X163.563 Y60.427 E1.38727
G1 X163.563 Y61.075 E.02341
G1 X136.005 Y33.516 E1.40931
G1 X135.574 Y33.733 E.01744
G1 X163.563 Y61.722 E1.43135
G1 X163.563 Y62.369 E.02341
G1 X135.143 Y33.949 E1.45339
G1 X134.712 Y34.166 E.01744
G1 X163.563 Y63.017 E1.47543
G1 X163.563 Y63.664 E.02341
G1 X134.312 Y34.413 E1.49587
G1 X133.921 Y34.67 E.0169
G1 X163.563 Y64.312 E1.51584
G1 X163.563 Y64.959 E.02341
G1 X133.531 Y34.927 E1.53581
G1 X133.14 Y35.184 E.0169
G1 X163.563 Y65.606 E1.55579
M73 P2 R22
G1 X163.563 Y66.254 E.02341
M73 P2 R22
G1 X132.75 Y35.441 E1.57576
G1 X132.397 Y35.735 E.01662
G1 X163.563 Y66.901 E1.59381
G1 X163.563 Y67.548 E.02341
G1 X132.045 Y36.03 E1.61182
G1 X131.693 Y36.326 E.01662
G1 X163.563 Y68.196 E1.62982
G1 X163.563 Y68.843 E.02341
G1 X131.341 Y36.621 E1.64782
G2 X130.992 Y36.92 I1.104 J1.641 E.01664
G1 X163.563 Y69.491 E1.66565
G1 X163.563 Y70.138 E.02341
G1 X130.678 Y37.253 E1.68172
G1 X130.363 Y37.586 E.01656
G1 X163.563 Y70.785 E1.6978
G1 X163.563 Y71.433 E.02341
G1 X130.049 Y37.919 E1.71387
G1 X129.735 Y38.252 E.01656
G1 X163.563 Y72.08 E1.72994
G1 X163.563 Y72.728 E.02341
G1 X129.428 Y38.592 E1.74565
G1 X129.151 Y38.964 E.01673
G1 X163.563 Y73.375 E1.75978
G1 X163.563 Y74.022 E.02341
G1 X128.875 Y39.335 E1.7739
G1 X128.599 Y39.706 E.01673
G1 X163.563 Y74.67 E1.78803
G1 X163.563 Y75.317 E.02341
G1 X128.323 Y40.077 E1.80216
G2 X128.06 Y40.461 I1.513 J1.317 E.01688
G1 X163.563 Y75.965 E1.81561
G1 X163.563 Y76.612 E.02341
G1 X127.823 Y40.872 E1.82773
M73 P3 R22
G1 X127.586 Y41.282 E.01714
M73 P3 R22
G1 X163.563 Y77.259 E1.83985
G1 X163.563 Y77.907 E.02341
G1 X127.349 Y41.693 E1.85197
G1 X127.112 Y42.103 E.01714
G1 X163.563 Y78.554 E1.86409
G1 X163.563 Y79.202 E.02341
G1 X126.9 Y42.539 E1.87492
G1 X126.705 Y42.991 E.01781
G1 X163.563 Y79.849 E1.88489
G1 X163.563 Y80.496 E.02341
G1 X126.51 Y43.443 E1.89487
G1 X126.315 Y43.896 E.01781
G1 X163.563 Y81.144 E1.90485
G1 X163.563 Y81.791 E.02341
G1 X126.122 Y44.35 E1.91472
G1 X125.973 Y44.848 E.01881
G1 X163.563 Y82.439 E1.92234
G1 X163.563 Y83.086 E.02341
G1 X125.824 Y45.347 E1.92995
G1 X125.675 Y45.845 E.01881
G1 X163.563 Y83.733 E1.93757
G1 X163.563 Y84.381 E.02341
G1 X125.526 Y46.343 E1.94519
G2 X125.414 Y46.879 I2.243 J.747 E.01983
G1 X163.563 Y85.028 E1.95091
G1 X163.563 Y85.675 E.02341
G1 X125.317 Y47.429 E1.95587
G1 X125.22 Y47.98 E.02021
G1 X163.563 Y86.323 E1.96083
M73 P4 R22
G1 X163.563 Y86.97 E.02341
M73 P4 R22
G1 X125.123 Y48.53 E1.9658
G2 X125.07 Y49.124 I2.515 J.524 E.02162
G1 X163.563 Y87.618 E1.96851
G1 X163.563 Y87.728 E.00397
G1 X163.025 Y87.728 E.01944
G1 X125.034 Y49.736 E1.94285
G1 X124.998 Y50.348 E.02216
G1 X162.378 Y87.728 E1.91156
G1 X161.731 Y87.728 E.02341
G1 X124.963 Y50.96 E1.88028
G1 X124.963 Y51.607 E.0234
G1 X161.083 Y87.728 E1.84718
M73 P4 R21
G1 X160.436 Y87.728 E.02341
M73 P4 R21
G1 X124.963 Y52.254 E1.81407
G1 X124.963 Y52.902 E.02341
G1 X159.788 Y87.728 E1.78096
G1 X159.141 Y87.728 E.02341
G1 X124.963 Y53.549 E1.74786
G1 X124.963 Y54.197 E.02341
G1 X158.494 Y87.728 E1.71475
G1 X157.846 Y87.728 E.02341
G1 X124.963 Y54.844 E1.68164
G1 X124.963 Y55.491 E.02341
G1 X157.199 Y87.728 E1.64854
G1 X156.551 Y87.728 E.02341
G1 X124.963 Y56.139 E1.61543
G1 X124.963 Y56.786 E.02341
G1 X155.904 Y87.728 E1.58232
G1 X155.257 Y87.728 E.02341
G1 X124.963 Y57.433 E1.54921
G1 X124.963 Y58.081 E.02341
G1 X154.609 Y87.728 E1.51611
M73 P5 R21
G1 X153.962 Y87.728 E.02341
M73 P5 R21
G1 X124.963 Y58.728 E1.483
G1 X124.963 Y59.376 E.02341
G1 X153.314 Y87.728 E1.44989
G1 X152.667 Y87.728 E.02341
G1 X124.963 Y60.023 E1.41679
G1 X124.963 Y60.67 E.02341
G1 X152.02 Y87.728 E1.38368
G1 X151.372 Y87.728 E.02341
G1 X124.963 Y61.318 E1.35057
G1 X124.963 Y61.965 E.02341
G1 X150.725 Y87.728 E1.31746
G1 X150.077 Y87.728 E.02341
G1 X124.963 Y62.613 E1.28436
G1 X124.963 Y63.26 E.02341
G1 X149.43 Y87.728 E1.25125
G1 X148.783 Y87.728 E.02341
G1 X124.963 Y63.907 E1.21814
G1 X124.963 Y64.555 E.02341
G1 X148.135 Y87.728 E1.18504
G1 X147.488 Y87.728 E.02341
G1 X124.963 Y65.202 E1.15193
G1 X124.963 Y65.85 E.02341
G1 X146.841 Y87.728 E1.11882
G1 X146.193 Y87.728 E.02341
G1 X124.963 Y66.497 E1.08571
G1 X124.963 Y67.144 E.02341
G1 X145.546 Y87.728 E1.05261
G1 X144.898 Y87.728 E.02341
G1 X124.963 Y67.792 E1.0195
G1 X124.963 Y68.439 E.02341
G1 X144.251 Y87.728 E.98639
G1 X143.604 Y87.728 E.02341
G1 X124.963 Y69.087 E.95329
G1 X124.963 Y69.734 E.02341
G1 X142.956 Y87.728 E.92018
G1 X142.309 Y87.728 E.02341
G1 X124.963 Y70.381 E.88707
G1 X124.963 Y71.029 E.02341
G1 X141.661 Y87.728 E.85396
G1 X141.014 Y87.728 E.02341
G1 X124.963 Y71.676 E.82086
G1 X124.963 Y72.324 E.02341
G1 X140.367 Y87.728 E.78775
G1 X139.719 Y87.728 E.02341
G1 X124.963 Y72.971 E.75464
G1 X124.963 Y73.618 E.02341
G1 X139.072 Y87.728 E.72154
G1 X138.424 Y87.728 E.02341
G1 X124.963 Y74.266 E.68843
M73 P6 R21
G1 X124.963 Y74.913 E.02341
M73 P6 R21
G1 X137.777 Y87.728 E.65532
G1 X137.13 Y87.728 E.02341
G1 X124.963 Y75.56 E.62221
G1 X124.963 Y76.208 E.02341
G1 X136.482 Y87.728 E.58911
G1 X135.835 Y87.728 E.02341
G1 X124.963 Y76.855 E.556
G1 X124.963 Y77.503 E.02341
G1 X135.187 Y87.728 E.52289
G1 X134.54 Y87.728 E.02341
G1 X124.963 Y78.15 E.48979
G1 X124.963 Y78.797 E.02341
G1 X133.893 Y87.728 E.45668
G1 X133.245 Y87.728 E.02341
G1 X124.963 Y79.445 E.42357
G1 X124.963 Y80.092 E.02341
G1 X132.598 Y87.728 E.39046
G1 X131.951 Y87.728 E.02341
G1 X124.963 Y80.74 E.35736
G1 X124.963 Y81.387 E.02341
G1 X131.303 Y87.728 E.32425
G1 X130.656 Y87.728 E.02341
G1 X124.963 Y82.034 E.29114
G1 X124.963 Y82.682 E.02341
G1 X130.008 Y87.728 E.25804
G1 X129.361 Y87.728 E.02341
G1 X124.963 Y83.329 E.22493
G1 X124.963 Y83.977 E.02341
G1 X128.714 Y87.728 E.19182
G1 X128.066 Y87.728 E.02341
G1 X124.963 Y84.624 E.15871
G1 X124.963 Y85.271 E.02341
G1 X127.419 Y87.728 E.12561
G1 X126.771 Y87.728 E.02341
G1 X124.963 Y85.919 E.0925
G1 X124.963 Y86.566 E.02341
G1 X126.124 Y87.728 E.05939
G1 X125.477 Y87.728 E.02341
G1 X124.757 Y87.008 E.0368
G1 E-.8 F2400
;WIPE_START
G1 F3600
G1 X125.477 Y87.728
G1 X126.124 Y87.728
G1 X125.887 Y87.491
;WIPE_END
G1 X130.673 Y81.545 Z.6 F30000
G1 X161.846 Y42.818 Z.6
G1 Z.2
G1 E.8 F2400
;TYPE:Gap infill
;WIDTH:0.120465
G1 F3600
G1 X161.758 Y42.688 E.00096
;WIDTH:0.165858
G1 X161.67 Y42.558 E.00153
;WIDTH:0.211251
G1 X161.581 Y42.428 E.00209
;WIDTH:0.233948
G1 X161.493 Y42.298 E.00237
G1 E-.8 F2400
;WIPE_START
G1 F3600
G1 X161.581 Y42.428
;WIPE_END
G1 X160.049 Y39.722 Z.6 F30000
G1 Z.2
G1 E.8 F2400
;WIDTH:0.115693
G1 F3600
G1 X159.858 Y39.501 E.00168
;WIDTH:0.133616
G1 X159.667 Y39.28 E.00209
G1 E-.8 F2400
;WIPE_START
G1 F3600
G1 X159.858 Y39.501
;WIPE_END
G1 X154.489 Y34.635 Z.6 F30000
G1 Z.2
G1 E.8 F2400
;WIDTH:0.292361
G1 F3600
G1 X154.303 Y34.484 E.00473
;WIDTH:0.252732
G1 X154.117 Y34.332 E.00397
;WIDTH:0.213104
G1 X153.931 Y34.181 E.00322
;WIDTH:0.169408
G1 X153.799 Y34.085 E.00163
;WIDTH:0.145528
G1 X153.666 Y33.989 E.00133
; stop printing object 1.5mm_mould.STL id:0 copy 0
;TIME_ELAPSED:88.321083

M106 S255
;LAYER_CHANGE
;Z:0.4
;HEIGHT:0.2
;BEFORE_LAYER_CHANGE
;0.4
G92 E0

G1 E-.8 F2400
;WIPE_START
G1 F3600
G1 X153.799 Y34.085
;WIPE_END
EXCLUDE_OBJECT_END NAME=1.5mm_mould.STL_id_0_copy_0
;AFTER_LAYER_CHANGE
;0.4
;_SET_FAN_SPEED_CHANGING_LAYER
SET_VELOCITY_LIMIT ACCEL=10000 ACCEL_TO_DECEL=10000
M140 S50 ; set bed temperature
; printing object 1.5mm_mould.STL id:0 copy 0
EXCLUDE_OBJECT_START NAME=1.5mm_mould.STL_id_0_copy_0
G17
G3 Z.6 I-1.197 J.219 P1  F30000
G1 X163.711 Y88.325 Z.6
G1 Z.4
G1 E.8 F2400
SET_VELOCITY_LIMIT ACCEL=5000 ACCEL_TO_DECEL=5000
;TYPE:Inner wall
;WIDTH:0.449999
G1 F16950.025
G1 X124.365 Y88.325 E1.26522
G1 X124.365 Y50.945 E1.20202
G1 X124.5 Y48.618 E.07497
G1 X124.902 Y46.339 E.0744
G1 X125.566 Y44.122 E.0744
G1 X126.482 Y41.998 E.0744
G1 X127.639 Y39.994 E.0744
G1 X129.021 Y38.138 E.0744
G1 X130.609 Y36.455 E.0744
G1 X132.381 Y34.968 E.0744
G1 X134.314 Y33.696 E.0744
G1 X136.382 Y32.658 E.0744
G1 X138.556 Y31.866 E.0744
G1 X140.808 Y31.333 E.0744
G1 X143.106 Y31.064 E.0744
G1 X145.42 Y31.064 E.0744
G1 X147.718 Y31.333 E.0744
G1 X149.969 Y31.866 E.0744
G1 X152.143 Y32.658 E.0744
G1 X154.211 Y33.696 E.0744
G1 X156.144 Y34.968 E.0744
G1 X157.917 Y36.455 E.0744
G1 X159.505 Y38.138 E.0744
G1 X160.886 Y39.994 E.0744
G1 X162.043 Y41.998 E.0744
G1 X162.96 Y44.122 E.0744
G1 X163.623 Y46.339 E.0744
G1 X164.025 Y48.618 E.0744
G1 X164.161 Y50.945 E.07497
G1 X164.161 Y88.325 E1.20202
G1 X163.751 Y88.325 E.01318
SET_VELOCITY_LIMIT ACCEL=10000 ACCEL_TO_DECEL=10000
G1 X164.553 Y88.717 F30000
SET_VELOCITY_LIMIT ACCEL=5000 ACCEL_TO_DECEL=5000
;TYPE:Outer wall
;WIDTH:0.419999
G1 F12000
G1 X123.973 Y88.717 E1.20874
G1 X123.973 Y50.934 E1.12545
G1 X124.11 Y48.572 E.07046
G1 X124.52 Y46.248 E.07028
G1 X125.197 Y43.988 E.07028
G1 X126.131 Y41.821 E.07028
G1 X127.311 Y39.778 E.07028
G1 X128.72 Y37.885 E.07028
G1 X130.339 Y36.169 E.07028
G1 X132.147 Y34.653 E.07028
G1 X134.118 Y33.356 E.07028
G1 X136.226 Y32.297 E.07028
G1 X138.444 Y31.49 E.07028
G1 X140.739 Y30.946 E.07028
G1 X143.083 Y30.672 E.07028
G1 X145.442 Y30.672 E.07028
G1 X147.786 Y30.946 E.07028
G1 X150.082 Y31.49 E.07028
G1 X152.299 Y32.297 E.07028
G1 X154.408 Y33.356 E.07028
G1 X156.379 Y34.653 E.07028
G1 X158.186 Y36.169 E.07028
G1 X159.805 Y37.885 E.07028
G1 X161.214 Y39.778 E.07028
G1 X162.394 Y41.821 E.07028
G1 X163.329 Y43.988 E.07028
G1 X164.005 Y46.248 E.07028
G1 X164.415 Y48.572 E.07028
G1 X164.553 Y50.934 E.07046
G1 X164.553 Y88.677 E1.12426
SET_VELOCITY_LIMIT ACCEL=10000 ACCEL_TO_DECEL=10000
G1 E-.8 F2400
;WIPE_START
G1 F12000
G1 X162.553 Y88.679
;WIPE_END
G1 X163.295 Y88.225 Z.8 F30000
G1 Z.4
G1 E.8 F2400
;TYPE:Internal solid infill
;WIDTH:0.421574
G1 F15000
G1 X163.891 Y87.629 E.02521
G1 X163.891 Y87.094 E.01602
G1 X162.929 Y88.055 E.04068
G1 X162.393 Y88.055 E.01602
G1 X163.891 Y86.558 E.06333
G1 X163.891 Y86.023 E.01602
G1 X161.858 Y88.055 E.08599
G1 X161.322 Y88.055 E.01602
G1 X163.891 Y85.487 E.10864
G1 X163.891 Y84.952 E.01602
G1 X160.787 Y88.055 E.13129
G1 X160.251 Y88.055 E.01602
G1 X163.891 Y84.416 E.15394
G1 X163.891 Y83.881 E.01602
G1 X159.716 Y88.055 E.17659
G1 X159.18 Y88.055 E.01602
G1 X163.891 Y83.345 E.19924
G1 X163.891 Y82.81 E.01602
G1 X158.645 Y88.055 E.2219
G1 X158.109 Y88.055 E.01602
G1 X163.891 Y82.274 E.24455
G1 X163.891 Y81.739 E.01602
G1 X157.574 Y88.055 E.2672
G1 X157.038 Y88.055 E.01602
G1 X163.891 Y81.203 E.28985
G1 X163.891 Y80.668 E.01602
G1 X156.503 Y88.055 E.3125
G1 X155.967 Y88.055 E.01602
