; HEADER_BLOCK_START
; generated by Creality_Print V6.0.2.1574 on 2025-06-22 at 07:16:25
; total layer number: 150
; filament_density: 1.24
; filament_diameter: 1.75
; max_z_height: 30.00
; HEADER_BLOCK_END

; MINX = 121.77
; MINY = 52.26
; MINZ = 0.00
; MAXX = 162.77
; MAXY = 110.72
; MAXZ = 30.00

; THUMBNAIL_BLOCK_START

;
; THUMBNAIL_BLOCK_END

; THUMBNAIL_BLOCK_START

;
; THUMBNAIL_BLOCK_END

; external perimeters extrusion width = 0.42mm
; perimeters extrusion width = 0.45mm
; infill extrusion width = 0.45mm
; solid infill extrusion width = 0.42mm
; top infill extrusion width = 0.42mm
; first layer extrusion width = 0.50mm

; EXECUTABLE_BLOCK_START
EXCLUDE_OBJECT_DEFINE NAME=3mm_mould.STL_id_0_copy_0 CENTER=142.265,81.4885 POLYGON=[[121.765,52.2559],[162.765,52.2559],[162.765,90.2559],[162.627,92.6358],[162.213,94.9835],[161.529,97.2673],[160.585,99.4562],[159.393,101.521],[157.969,103.433],[156.333,105.167],[154.507,106.699],[152.515,108.009],[150.385,109.079],[148.145,109.895],[145.825,110.444],[143.457,110.721],[141.073,110.721],[138.705,110.444],[136.386,109.895],[134.146,109.079],[132.015,108.009],[130.023,106.699],[128.197,105.167],[126.561,103.433],[125.138,101.521],[123.946,99.4562],[123.002,97.2673],[122.318,94.9835],[121.904,92.6358],[121.765,90.2559],[121.765,52.2559]]
M73 P0 R23
M106 S0
M106 P2 S0
;TYPE:Custom
M140 S0
M104 S0 
START_PRINT EXTRUDER_TEMP=220 BED_TEMP=50
T0
M204 S2000
G1 Z3 F600
M83
G92 E0
M73 P0 R22
G1 Z1 F600
M73 P0 R22
G90
G21
M83 ; use relative distances for extrusion
G1 E-.8 F2400
M106 S0
;LAYER_CHANGE
;Z:0.2
;HEIGHT:0.2
;BEFORE_LAYER_CHANGE
;0.2
G92 E0

;AFTER_LAYER_CHANGE
;0.2
;_SET_FAN_SPEED_CHANGING_LAYER
SET_VELOCITY_LIMIT ACCEL=1000 ACCEL_TO_DECEL=1000
SET_VELOCITY_LIMIT SQUARE_CORNER_VELOCITY=20
; printing object 3mm_mould.STL id:0 copy 0
EXCLUDE_OBJECT_START NAME=3mm_mould.STL_id_0_copy_0
G1 Z.4 F30000
G1 X123.122 Y53.113
G1 Z.2
G1 E.8 F2400
;TYPE:Inner wall
;WIDTH:0.499999
G1 F3600
G1 X161.908 Y53.113 E1.4004
G1 X161.908 Y90.231 E1.34018
G1 X161.774 Y92.536 E.08337
G1 X161.377 Y94.785 E.08247
G1 X160.722 Y96.974 E.08247
G1 X159.817 Y99.071 E.08247
G1 X158.675 Y101.049 E.08247
G1 X157.311 Y102.881 E.08247
G1 X155.744 Y104.543 E.08247
G1 X153.994 Y106.011 E.08247
G1 X152.086 Y107.266 E.08247
G1 X150.045 Y108.291 E.08247
G1 X147.898 Y109.072 E.08247
G1 X145.676 Y109.599 E.08247
G1 X143.407 Y109.864 E.08247
G1 X141.123 Y109.864 E.08247
G1 X138.855 Y109.599 E.08247
G1 X136.632 Y109.072 E.08247
G1 X134.486 Y108.291 E.08247
G1 X132.451 Y107.269 E.08219
G1 X130.536 Y106.011 E.08275
G1 X128.786 Y104.543 E.08246
G1 X127.219 Y102.881 E.08247
G1 X125.86 Y101.055 E.08219
G1 X124.713 Y99.071 E.08275
G1 X123.808 Y96.974 E.08246
G1 X123.153 Y94.785 E.08247
G1 X122.757 Y92.536 E.08247
G1 X122.622 Y90.231 E.08337
G1 X122.622 Y53.113 E1.34018
G1 X123.082 Y53.113 E.01661
G1 E-.8 F2400
;WIPE_START
G1 F3600
G1 X125.082 Y53.113
;WIPE_END
G1 X122.165 Y52.656 Z.6 F30000
G1 Z.2
G1 E.8 F2400
;TYPE:Outer wall
G1 F3600
G1 X162.365 Y52.656 E1.45146
G1 X162.365 Y90.244 E1.35716
G1 X162.229 Y92.589 E.08481
G1 X161.823 Y94.891 E.08439
G1 X161.152 Y97.13 E.08439
G1 X160.227 Y99.276 E.08439
G1 X159.058 Y101.301 E.08439
G1 X157.662 Y103.175 E.08439
G1 X156.058 Y104.876 E.08439
G1 X154.268 Y106.378 E.08439
G1 X152.315 Y107.662 E.08439
G1 X150.226 Y108.711 E.08439
G1 X148.03 Y109.511 E.08439
G1 X145.755 Y110.05 E.08439
G1 X143.434 Y110.321 E.08439
G1 X141.097 Y110.321 E.08439
G1 X138.775 Y110.05 E.08439
G1 X136.501 Y109.511 E.08439
G1 X134.304 Y108.711 E.08439
G1 X132.223 Y107.666 E.08411
G1 X130.263 Y106.378 E.08468
G1 X128.472 Y104.876 E.08439
G1 X126.868 Y103.175 E.08439
G1 X125.477 Y101.307 E.08411
G1 X124.304 Y99.276 E.08468
G1 X123.378 Y97.13 E.08439
G1 X122.708 Y94.891 E.08439
G1 X122.302 Y92.589 E.08439
G1 X122.165 Y90.244 E.08481
G1 X122.165 Y52.696 E1.35572
G1 E-.8 F2400
;WIPE_START
G1 F3600
G1 X124.165 Y52.694
;WIPE_END
G1 X131.792 Y52.994 Z.6 F30000
G1 X161.771 Y54.176 Z.6
G1 Z.2
G1 E.8 F2400
;TYPE:Bottom surface
;WIDTH:0.500695
G1 F3600
G1 X161.051 Y53.456 E.03681
G1 X160.404 Y53.456 E.02341
G1 X161.565 Y54.617 E.0594
G1 X161.565 Y55.265 E.02341
G1 X159.756 Y53.456 E.0925
G1 X159.109 Y53.456 E.02341
G1 X161.565 Y55.912 E.12561
G1 X161.565 Y56.559 E.02341
G1 X158.462 Y53.456 E.15872
G1 X157.814 Y53.456 E.02341
G1 X161.565 Y57.207 E.19183
G1 X161.565 Y57.854 E.02341
G1 X157.167 Y53.456 E.22493
G1 X156.52 Y53.456 E.02341
G1 X161.565 Y58.502 E.25804
G1 X161.565 Y59.149 E.02341
G1 X155.872 Y53.456 E.29115
G1 X155.225 Y53.456 E.02341
G1 X161.565 Y59.796 E.32425
G1 X161.565 Y60.444 E.02341
G1 X154.577 Y53.456 E.35736
G1 X153.93 Y53.456 E.02341
G1 X161.565 Y61.091 E.39047
G1 X161.565 Y61.739 E.02341
G1 X153.283 Y53.456 E.42358
G1 X152.635 Y53.456 E.02341
G1 X161.565 Y62.386 E.45668
G1 X161.565 Y63.033 E.02341
G1 X151.988 Y53.456 E.48979
G1 X151.34 Y53.456 E.02341
G1 X161.565 Y63.681 E.5229
G1 X161.565 Y64.328 E.02341
G1 X150.693 Y53.456 E.556
G1 X150.046 Y53.456 E.02341
G1 X161.565 Y64.975 E.58911
G1 X161.565 Y65.623 E.02341
G1 X149.398 Y53.456 E.62222
G1 X148.751 Y53.456 E.02341
G1 X161.565 Y66.27 E.65533
G1 X161.565 Y66.918 E.02341
G1 X148.103 Y53.456 E.68843
G1 X147.456 Y53.456 E.02341
G1 X161.565 Y67.565 E.72154
G1 X161.565 Y68.212 E.02341
G1 X146.809 Y53.456 E.75465
G1 X146.161 Y53.456 E.02341
G1 X161.565 Y68.86 E.78775
G1 X161.565 Y69.507 E.02341
G1 X145.514 Y53.456 E.82086
M73 P1 R22
G1 X144.866 Y53.456 E.02341
M73 P1 R22
G1 X161.565 Y70.155 E.85397
G1 X161.565 Y70.802 E.02341
G1 X144.219 Y53.456 E.88708
G1 X143.572 Y53.456 E.02341
G1 X161.565 Y71.449 E.92018
G1 X161.565 Y72.097 E.02341
G1 X142.924 Y53.456 E.95329
G1 X142.277 Y53.456 E.02341
G1 X161.565 Y72.744 E.9864
G1 X161.565 Y73.392 E.02341
G1 X141.63 Y53.456 E1.0195
G1 X140.982 Y53.456 E.02341
G1 X161.565 Y74.039 E1.05261
G1 X161.565 Y74.686 E.02341
G1 X140.335 Y53.456 E1.08572
G1 X139.687 Y53.456 E.02341
G1 X161.565 Y75.334 E1.11883
G1 X161.565 Y75.981 E.02341
G1 X139.04 Y53.456 E1.15193
G1 X138.393 Y53.456 E.02341
G1 X161.565 Y76.629 E1.18504
G1 X161.565 Y77.276 E.02341
G1 X137.745 Y53.456 E1.21815
G1 X137.098 Y53.456 E.02341
G1 X161.565 Y77.923 E1.25125
G1 X161.565 Y78.571 E.02341
G1 X136.45 Y53.456 E1.28436
G1 X135.803 Y53.456 E.02341
G1 X161.565 Y79.218 E1.31747
G1 X161.565 Y79.865 E.02341
G1 X135.156 Y53.456 E1.35058
G1 X134.508 Y53.456 E.02341
G1 X161.565 Y80.513 E1.38368
G1 X161.565 Y81.16 E.02341
G1 X133.861 Y53.456 E1.41679
G1 X133.213 Y53.456 E.02341
G1 X161.565 Y81.808 E1.4499
G1 X161.565 Y82.455 E.02341
G1 X132.566 Y53.456 E1.483
G1 X131.919 Y53.456 E.02341
G1 X161.565 Y83.102 E1.51611
G1 X161.565 Y83.75 E.02341
G1 X131.271 Y53.456 E1.54922
G1 X130.624 Y53.456 E.02341
G1 X161.565 Y84.397 E1.58233
M73 P2 R22
G1 X161.565 Y85.045 E.02341
M73 P2 R22
G1 X129.976 Y53.456 E1.61543
G1 X129.329 Y53.456 E.02341
G1 X161.565 Y85.692 E1.64854
G1 X161.565 Y86.339 E.02341
G1 X128.682 Y53.456 E1.68165
G1 X128.034 Y53.456 E.02341
G1 X161.565 Y86.987 E1.71475
G1 X161.565 Y87.634 E.02341
G1 X127.387 Y53.456 E1.74786
G1 X126.74 Y53.456 E.02341
G1 X161.565 Y88.282 E1.78097
G1 X161.565 Y88.929 E.02341
G1 X126.092 Y53.456 E1.81408
G1 X125.445 Y53.456 E.02341
G1 X161.565 Y89.576 E1.84718
G1 X161.565 Y90.224 E.0234
G1 X124.797 Y53.456 E1.88028
G1 X124.15 Y53.456 E.02341
G1 X161.53 Y90.835 E1.91157
G1 X161.494 Y91.447 E.02216
G1 X123.503 Y53.456 E1.94285
G1 X122.965 Y53.456 E.01943
G1 X122.965 Y53.566 E.00398
G1 X161.458 Y92.059 E1.96851
G3 X161.405 Y92.653 I-2.569 J.07 E.02162
G1 X122.965 Y54.213 E1.9658
G1 X122.965 Y54.86 E.02341
G1 X161.308 Y93.203 E1.96083
G1 X161.211 Y93.754 E.02021
G1 X122.965 Y55.508 E1.95587
G1 X122.965 Y56.155 E.02341
G1 X161.114 Y94.304 E1.95091
M73 P3 R22
G3 X161.003 Y94.84 I-2.35 J-.207 E.01985
M73 P3 R22
G1 X122.965 Y56.803 E1.94523
G1 X122.965 Y57.45 E.02341
G1 X160.854 Y95.339 E1.9376
G1 X160.705 Y95.837 E.01881
G1 X122.965 Y58.097 E1.92997
G1 X122.965 Y58.745 E.02341
G1 X160.555 Y96.335 E1.92234
G1 X160.406 Y96.833 E.01881
G1 X122.965 Y59.392 E1.91472
G1 X122.965 Y60.04 E.02341
G1 X160.213 Y97.288 E1.90485
G1 X160.018 Y97.74 E.01781
G1 X122.965 Y60.687 E1.89487
G1 X122.965 Y61.334 E.02341
G1 X159.823 Y98.192 E1.88489
G1 X159.628 Y98.645 E.01781
G1 X122.965 Y61.982 E1.87491
G1 X122.965 Y62.629 E.02341
G1 X159.416 Y99.08 E1.86408
G1 X159.179 Y99.491 E.01714
G1 X122.965 Y63.277 E1.85197
G1 X122.965 Y63.924 E.02341
G1 X158.942 Y99.901 E1.83985
G1 X158.705 Y100.312 E.01714
G1 X122.965 Y64.571 E1.82773
G1 X122.965 Y65.219 E.02341
G1 X158.468 Y100.722 E1.81561
G3 X158.205 Y101.106 I-1.776 J-.933 E.01688
G1 X122.965 Y65.866 E1.80216
M73 P4 R22
G1 X122.965 Y66.514 E.02341
M73 P4 R22
G1 X157.929 Y101.477 E1.78803
G1 X157.653 Y101.849 E.01673
G1 X122.965 Y67.161 E1.7739
G1 X122.965 Y67.808 E.02341
G1 X157.377 Y102.22 E1.75977
G1 X157.1 Y102.591 E.01673
G1 X122.965 Y68.456 E1.74565
G1 X122.965 Y69.103 E.02341
G1 X156.793 Y102.931 E1.72994
M73 P4 R21
G1 X156.479 Y103.264 E.01656
M73 P4 R21
G1 X122.965 Y69.75 E1.71387
G1 X122.965 Y70.398 E.02341
G1 X156.165 Y103.597 E1.69779
G1 X155.85 Y103.93 E.01656
G1 X122.965 Y71.045 E1.68172
G1 X122.965 Y71.693 E.02341
G1 X155.536 Y104.264 E1.66565
G3 X155.187 Y104.562 I-1.452 J-1.342 E.01664
G1 X122.965 Y72.34 E1.64782
G1 X122.965 Y72.987 E.02341
G1 X154.835 Y104.858 E1.62982
G1 X154.483 Y105.153 E.01662
G1 X122.965 Y73.635 E1.61181
G1 X122.965 Y74.282 E.02341
G1 X154.131 Y105.448 E1.59381
G1 X153.778 Y105.743 E.01662
G1 X122.965 Y74.93 E1.57575
G1 X122.965 Y75.577 E.02341
G1 X153.388 Y105.999 E1.55578
G1 X152.997 Y106.256 E.0169
G1 X122.965 Y76.224 E1.53581
M73 P5 R21
G1 X122.965 Y76.872 E.02341
M73 P5 R21
G1 X152.607 Y106.513 E1.51584
G1 X152.216 Y106.77 E.0169
G1 X122.965 Y77.519 E1.49587
G1 X122.965 Y78.167 E.02341
G1 X151.816 Y107.018 E1.47543
G1 X151.385 Y107.234 E.01744
G1 X122.965 Y78.814 E1.45339
G1 X122.965 Y79.461 E.02341
G1 X150.954 Y107.451 E1.43135
G1 X150.523 Y107.667 E.01744
G1 X122.965 Y80.109 E1.40931
G1 X122.965 Y80.756 E.02341
G1 X150.092 Y107.883 E1.38727
G3 X149.636 Y108.075 I-1.047 J-1.855 E.01792
G1 X122.965 Y81.404 E1.36395
G1 X122.965 Y82.051 E.02341
G1 X149.162 Y108.248 E1.33968
G1 X148.687 Y108.42 E.01826
G1 X122.965 Y82.698 E1.3154
G1 X122.965 Y83.346 E.02341
G1 X148.212 Y108.593 E1.29113
G3 X147.731 Y108.759 I-.952 J-1.974 E.01845
G1 X122.965 Y83.993 E1.26653
G1 X122.965 Y84.641 E.02341
G1 X147.208 Y108.883 E1.23977
G1 X146.685 Y109.008 E.01945
G1 X122.965 Y85.288 E1.21301
G1 X122.965 Y85.935 E.02341
G1 X146.161 Y109.132 E1.18624
G1 X145.638 Y109.256 E.01945
G1 X122.965 Y86.583 E1.15948
G1 X122.965 Y87.23 E.02341
G1 X145.061 Y109.326 E1.12995
G1 X144.481 Y109.393 E.0211
G1 X122.965 Y87.877 E1.10031
G1 X122.965 Y88.525 E.02341
G1 X143.901 Y109.461 E1.07067
G1 X143.314 Y109.521 E.02135
G1 X122.965 Y89.172 E1.04064
G1 X122.965 Y89.82 E.02341
G1 X142.667 Y109.521 E1.00753
G1 X142.019 Y109.521 E.02341
G1 X122.98 Y90.482 E.97364
M73 P6 R21
G1 X123.02 Y91.17 E.0249
M73 P6 R21
G1 X141.372 Y109.521 E.93849
G3 X140.669 Y109.466 I-.114 J-3.034 E.02555
G1 X123.06 Y91.857 E.9005
G1 X123.107 Y92.551 E.02517
G1 X139.936 Y109.38 E.86061
G1 X139.203 Y109.295 E.02669
G1 X123.246 Y93.337 E.81603
G1 X123.385 Y94.123 E.02886
G1 X138.4 Y109.139 E.76788
G1 X137.552 Y108.938 E.03153
G1 X123.559 Y94.945 E.71558
G1 X123.835 Y95.869 E.03488
G1 X136.698 Y108.731 E.65776
G1 X135.68 Y108.361 E.03917
G1 X124.112 Y96.793 E.59156
G1 X124.589 Y97.917 E.04414
G1 X134.662 Y107.99 E.51514
G1 X133.372 Y107.348 E.05209
G1 X125.128 Y99.104 E.42163
G1 X126.014 Y100.637 E.06405
G1 X131.823 Y106.446 E.29706
G1 X130.741 Y105.735 E.04681
G1 X129.023 Y104.293 E.08112
G1 X126.747 Y102.018 E.11636
G1 E-.8 F2400
;WIPE_START
G1 F3600
G1 X128.161 Y103.432
;WIPE_END
G1 X125.035 Y98.886 Z.6 F30000
G1 Z.2
G1 E.8 F2400
;TYPE:Gap infill
;WIDTH:0.256781
G1 F3600
G1 X124.947 Y98.756 E.00266
;WIDTH:0.211348
G1 X124.859 Y98.626 E.00209
;WIDTH:0.165916
G1 X124.77 Y98.496 E.00153
;WIDTH:0.1432
G1 X124.682 Y98.365 E.00125
G1 E-.8 F2400
;WIPE_START
G1 F3600
G1 X124.77 Y98.496
;WIPE_END
G1 X126.861 Y101.904 Z.6 F30000
G1 Z.2
G1 E.8 F2400
;WIDTH:0.151539
G1 F3600
G1 X126.67 Y101.683 E.00251
;WIDTH:0.133616
G1 X126.479 Y101.462 E.00209
G1 E-.8 F2400
;WIPE_START
G1 F3600
G1 X126.67 Y101.683
;WIPE_END
G1 X132.371 Y106.757 Z.6 F30000
G1 X132.862 Y107.194 Z.6
G1 Z.2
G1 E.8 F2400
;WIDTH:0.121018
G1 F3600
G1 X132.732 Y107.1 E.00098
;WIDTH:0.167515
G1 X132.603 Y107.007 E.00157
;WIDTH:0.210978
G1 X132.414 Y106.853 E.00323
;WIDTH:0.251406
G1 X132.225 Y106.7 E.00401
;WIDTH:0.27162
G1 X132.037 Y106.546 E.0044
; stop printing object 3mm_mould.STL id:0 copy 0
;TIME_ELAPSED:87.803970

M106 S255
;LAYER_CHANGE
;Z:0.4
;HEIGHT:0.2
;BEFORE_LAYER_CHANGE
;0.4
G92 E0

G1 E-.8 F2400
;WIPE_START
G1 F3600
G1 X132.225 Y106.7
;WIPE_END
EXCLUDE_OBJECT_END NAME=3mm_mould.STL_id_0_copy_0
;AFTER_LAYER_CHANGE
;0.4
;_SET_FAN_SPEED_CHANGING_LAYER
SET_VELOCITY_LIMIT ACCEL=10000 ACCEL_TO_DECEL=10000
M140 S50 ; set bed temperature
; printing object 3mm_mould.STL id:0 copy 0
EXCLUDE_OBJECT_START NAME=3mm_mould.STL_id_0_copy_0
G17
G3 Z.6 I1.199 J-.209 P1  F30000
G1 X122.817 Y52.858 Z.6
G1 Z.4
G1 E.8 F2400
SET_VELOCITY_LIMIT ACCEL=5000 ACCEL_TO_DECEL=5000
;TYPE:Inner wall
;WIDTH:0.449999
G1 F16950.025
G1 X162.163 Y52.858 E1.26522
G1 X162.163 Y90.238 E1.20202
G1 X162.028 Y92.566 E.07497
G1 X161.626 Y94.844 E.0744
G1 X160.962 Y97.061 E.0744
G1 X160.046 Y99.186 E.0744
G1 X158.889 Y101.189 E.0744
G1 X157.507 Y103.045 E.0744
G1 X155.919 Y104.728 E.0744
G1 X154.147 Y106.216 E.0744
G1 X152.214 Y107.487 E.0744
G1 X150.146 Y108.526 E.0744
G1 X147.972 Y109.317 E.0744
G1 X145.72 Y109.85 E.0744
G1 X143.422 Y110.119 E.0744
G1 X141.108 Y110.119 E.0744
G1 X138.81 Y109.85 E.0744
G1 X136.559 Y109.317 E.0744
G1 X134.385 Y108.526 E.0744
G1 X132.317 Y107.487 E.0744
G1 X130.384 Y106.216 E.0744
G1 X128.611 Y104.728 E.0744
G1 X127.023 Y103.045 E.0744
G1 X125.642 Y101.189 E.0744
G1 X124.485 Y99.186 E.0744
G1 X123.568 Y97.061 E.0744
G1 X122.905 Y94.844 E.0744
G1 X122.503 Y92.566 E.0744
G1 X122.367 Y90.238 E.07497
G1 X122.367 Y52.858 E1.20202
G1 X122.777 Y52.858 E.01318
SET_VELOCITY_LIMIT ACCEL=10000 ACCEL_TO_DECEL=10000
G1 X121.975 Y52.466 F30000
SET_VELOCITY_LIMIT ACCEL=5000 ACCEL_TO_DECEL=5000
;TYPE:Outer wall
;WIDTH:0.419999
G1 F12000
G1 X162.555 Y52.466 E1.20874
G1 X162.555 Y90.25 E1.12545
G1 X162.418 Y92.611 E.07046
G1 X162.008 Y94.935 E.07028
G1 X161.331 Y97.195 E.07028
G1 X160.397 Y99.362 E.07028
G1 X159.217 Y101.405 E.07028
G1 X157.808 Y103.298 E.07028
G1 X156.189 Y105.014 E.07028
G1 X154.381 Y106.531 E.07028
G1 X152.41 Y107.827 E.07028
G1 X150.302 Y108.886 E.07028
G1 X148.084 Y109.693 E.07028
G1 X145.789 Y110.237 E.07028
G1 X143.445 Y110.511 E.07028
G1 X141.086 Y110.511 E.07028
G1 X138.742 Y110.237 E.07028
G1 X136.446 Y109.693 E.07028
G1 X134.229 Y108.886 E.07028
G1 X132.12 Y107.827 E.07028
G1 X130.149 Y106.531 E.07028
G1 X128.342 Y105.014 E.07028
G1 X126.722 Y103.298 E.07028
G1 X125.313 Y101.405 E.07028
G1 X124.134 Y99.362 E.07028
G1 X123.199 Y97.195 E.07028
G1 X122.523 Y94.935 E.07028
G1 X122.113 Y92.611 E.07028
G1 X121.975 Y90.25 E.07046
G1 X121.975 Y52.506 E1.12426
SET_VELOCITY_LIMIT ACCEL=10000 ACCEL_TO_DECEL=10000
G1 E-.8 F2400
;WIPE_START
G1 F12000
G1 X123.975 Y52.504
;WIPE_END
G1 X122.755 Y53.187 Z.8 F30000
G1 Z.4
G1 E.8 F2400
;TYPE:Internal solid infill
;WIDTH:0.38292
G1 F15000
G1 X122.691 Y53.224 E.00198
G1 X122.756 Y53.259 E.00198
G1 X157.855 Y102.41 F30000
;WIDTH:0.42063
G1 F15000
G1 X155.733 Y104.533 E.08955
G1 X153.985 Y105.999 E.06805
G1 X153.246 Y106.485 E.0264
G1 X158.583 Y101.148 E.2252
G1 X158.663 Y101.041 E.00398
G1 X159.355 Y99.842 E.04131
G1 X151.808 Y107.389 E.31844
G1 X150.735 Y107.927 E.03583
G1 X159.96 Y98.703 E.38924
G1 X160.365 Y97.763 E.03052
G1 X149.744 Y108.385 E.44816
G1 X148.904 Y108.69 E.02667
G1 X160.743 Y96.851 E.49955
G1 X160.971 Y96.089 E.02375
G1 X148.064 Y108.996 E.54462
G1 X147.894 Y109.058 E.0054
G1 X147.336 Y109.19 E.01712
G1 X161.2 Y95.326 E.58498
G1 X161.363 Y94.782 E.01695
G1 X161.395 Y94.597 E.00562
