; HEADER_BLOCK_START
; generated by Creality_Print V6.2.0.2828 on 2025-07-06 at 10:25:50
; total layer number: 95
; filament_density: 1.24
; filament_diameter: 1.75
; max_z_height: 19.00
; HEADER_BLOCK_END

; MINX = 81.71
; MINY = 18.83
; MINZ = 0.00
; MAXX = 196.99
; MAXY = 82.39
; MAXZ = 19.00

; THUMBNAIL_BLOCK_START

;
; THUMBNAIL_BLOCK_END

; THUMBNAIL_BLOCK_START

;
; THUMBNAIL_BLOCK_END

; external perimeters extrusion width = 0.42mm
; perimeters extrusion width = 0.45mm
; infill extrusion width = 0.45mm
; solid infill extrusion width = 0.42mm
; top infill extrusion width = 0.42mm
; first layer extrusion width = 0.50mm

; external perimeters extrusion width = 0.42mm
; perimeters extrusion width = 0.45mm
; infill extrusion width = 0.45mm
; solid infill extrusion width = 0.42mm
; top infill extrusion width = 0.42mm
; first layer extrusion width = 0.50mm

; EXECUTABLE_BLOCK_START
EXCLUDE_OBJECT_DEFINE NAME=camera_mounting.STL_id_0_copy_0 CENTER=103.206,51.6425 POLYGON=[[81.7057,21.8925],[81.7181,21.736],[81.7547,21.5834],[81.8147,21.4385],[81.8967,21.3047],[81.9986,21.1854],[82.118,21.0834],[82.2518,21.0015],[82.3967,20.9414],[82.5493,20.9048],[82.7057,20.8925],[123.706,20.8925],[123.862,20.9048],[124.015,20.9414],[124.16,21.0015],[124.294,21.0834],[124.413,21.1854],[124.515,21.3047],[124.597,21.4385],[124.657,21.5834],[124.693,21.736],[124.706,21.8925],[124.706,60.8925],[124.56,63.3885],[124.126,65.8507],[123.849,66.9027],[123.409,68.2459],[122.419,70.5416],[121.169,72.7069],[119.676,74.7124],[117.96,76.531],[116.045,78.1381],[113.956,79.512],[111.721,80.6341],[109.372,81.4892],[108.961,81.608],[106.939,82.0658],[104.456,82.3561],[103.206,82.3925],[101.956,82.3561],[99.4723,82.0658],[97.451,81.608],[97.0395,81.4892],[94.69,80.6341],[92.4557,79.512],[90.3668,78.1381],[88.4515,76.531],[86.7358,74.7124],[85.2428,72.7069],[83.9926,70.5416],[83.0024,68.2459],[82.2853,65.8507],[81.8511,63.3885],[81.7057,60.8925],[81.7057,21.8925]]
EXCLUDE_OBJECT_DEFINE NAME=gel_housing.STL_id_1_copy_0 CENTER=175.488,49.5812 POLYGON=[[153.988,19.8312],[154.001,19.6747],[154.037,19.5221],[154.097,19.3772],[154.179,19.2434],[154.281,19.1241],[154.401,19.0221],[154.534,18.9402],[154.679,18.8801],[154.832,18.8435],[154.988,18.8312],[195.988,18.8312],[196.145,18.8435],[196.297,18.8801],[196.442,18.9402],[196.576,19.0221],[196.696,19.1241],[196.797,19.2434],[196.879,19.3772],[196.939,19.5221],[196.976,19.6747],[196.988,19.8312],[196.988,58.8312],[196.853,61.2384],[196.449,63.6154],[195.782,65.9322],[194.859,68.1597],[193.693,70.2699],[192.298,72.2362],[190.691,74.034],[188.893,75.6405],[186.927,77.0357],[184.817,78.202],[182.589,79.1247],[180.273,79.7921],[177.896,80.196],[175.488,80.3312],[173.081,80.196],[170.704,79.7921],[168.387,79.1247],[166.16,78.202],[164.05,77.0357],[162.083,75.6405],[160.286,74.034],[158.679,72.2362],[157.284,70.2699],[156.118,68.1597],[155.195,65.9322],[154.527,63.6154],[154.124,61.2384],[153.988,58.8312],[153.988,19.8312]]
M73 P0 R25
M106 S0
M106 P2 S0
;TYPE:Custom
START_PRINT EXTRUDER_TEMP=220 BED_TEMP=50
T0
M204 S2000
M104 S220
G1 Z3 F600
M83
G92 E0
G1 Z1 F600
G90
G21
M83 ; use relative distances for extrusion
G1 E-.8 F2400
M106 S0
;LAYER_CHANGE
;Z:0.2
;HEIGHT:0.2
;BEFORE_LAYER_CHANGE
;0.2
G92 E0

;AFTER_LAYER_CHANGE
;0.2
;_SET_FAN_SPEED_CHANGING_LAYER
SET_VELOCITY_LIMIT ACCEL=1000 ACCEL_TO_DECEL=1000
SET_VELOCITY_LIMIT SQUARE_CORNER_VELOCITY=20
; printing object camera_mounting.STL id:0 copy 0
EXCLUDE_OBJECT_START NAME=camera_mounting.STL_id_0_copy_0
G1 Z.4 F30000
G1 X83.086 Y21.75
G1 Z.2
G1 E.8 F2400
;TYPE:Inner wall
;WIDTH:0.499999
G1 F3600
G1 X123.629 Y21.75 E1.46384
G1 X123.799 Y21.799 E.0064
G1 X123.849 Y21.97 E.00643
G1 X123.849 Y60.868 E1.40445
G1 X123.708 Y63.289 E.08757
G1 X123.288 Y65.666 E.08717
G3 X122.607 Y67.942 I-20.013 J-4.755 E.08583
G1 X121.652 Y70.156 E.08706
G1 X120.451 Y72.235 E.08667
G1 X119.018 Y74.161 E.08667
G1 X117.371 Y75.907 E.08667
G1 X115.532 Y77.449 E.08667
G1 X113.526 Y78.768 E.08667
G1 X111.381 Y79.846 E.08667
G1 X109.295 Y80.605 E.08017
G1 X108.749 Y80.777 E.02067
G1 X106.794 Y81.22 E.07236
G1 X104.406 Y81.499 E.08682
G1 X102.006 Y81.499 E.08667
G1 X99.63 Y81.221 E.08636
G1 X97.844 Y80.818 E.0661
G1 X97.305 Y80.674 E.02017
G1 X95.03 Y79.846 E.08739
G1 X92.885 Y78.768 E.08667
G1 X90.88 Y77.449 E.08667
G1 X89.041 Y75.907 E.08667
G1 X87.393 Y74.161 E.08667
G1 X85.968 Y72.245 E.0862
G1 X84.76 Y70.156 E.08714
G1 X83.809 Y67.952 E.08666
G1 X83.121 Y65.653 E.08667
G1 X82.704 Y63.289 E.08667
G1 X82.563 Y60.868 E.08757
G1 X82.563 Y21.97 E1.40445
G1 X82.598 Y21.814 E.00577
G1 X82.766 Y21.75 E.0065
G1 X83.046 Y21.75 E.01011
G1 X82.223 Y21.542 F30000
;TYPE:Outer wall
G1 F3600
G1 X82.438 Y21.368 E.00998
G1 X82.73 Y21.292 E.0109
G1 X123.629 Y21.292 E1.47668
G1 X123.89 Y21.325 E.00953
G1 X124.122 Y21.475 E.00997
G1 X124.273 Y21.708 E.01001
G1 X124.306 Y21.97 E.00952
G1 X124.306 Y60.881 E1.40493
G1 X124.162 Y63.342 E.08901
G1 X123.735 Y65.765 E.08883
G3 X123.035 Y68.104 I-20.573 J-4.886 E.08823
G1 X122.061 Y70.362 E.08877
G1 X120.834 Y72.487 E.08859
G1 X119.369 Y74.455 E.08859
G1 X117.685 Y76.24 E.08859
G1 X115.805 Y77.817 E.08859
G1 X113.755 Y79.165 E.08859
G1 X111.563 Y80.266 E.08859
G1 X109.451 Y81.035 E.08113
G1 X108.863 Y81.22 E.02227
G1 X106.872 Y81.671 E.07372
G1 X104.433 Y81.956 E.08866
G1 X101.979 Y81.956 E.08859
G1 X99.553 Y81.673 E.08819
G1 X97.743 Y81.264 E.06697
G1 X97.163 Y81.109 E.02169
G1 X94.849 Y80.266 E.08893
G1 X92.656 Y79.165 E.08859
G1 X90.606 Y77.817 E.08859
G1 X88.726 Y76.24 E.08859
G1 X87.043 Y74.455 E.08859
G1 X85.585 Y72.497 E.08812
G1 X84.351 Y70.362 E.08906
G1 X83.379 Y68.109 E.08859
G1 X82.675 Y65.758 E.08859
G1 X82.249 Y63.342 E.08859
G1 X82.106 Y60.881 E.08901
G1 X82.106 Y21.848 E1.40931
G1 X82.209 Y21.579 E.01041
G1 E-.8 F2400
;WIPE_START
G1 F3600
G1 X82.438 Y21.368
G1 X82.73 Y21.292
G1 X84.117 Y21.292
;WIPE_END
G1 X91.571 Y22.931 Z.6 F30000
G1 X115.807 Y28.256 Z.6
G1 Z.2
G1 E.8 F2400
;TYPE:Inner wall
G1 F3600
G1 X115.97 Y28.548 E.01208
G1 X116.048 Y28.937 E.01431
G1 X115.982 Y29.385 E.01634
G1 X115.746 Y29.806 E.01742
G1 X115.348 Y30.134 E.01862
G1 X114.878 Y30.284 E.01782
G1 X114.392 Y30.257 E.01757
G1 X113.957 Y30.068 E.01712
G1 X113.644 Y29.777 E.01542
G1 X113.413 Y29.326 E.01831
G1 X113.366 Y28.877 E.01628
G1 X113.5 Y28.397 E.01802
G1 X113.706 Y28.095 E.01319
G1 X113.887 Y27.942 E.00856
G1 X113.566 Y27.602 E.0169
G1 X113.393 Y27.17 E.01681
G1 X113.372 Y26.742 E.01547
G1 X113.525 Y26.278 E.01764
G1 X113.744 Y25.992 E.013
G1 X114.13 Y25.716 E.01713
G1 X114.415 Y25.625 E.01083
G1 X114.821 Y25.591 E.0147
G1 X115.277 Y25.713 E.01703
G1 X115.665 Y25.989 E.01719
G1 X115.929 Y26.373 E.01684
G1 X116.011 Y26.62 E.00938
G1 X116.037 Y27.059 E.01587
G1 X115.948 Y27.399 E.0127
G1 X115.671 Y27.821 E.01824
G1 X115.526 Y27.939 E.00674
G1 X115.748 Y28.151 E.01109
G1 X115.788 Y28.221 E.00292
G1 X115.295 Y27.539 F30000
;TYPE:Outer wall
;WIDTH:0.508663
G1 F3600
G1 X115.014 Y27.681 E.01158
;WIDTH:0.520085
G1 X114.557 Y27.711 E.01727
G1 X114.16 Y27.574 E.01585
;WIDTH:0.499999
G1 X113.95 Y27.35 E.01107
G1 X113.84 Y27.068 E.01091
G1 X113.826 Y26.797 E.00982
G1 X113.951 Y26.461 E.01295
G1 X114.159 Y26.228 E.01128
G1 X114.456 Y26.08 E.01197
G1 X114.899 Y26.062 E.01604
G1 X115.19 Y26.184 E.01139
G1 X115.417 Y26.397 E.01124
G1 X115.558 Y26.68 E.01142
G1 X115.583 Y26.998 E.01151
G1 X115.493 Y27.29 E.01103
G1 X115.32 Y27.508 E.01006
G1 E-.8 F2400
;WIPE_START
G1 F3600
G1 X115.014 Y27.681
G1 X114.557 Y27.711
G1 X114.16 Y27.574
G1 X113.95 Y27.35
G1 X113.84 Y27.068
G1 X113.832 Y26.907
;WIPE_END
G1 X115.527 Y28.662 Z.6 F30000
G1 Z.2
G1 E.8 F2400
G1 F3600
G1 X115.589 Y28.967 E.01122
G1 X115.531 Y29.278 E.01142
G1 X115.367 Y29.542 E.01121
G1 X115.12 Y29.735 E.01131
G1 X114.824 Y29.829 E.01123
G1 X114.511 Y29.815 E.01132
G1 X114.195 Y29.672 E.0125
G1 X113.966 Y29.427 E.0121
G1 X113.853 Y29.196 E.0093
G1 X113.828 Y28.88 E.01143
G1 X113.917 Y28.59 E.01097
G1 X114.116 Y28.339 E.01158
;WIDTH:0.513848
G1 X114.398 Y28.194 E.01179
;WIDTH:0.514689
G1 X114.835 Y28.165 E.01631
G1 X115.11 Y28.231 E.01055
;WIDTH:0.499999
G1 X115.371 Y28.409 E.01141
G1 X115.506 Y28.628 E.00931
G1 E-.8 F2400
;WIPE_START
G1 F3600
G1 X115.589 Y28.967
G1 X115.531 Y29.278
G1 X115.367 Y29.542
G1 X115.12 Y29.735
G1 X114.824 Y29.829
G1 X114.511 Y29.815
G1 X114.432 Y29.779
;WIPE_END
G1 X106.831 Y29.079 Z.6 F30000
G1 X104.532 Y28.868 Z.6
G1 Z.2
G1 E.8 F2400
;TYPE:Inner wall
G1 F3600
G1 X104.542 Y29.027 E.00577
G1 X104.456 Y29.45 E.01557
G1 X104.199 Y29.858 E.01741
G1 X103.821 Y30.146 E.01717
G1 X103.354 Y30.285 E.01759
G1 X102.884 Y30.255 E.01701
G1 X102.457 Y30.068 E.01681
G1 X102.144 Y29.777 E.01542
G1 X101.913 Y29.326 E.01831
G1 X101.866 Y28.877 E.01628
G1 X102 Y28.397 E.01799
G1 X102.205 Y28.096 E.01316
G1 X102.387 Y27.942 E.00861
G1 X102.066 Y27.601 E.01692
G1 X101.893 Y27.17 E.01679
G1 X101.872 Y26.742 E.01548
G1 X102.025 Y26.278 E.01765
G1 X102.244 Y25.992 E.01298
G1 X102.63 Y25.716 E.01713
G1 X102.915 Y25.625 E.01082
G1 X103.321 Y25.591 E.0147
G1 X103.777 Y25.713 E.01703
G1 X104.165 Y25.989 E.01719
G1 X104.43 Y26.375 E.01692
G1 X104.512 Y26.622 E.00937
G1 X104.535 Y27.072 E.01629
G1 X104.413 Y27.477 E.01525
G1 X104.206 Y27.782 E.01333
G1 X104.024 Y27.935 E.00861
G1 X104.346 Y28.277 E.01695
G1 X104.526 Y28.766 E.01884
G1 X104.53 Y28.828 E.00222
G1 X103.969 Y28.546 F30000
;TYPE:Outer wall
G1 F3600
G1 X104.089 Y28.967 E.0158
G1 X104.031 Y29.278 E.01141
G1 X103.833 Y29.571 E.01276
G1 X103.62 Y29.735 E.0097
G1 X103.303 Y29.829 E.01196
G1 X103.011 Y29.815 E.01056
G1 X102.695 Y29.672 E.01251
G1 X102.466 Y29.427 E.0121
G1 X102.353 Y29.196 E.00929
G1 X102.328 Y28.88 E.01144
G1 X102.417 Y28.59 E.01097
G1 X102.616 Y28.339 E.01158
;WIDTH:0.513888
G1 X102.898 Y28.194 E.01179
;WIDTH:0.520114
G1 X103.354 Y28.166 E.01724
G1 X103.752 Y28.304 E.01585
;WIDTH:0.499999
G1 X103.942 Y28.517 E.01031
G1 X103.796 Y27.539 F30000
;WIDTH:0.513873
G1 F3600
G1 X103.513 Y27.684 E.01179
;WIDTH:0.520119
G1 X103.057 Y27.711 E.01725
G1 X102.659 Y27.573 E.01585
;WIDTH:0.499999
G1 X102.449 Y27.349 E.0111
G1 X102.34 Y27.069 E.01086
G1 X102.336 Y26.75 E.01149
G1 X102.451 Y26.461 E.01124
G1 X102.659 Y26.228 E.01128
G1 X102.861 Y26.11 E.00842
G1 X103.321 Y26.048 E.01678
G1 X103.69 Y26.184 E.01421
G1 X103.918 Y26.397 E.01125
G1 X104.058 Y26.681 E.01146
G1 X104.083 Y26.997 E.01144
G1 X103.995 Y27.287 E.01096
G1 X103.82 Y27.508 E.01015
G1 E-.8 F2400
;WIPE_START
G1 F3600
G1 X103.513 Y27.684
G1 X103.057 Y27.711
G1 X102.659 Y27.573
G1 X102.449 Y27.349
G1 X102.34 Y27.069
G1 X102.338 Y26.909
;WIPE_END
G1 X94.706 Y26.995 Z.6 F30000
G1 X90.386 Y27.044 Z.6
G1 Z.2
G1 E.8 F2400
;TYPE:Inner wall
G1 F3600
G1 X90.369 Y26.766 E.01005
G1 X90.525 Y26.278 E.0185
G1 X90.744 Y25.992 E.01298
G1 X91.13 Y25.716 E.01713
G1 X91.415 Y25.625 E.01082
G1 X91.821 Y25.591 E.0147
G1 X92.277 Y25.713 E.01704
G1 X92.665 Y25.989 E.01718
G1 X92.924 Y26.364 E.01647
G1 X93.006 Y26.604 E.00916
G1 X93.041 Y27.038 E.01571
G1 X92.913 Y27.477 E.01649
G1 X92.706 Y27.782 E.01333
G1 X92.524 Y27.935 E.00861
G1 X92.846 Y28.277 E.01695
G1 X93.026 Y28.766 E.01884
G1 X93.042 Y29.027 E.00943
G1 X92.956 Y29.45 E.01557
G1 X92.699 Y29.858 E.01741
G1 X92.321 Y30.146 E.01717
G1 X91.881 Y30.283 E.01665
G1 X91.418 Y30.264 E.01674
G1 X90.995 Y30.094 E.01645
G1 X90.675 Y29.817 E.01526
G1 X90.431 Y29.388 E.01782
G1 X90.364 Y28.908 E.01749
G1 X90.467 Y28.47 E.01625
G1 X90.705 Y28.096 E.01601
G1 X90.887 Y27.942 E.00861
G1 X90.566 Y27.602 E.01692
G1 X90.393 Y27.171 E.01674
G1 X90.388 Y27.084 E.00317
G1 X90.949 Y27.349 F30000
;TYPE:Outer wall
G1 F3600
G1 X90.84 Y27.069 E.01086
G1 X90.825 Y26.805 E.00954
G1 X90.951 Y26.461 E.01323
G1 X91.159 Y26.228 E.01128
G1 X91.456 Y26.08 E.01197
G1 X91.899 Y26.062 E.01604
G1 X92.19 Y26.184 E.01139
G1 X92.417 Y26.396 E.01122
G1 X92.554 Y26.669 E.01103
G1 X92.583 Y26.997 E.01188
G1 X92.495 Y27.287 E.01096
G1 X92.296 Y27.539 E.01159
;WIDTH:0.513863
G1 X92.013 Y27.684 E.01179
;WIDTH:0.520084
G1 X91.557 Y27.711 E.01724
G1 X91.159 Y27.573 E.01586
;WIDTH:0.499999
G1 X90.977 Y27.378 E.00966
G1 X91.116 Y28.339 F30000
;WIDTH:0.513847
G1 F3600
G1 X91.398 Y28.194 E.01179
;WIDTH:0.520104
G1 X91.854 Y28.166 E.01724
G1 X92.252 Y28.304 E.01585
;WIDTH:0.499999
G1 X92.469 Y28.546 E.01176
G1 X92.589 Y28.967 E.01579
G1 X92.531 Y29.278 E.01141
G1 X92.418 Y29.48 E.00837
G1 X92.12 Y29.735 E.01412
G1 X91.824 Y29.829 E.01123
G1 X91.511 Y29.815 E.01132
G1 X91.222 Y29.694 E.0113
G1 X91.002 Y29.49 E.01084
G1 X90.853 Y29.196 E.01189
G1 X90.828 Y28.88 E.01144
G1 X90.917 Y28.59 E.01097
G1 X91.091 Y28.37 E.01013
G1 E-.8 F2400
;WIPE_START
G1 F3600
G1 X91.398 Y28.194
G1 X91.854 Y28.166
G1 X92.252 Y28.304
G1 X92.469 Y28.546
G1 X92.589 Y28.967
G1 X92.588 Y28.972
;WIPE_END
G1 X94.936 Y36.235 Z.6 F30000
G1 X104.534 Y65.926 Z.6
G1 Z.2
G1 E.8 F2400
;TYPE:Inner wall
G1 F3600
G1 X104.54 Y65.995 E.00251
G1 X104.413 Y66.431 E.01639
G1 X104.207 Y66.736 E.0133
G1 X104.024 Y66.889 E.00861
G1 X104.346 Y67.23 E.01695
G1 X104.526 Y67.719 E.01882
G1 X104.542 Y67.982 E.00949
G1 X104.456 Y68.404 E.01554
G1 X104.204 Y68.807 E.01717
G1 X103.835 Y69.094 E.01688
G1 X103.395 Y69.236 E.01668
G1 X102.893 Y69.211 E.01815
G1 X102.471 Y69.031 E.01657
G1 X102.124 Y68.704 E.01722
G1 X101.913 Y68.28 E.01712
G1 X101.866 Y67.831 E.01628
G1 X102 Y67.35 E.01803
G1 X102.204 Y67.05 E.0131
G1 X102.387 Y66.896 E.00863
G1 X102.066 Y66.555 E.01692
G1 X101.893 Y66.125 E.01675
G1 X101.875 Y65.673 E.0163
G1 X102.036 Y65.212 E.01764
G1 X102.361 Y64.832 E.01806
G1 X102.799 Y64.599 E.0179
G1 X103.313 Y64.545 E.01865
G1 X103.556 Y64.586 E.00893
G1 X103.916 Y64.736 E.01406
G1 X104.287 Y65.08 E.01825
G1 X104.501 Y65.514 E.01748
G1 X104.531 Y65.886 E.01347
G1 X104.058 Y65.635 F30000
;TYPE:Outer wall
G1 F3600
G1 X104.084 Y65.949 E.0114
G1 X103.995 Y66.241 E.01101
G1 X103.796 Y66.493 E.0116
;WIDTH:0.513843
G1 X103.513 Y66.637 E.01179
;WIDTH:0.520084
G1 X103.057 Y66.665 E.01725
G1 X102.659 Y66.527 E.01586
;WIDTH:0.499999
G1 X102.449 Y66.303 E.01108
G1 X102.341 Y66.024 E.01083
G1 X102.336 Y65.704 E.01154
G1 X102.451 Y65.414 E.01124
G1 X102.659 Y65.182 E.01128
G1 X102.956 Y65.034 E.01197
G1 X103.399 Y65.016 E.01604
G1 X103.666 Y65.119 E.01033
G1 X103.918 Y65.351 E.01233
G1 X104.041 Y65.599 E.01
G1 E-.8 F2400
;WIPE_START
G1 F3600
G1 X104.084 Y65.949
G1 X103.995 Y66.241
G1 X103.796 Y66.493
G1 X103.513 Y66.637
G1 X103.057 Y66.665
G1 X102.824 Y66.584
;WIPE_END
G1 X103.969 Y67.5 Z.6 F30000
G1 Z.2
G1 E.8 F2400
G1 F3600
G1 X104.089 Y67.922 E.01584
G1 X104.031 Y68.232 E.01138
G1 X103.867 Y68.496 E.01121
G1 X103.62 Y68.689 E.01132
G1 X103.322 Y68.783 E.01127
G1 X102.986 Y68.76 E.01217
G1 X102.721 Y68.647 E.0104
G1 X102.494 Y68.434 E.01125
G1 X102.353 Y68.15 E.01145
G1 X102.328 Y67.834 E.01144
G1 X102.417 Y67.544 E.01097
G1 X102.616 Y67.292 E.01158
;WIDTH:0.513853
G1 X102.898 Y67.148 E.01179
;WIDTH:0.520085
G1 X103.354 Y67.12 E.01723
G1 X103.752 Y67.258 E.01586
;WIDTH:0.499999
G1 X103.942 Y67.47 E.0103
G1 E-.8 F2400
;WIPE_START
G1 F3600
G1 X104.089 Y67.922
G1 X104.031 Y68.232
G1 X103.867 Y68.496
G1 X103.62 Y68.689
G1 X103.322 Y68.783
G1 X103.049 Y68.764
;WIPE_END
G1 X110.623 Y67.822 Z.6 F30000
G1 X115.797 Y67.178 Z.6
G1 Z.2
G1 E.8 F2400
;TYPE:Inner wall
G1 F3600
G1 X115.846 Y67.23 E.00258
G1 X116.026 Y67.72 E.01884
G3 X116.006 Y68.247 I-1.341 J.212 E.01916
G1 X115.812 Y68.665 E.01663
G1 X115.488 Y68.994 E.01667
G1 X115.058 Y69.198 E.01719
G3 X114.354 Y69.198 I-.352 J-1.463 E.02567
G1 X113.974 Y69.033 E.01495
G1 X113.633 Y68.715 E.01682
G1 X113.413 Y68.28 E.01763
G1 X113.366 Y67.831 E.01628
G1 X113.501 Y67.349 E.01806
G1 X113.705 Y67.05 E.01309
G1 X113.887 Y66.896 E.00861
G1 X113.566 Y66.555 E.01692
G1 X113.392 Y66.102 E.01754
G1 X113.375 Y65.673 E.01551
G1 X113.536 Y65.212 E.01761
G1 X113.861 Y64.832 E.01806
G1 X114.271 Y64.607 E.0169
G1 X114.811 Y64.545 E.01962
G1 X115.056 Y64.587 E.00897
G1 X115.467 Y64.773 E.01629
G1 X115.797 Y65.095 E.01664
G1 X115.976 Y65.429 E.01369
G1 X116.047 Y65.856 E.0156
G1 X115.967 Y66.294 E.0161
G1 X115.748 Y66.681 E.01604
